/* XPM */
static char * captain_xpm[] = {
"300 300 21636 3",
"   	c None",
".  	c #A3A6A9",
"+  	c #B7BCBE",
"@  	c #BBC1C4",
"#  	c #BEC6CB",
"$  	c #C2CAD1",
"%  	c #BCC5CD",
"&  	c #B3BDC7",
"*  	c #AAB7C2",
"=  	c #A2B1BD",
"-  	c #9DADBA",
";  	c #9FB0BE",
">  	c #A4B6C4",
",  	c #A8BAC8",
"'  	c #A1B3C2",
")  	c #91A2B2",
"!  	c #748595",
"~  	c #979697",
"{  	c #ABACAE",
"]  	c #BBBDC0",
"^  	c #C2C6C9",
"/  	c #B9C0C3",
"(  	c #B0B8BC",
"_  	c #A9B0B7",
":  	c #9BA3AC",
"<  	c #8F9AA3",
"[  	c #8B98A3",
"}  	c #8594A0",
"|  	c #7F8F9C",
"1  	c #7C8D9A",
"2  	c #8193A0",
"3  	c #8A9BA9",
"4  	c #8A9BAA",
"5  	c #8596A6",
"6  	c #7F8F9F",
"7  	c #7D8E9D",
"8  	c #788A98",
"9  	c #AFAEAD",
"0  	c #BAB9BA",
"a  	c #C1C2C4",
"b  	c #C4C6C8",
"c  	c #BEC2C5",
"d  	c #AAB1B4",
"e  	c #979EA3",
"f  	c #878E95",
"g  	c #747C85",
"h  	c #66717A",
"i  	c #66737D",
"j  	c #63727D",
"k  	c #5E6E7B",
"l  	c #586977",
"m  	c #5E707E",
"n  	c #6B7D8B",
"o  	c #748594",
"p  	c #7D8E9E",
"q  	c #8899A9",
"r  	c #91A2B1",
"s  	c #91A3B0",
"t  	c #81929E",
"u  	c #BAB9B5",
"v  	c #CFCECD",
"w  	c #DAD8D9",
"x  	c #CFCFD1",
"y  	c #BDBFC2",
"z  	c #A7ABAE",
"A  	c #8B9194",
"B  	c #737B7F",
"C  	c #646B72",
"D  	c #545D65",
"E  	c #49545D",
"F  	c #46535E",
"G  	c #485763",
"H  	c #4B5B68",
"I  	c #4B5C6A",
"J  	c #516371",
"K  	c #5C6E7C",
"L  	c #687989",
"M  	c #788999",
"N  	c #8C9DAD",
"O  	c #9FB0BF",
"P  	c #A5B7C4",
"Q  	c #99ABB7",
"R  	c #8595A1",
"S  	c #65727E",
"T  	c #BBB9B5",
"U  	c #CECDC9",
"V  	c #D5D4D2",
"W  	c #D1CFD0",
"X  	c #BABABC",
"Y  	c #A0A2A4",
"Z  	c #83878A",
"`  	c #666C6F",
" . 	c #50585C",
".. 	c #464D55",
"+. 	c #404851",
"@. 	c #3A454E",
"#. 	c #35434D",
"$. 	c #3D4C59",
"%. 	c #485966",
"&. 	c #4E606D",
"*. 	c #546574",
"=. 	c #5D6E7E",
"-. 	c #6B7B8B",
";. 	c #7A8B9B",
">. 	c #97A9B6",
",. 	c #A1B3C0",
"'. 	c #A2B3BF",
"). 	c #9BA9B5",
"!. 	c #BCB8B5",
"~. 	c #CCC9C5",
"{. 	c #D3D2CE",
"]. 	c #CBC9C8",
"^. 	c #B7B5B6",
"/. 	c #99999B",
"(. 	c #7A7C7E",
"_. 	c #5C6063",
":. 	c #42484B",
"<. 	c #31393D",
"[. 	c #30383F",
"}. 	c #333B44",
"|. 	c #333E48",
"1. 	c #323F4A",
"2. 	c #3E4C58",
"3. 	c #4A5A67",
"4. 	c #516270",
"5. 	c #506270",
"6. 	c #4E606E",
"7. 	c #5B6C7C",
"8. 	c #637484",
"9. 	c #6D7F8E",
"0. 	c #8294A1",
"a. 	c #A0B1BE",
"b. 	c #B3C3CF",
"c. 	c #B6C4D1",
"d. 	c #98A4AF",
"e. 	c #989390",
"f. 	c #CBC7C4",
"g. 	c #D7D4D1",
"h. 	c #C6C4C1",
"i. 	c #AEADAB",
"j. 	c #939293",
"k. 	c #79797A",
"l. 	c #5D5F61",
"m. 	c #424649",
"n. 	c #2D3336",
"o. 	c #232A2F",
"p. 	c #262D35",
"q. 	c #29313A",
"r. 	c #2D3842",
"s. 	c #35424D",
"t. 	c #404F5B",
"u. 	c #495966",
"v. 	c #4B5D6A",
"w. 	c #4C5E6C",
"x. 	c #586979",
"y. 	c #6A7B8A",
"z. 	c #7D8E9C",
"A. 	c #94A6B2",
"B. 	c #C3D1DD",
"C. 	c #ADBAC4",
"D. 	c #96A2AB",
"E. 	c #B6B1AE",
"F. 	c #CDC9C6",
"G. 	c #CECBC8",
"H. 	c #B1B0AC",
"I. 	c #939290",
"J. 	c #777576",
"K. 	c #5E5E60",
"L. 	c #46474A",
"M. 	c #2E3235",
"N. 	c #20272A",
"O. 	c #1E262B",
"P. 	c #242B33",
"Q. 	c #252E37",
"R. 	c #2C3740",
"S. 	c #384650",
"T. 	c #41505C",
"U. 	c #465663",
"V. 	c #495B69",
"W. 	c #596B79",
"X. 	c #6C7D8B",
"Y. 	c #7A8A9A",
"Z. 	c #8192A2",
"`. 	c #94A5B4",
" + 	c #9DAFBC",
".+ 	c #95A7B3",
"++ 	c #A4B4C0",
"@+ 	c #B7C4D1",
"#+ 	c #B7C4CE",
"$+ 	c #AAB6BE",
"%+ 	c #B2AEAA",
"&+ 	c #CCC8C4",
"*+ 	c #CBC7C3",
"=+ 	c #BBB8B5",
"-+ 	c #9A9995",
";+ 	c #7C7B79",
">+ 	c #615F60",
",+ 	c #49494A",
"'+ 	c #333437",
")+ 	c #202427",
"!+ 	c #192023",
"~+ 	c #1E252A",
"{+ 	c #252C34",
"]+ 	c #273039",
"^+ 	c #2F3A43",
"/+ 	c #3B4954",
"(+ 	c #3F4E5A",
"_+ 	c #586976",
":+ 	c #7B8C99",
"<+ 	c #9AABB8",
"[+ 	c #A3B3C2",
"}+ 	c #A8B9C7",
"|+ 	c #B1C1CE",
"1+ 	c #C2D3DE",
"2+ 	c #C3D4DF",
"3+ 	c #A6B8C3",
"4+ 	c #98A8B5",
"5+ 	c #A0AEBB",
"6+ 	c #B9C6D0",
"7+ 	c #B3C0C8",
"8+ 	c #808991",
"9+ 	c #B5B0AD",
"0+ 	c #D8D3CF",
"a+ 	c #C9C4C1",
"b+ 	c #ABA8A4",
"c+ 	c #898783",
"d+ 	c #696765",
"e+ 	c #4C4A4B",
"f+ 	c #343435",
"g+ 	c #202124",
"h+ 	c #13171A",
"i+ 	c #11181B",
"j+ 	c #192126",
"k+ 	c #232B32",
"l+ 	c #2B343D",
"m+ 	c #354049",
"n+ 	c #3E4C57",
"o+ 	c #3D4C58",
"p+ 	c #4D5C69",
"q+ 	c #768794",
"r+ 	c #A7B8C5",
"s+ 	c #CCDEEA",
"t+ 	c #D3E4F1",
"u+ 	c #D6E7F1",
"v+ 	c #DDEEF3",
"w+ 	c #E5F4F7",
"x+ 	c #DFEFF3",
"y+ 	c #C3D4DE",
"z+ 	c #A3B4C0",
"A+ 	c #94A2AE",
"B+ 	c #B1BEC8",
"C+ 	c #B3BFC8",
"D+ 	c #99A3AA",
"E+ 	c #B9B5B1",
"F+ 	c #DAD5D1",
"G+ 	c #C4C0BC",
"H+ 	c #9E9B98",
"I+ 	c #797774",
"J+ 	c #565553",
"K+ 	c #383637",
"L+ 	c #212123",
"M+ 	c #101215",
"N+ 	c #0A0F12",
"O+ 	c #0A1214",
"P+ 	c #12191E",
"Q+ 	c #1D242C",
"R+ 	c #2C353D",
"S+ 	c #39444D",
"T+ 	c #424F5A",
"U+ 	c #3A4956",
"V+ 	c #566571",
"W+ 	c #94A5B2",
"X+ 	c #C5D6E1",
"Y+ 	c #E5F5FD",
"Z+ 	c #E9FAFF",
"`+ 	c #EAFBFF",
" @ 	c #EEFFFF",
".@ 	c #ECFCFF",
"+@ 	c #E5F5FA",
"@@ 	c #DBEAF1",
"#@ 	c #B9C8D1",
"$@ 	c #96A4AF",
"%@ 	c #A9B6C0",
"&@ 	c #B3BEC7",
"*@ 	c #AEB7BE",
"=@ 	c #9A9591",
"-@ 	c #BCB7B3",
";@ 	c #D6D1CD",
">@ 	c #C0BCB9",
",@ 	c #9D9A96",
"'@ 	c #7B7976",
")@ 	c #555452",
"!@ 	c #2D2C2C",
"~@ 	c #161517",
"{@ 	c #080A0D",
"]@ 	c #070B0E",
"^@ 	c #050C0F",
"/@ 	c #0A1217",
"(@ 	c #171E26",
"_@ 	c #2B333C",
":@ 	c #39444E",
"<@ 	c #344450",
"[@ 	c #606E79",
"}@ 	c #AFC0CC",
"|@ 	c #D8E9F1",
"1@ 	c #EAF9FC",
"2@ 	c #E5F5F9",
"3@ 	c #E0F1F6",
"4@ 	c #E1F2F5",
"5@ 	c #D6E7EF",
"6@ 	c #D5E6F0",
"7@ 	c #E7F6F9",
"8@ 	c #D0DEE3",
"9@ 	c #A6B3BF",
"0@ 	c #A3B0BB",
"a@ 	c #B1BCC4",
"b@ 	c #BCC5CC",
"c@ 	c #A2AAB0",
"d@ 	c #B7B2AE",
"e@ 	c #CFCAC6",
"f@ 	c #C4BFBC",
"g@ 	c #B2AFAC",
"h@ 	c #A2A19D",
"i@ 	c #797875",
"j@ 	c #393838",
"k@ 	c #151416",
"l@ 	c #000204",
"m@ 	c #020609",
"n@ 	c #02080B",
"o@ 	c #0E151B",
"p@ 	c #1E252C",
"q@ 	c #2B343C",
"r@ 	c #323D47",
"s@ 	c #34414C",
"t@ 	c #203240",
"u@ 	c #67747C",
"v@ 	c #C4D4DB",
"w@ 	c #E3F4FC",
"x@ 	c #DDEEF6",
"y@ 	c #BCCCD5",
"z@ 	c #A1B1B9",
"A@ 	c #9EAEB5",
"B@ 	c #95A5B0",
"C@ 	c #ACBCC5",
"D@ 	c #E0F0F2",
"E@ 	c #E0EFF4",
"F@ 	c #C2D0DB",
"G@ 	c #A8B3BB",
"H@ 	c #BEC8CF",
"I@ 	c #A0A8AE",
"J@ 	c #A29D99",
"K@ 	c #CAC5C1",
"L@ 	c #BFBBB8",
"M@ 	c #B4B1AE",
"N@ 	c #AFADA9",
"O@ 	c #878683",
"P@ 	c #444242",
"Q@ 	c #1B1A1C",
"R@ 	c #000103",
"S@ 	c #03070A",
"T@ 	c #03090C",
"U@ 	c #10171C",
"V@ 	c #1F262D",
"W@ 	c #272F38",
"X@ 	c #29343D",
"Y@ 	c #283640",
"Z@ 	c #2B3B48",
"`@ 	c #77848B",
" # 	c #D1E1E4",
".# 	c #E7F8FF",
"+# 	c #D0E2EF",
"@# 	c #96A7B5",
"## 	c #566879",
"$# 	c #4C5E6F",
"%# 	c #526576",
"&# 	c #91A1A9",
"*# 	c #DCEBED",
"=# 	c #EAF9FE",
"-# 	c #D4E2EE",
";# 	c #A7B4BF",
"># 	c #A0ABB3",
",# 	c #B7C0C7",
"'# 	c #9AA1A7",
")# 	c #ACA7A3",
"!# 	c #C8C3BF",
"~# 	c #B1ADA9",
"{# 	c #9F9E9A",
"]# 	c #7F7E7C",
"^# 	c #484647",
"/# 	c #222123",
"(# 	c #040709",
"_# 	c #070C0F",
":# 	c #070E11",
"<# 	c #0E151A",
"[# 	c #1D262F",
"}# 	c #1F2A34",
"|# 	c #26333E",
"1# 	c #485764",
"2# 	c #8B99A1",
"3# 	c #D7E6E8",
"4# 	c #E7F8FD",
"5# 	c #CEE0EC",
"6# 	c #99A9B7",
"7# 	c #647381",
"8# 	c #5C6C78",
"9# 	c #6F808C",
"0# 	c #A3B3BB",
"a# 	c #E0EFF0",
"b# 	c #EEFCFF",
"c# 	c #DDEAF4",
"d# 	c #AEBBC5",
"e# 	c #9AA6AE",
"f# 	c #A6AFB6",
"g# 	c #90979D",
"h# 	c #707579",
"i# 	c #B6B1AD",
"j# 	c #C5C0BC",
"k# 	c #A8A3A0",
"l# 	c #8D8A87",
"m# 	c #908F8B",
"n# 	c #777674",
"o# 	c #262627",
"p# 	c #05070A",
"q# 	c #050A0D",
"r# 	c #060D10",
"s# 	c #121920",
"t# 	c #19222B",
"u# 	c #18232D",
"v# 	c #56646F",
"w# 	c #95A5AF",
"x# 	c #D6E6EB",
"y# 	c #E9FBFF",
"z# 	c #E0F1F7",
"A# 	c #CCDCE3",
"B# 	c #BECDD3",
"C# 	c #BDCCD0",
"D# 	c #C3D3D7",
"E# 	c #D2E3E5",
"F# 	c #EAF9F9",
"G# 	c #F2FFFF",
"H# 	c #E6F2F7",
"I# 	c #B9C6CD",
"J# 	c #9BA6AF",
"K# 	c #98A1A8",
"L# 	c #8A9196",
"M# 	c #7C8185",
"N# 	c #ABA6A2",
"O# 	c #C2BDB9",
"P# 	c #A29E9A",
"Q# 	c #807D7A",
"R# 	c #807F7B",
"S# 	c #6E6C6A",
"T# 	c #4E4D4D",
"U# 	c #2C2C2D",
"V# 	c #0B0E10",
"W# 	c #060E13",
"X# 	c #0D141C",
"Y# 	c #172028",
"Z# 	c #15202A",
"`# 	c #202B33",
" $ 	c #6A7782",
".$ 	c #A6B6C0",
"+$ 	c #D9EAEF",
"@$ 	c #E7F8FC",
"#$ 	c #E0F1F4",
"$$ 	c #DBECF1",
"%$ 	c #DBEBF1",
"&$ 	c #DFEFF4",
"*$ 	c #DFF1F4",
"=$ 	c #E2F3F5",
"-$ 	c #E8F7F9",
";$ 	c #F0FDFE",
">$ 	c #ECF7F8",
",$ 	c #C4D0D6",
"'$ 	c #A0ACB4",
")$ 	c #8F989F",
"!$ 	c #878D93",
"~$ 	c #83888C",
"{$ 	c #A09B98",
"]$ 	c #9D9895",
"^$ 	c #767370",
"/$ 	c #6E6C69",
"($ 	c #62615F",
"_$ 	c #514F50",
":$ 	c #353536",
"<$ 	c #191B1D",
"[$ 	c #05090C",
"}$ 	c #000609",
"|$ 	c #03090F",
"1$ 	c #081017",
"2$ 	c #121B23",
"3$ 	c #15212B",
"4$ 	c #303C45",
"5$ 	c #84929D",
"6$ 	c #BECED8",
"7$ 	c #E2F1F5",
"8$ 	c #DBEAEE",
"9$ 	c #B7C8D2",
"0$ 	c #A9BAC5",
"a$ 	c #ACBCC8",
"b$ 	c #B8C8D5",
"c$ 	c #B8CAD5",
"d$ 	c #BDCED8",
"e$ 	c #CDDEE7",
"f$ 	c #E3F1F6",
"g$ 	c #EBF6F8",
"h$ 	c #CBD7DD",
"i$ 	c #A7B3BB",
"j$ 	c #858C91",
"k$ 	c #95908D",
"l$ 	c #B0ABA8",
"m$ 	c #938E8B",
"n$ 	c #6A6764",
"o$ 	c #5A5855",
"p$ 	c #535152",
"q$ 	c #434345",
"r$ 	c #2D2F31",
"s$ 	c #101416",
"t$ 	c #01070A",
"u$ 	c #01060B",
"v$ 	c #030A12",
"w$ 	c #08111A",
"x$ 	c #1B262F",
"y$ 	c #3F4C56",
"z$ 	c #8C9AA6",
"A$ 	c #BFCFDB",
"B$ 	c #D7E7EE",
"C$ 	c #C2D2D9",
"D$ 	c #8999A6",
"E$ 	c #6E7E8D",
"F$ 	c #707F8E",
"G$ 	c #7F8E9C",
"H$ 	c #80909E",
"I$ 	c #8C9CA9",
"J$ 	c #AABBC7",
"K$ 	c #CAD9E1",
"L$ 	c #D8E5EB",
"M$ 	c #C1CED5",
"N$ 	c #A5B1BA",
"O$ 	c #919AA2",
"P$ 	c #7E8387",
"Q$ 	c #8C8884",
"R$ 	c #9F9A96",
"S$ 	c #85807D",
"T$ 	c #5E5B58",
"U$ 	c #474542",
"V$ 	c #494847",
"W$ 	c #515051",
"X$ 	c #4B4B4D",
"Y$ 	c #393A3C",
"Z$ 	c #171B1D",
"`$ 	c #03090D",
" % 	c #00050A",
".% 	c #01060E",
"+% 	c #00060F",
"@% 	c #1C272F",
"#% 	c #44505B",
"$% 	c #82909B",
"%% 	c #AABAC6",
"&% 	c #B7C8D5",
"*% 	c #9EAEBB",
"=% 	c #60707D",
"-% 	c #435361",
";% 	c #3F4D5C",
">% 	c #42515F",
",% 	c #415160",
"'% 	c #5A6B77",
")% 	c #8596A2",
"!% 	c #A6B6C2",
"~% 	c #B5C3CF",
"{% 	c #A8B5BF",
"]% 	c #929BA2",
"^% 	c #848B90",
"/% 	c #777C80",
"(% 	c #8A8581",
"_% 	c #75706D",
":% 	c #55524F",
"<% 	c #3A3835",
"[% 	c #3B3A39",
"}% 	c #454445",
"|% 	c #444446",
"1% 	c #353638",
"2% 	c #15191B",
"3% 	c #00060B",
"4% 	c #020810",
"5% 	c #010812",
"6% 	c #121D26",
"7% 	c #2E3A44",
"8% 	c #586671",
"9% 	c #74828F",
"0% 	c #7B8B98",
"a% 	c #6F808D",
"b% 	c #596A78",
"c% 	c #5F6F7E",
"d% 	c #627281",
"e% 	c #5A6A79",
"f% 	c #4F606F",
"g% 	c #566875",
"h% 	c #71838F",
"i% 	c #7E8E9B",
"j% 	c #828F9B",
"k% 	c #7F8C95",
"l% 	c #838F97",
"m% 	c #8B949B",
"n% 	c #7E868B",
"o% 	c #9E9996",
"p% 	c #928D89",
"q% 	c #78736F",
"r% 	c #625D5A",
"s% 	c #4A4643",
"t% 	c #2F2E2A",
"u% 	c #2D2B2A",
"v% 	c #353334",
"w% 	c #353537",
"x% 	c #282A2C",
"y% 	c #0F1215",
"z% 	c #030B10",
"A% 	c #070E16",
"B% 	c #060F18",
"C% 	c #09151E",
"D% 	c #15222C",
"E% 	c #2B3945",
"F% 	c #3A4A57",
"G% 	c #3E4F5C",
"H% 	c #455764",
"I% 	c #526371",
"J% 	c #647685",
"K% 	c #6A7B8B",
"L% 	c #627383",
"M% 	c #586A79",
"N% 	c #576977",
"O% 	c #637581",
"P% 	c #4E5C68",
"Q% 	c #54606A",
"R% 	c #6A747C",
"S% 	c #7D868D",
"T% 	c #737A80",
"U% 	c #ADA8A4",
"V% 	c #6A6561",
"W% 	c #4D4945",
"X% 	c #3A3633",
"Y% 	c #262421",
"Z% 	c #1F1E1D",
"`% 	c #201F1F",
" & 	c #1C1C1E",
".& 	c #131417",
"+& 	c #091116",
"@& 	c #0C141B",
"#& 	c #0B131C",
"$& 	c #07121C",
"%& 	c #07141E",
"&& 	c #15232E",
"*& 	c #202F3B",
"=& 	c #243542",
"-& 	c #30414E",
";& 	c #3F505E",
">& 	c #516271",
",& 	c #556675",
"'& 	c #516370",
")& 	c #536571",
"!& 	c #44545F",
"~& 	c #2D3A45",
"{& 	c #323E48",
"]& 	c #515B62",
"^& 	c #697279",
"/& 	c #62696F",
"(& 	c #A59F9B",
"_& 	c #918B88",
":& 	c #5D5854",
"<& 	c #262320",
"[& 	c #1D1B17",
"}& 	c #161613",
"|& 	c #111110",
"1& 	c #0A0B0C",
"2& 	c #05080B",
"3& 	c #060B0F",
"4& 	c #0D1418",
"5& 	c #10171D",
"6& 	c #0F161D",
"7& 	c #09111A",
"8& 	c #030C15",
"9& 	c #000914",
"0& 	c #04121C",
"a& 	c #0B1C26",
"b& 	c #12232E",
"c& 	c #1B2B36",
"d& 	c #273641",
"e& 	c #354550",
"f& 	c #41515D",
"g& 	c #495A65",
"h& 	c #475863",
"i& 	c #41525C",
"j& 	c #3A4954",
"k& 	c #2B3943",
"l& 	c #18252F",
"m& 	c #1C2832",
"n& 	c #3F474E",
"o& 	c #585F66",
"p& 	c #535A5F",
"q& 	c #938B89",
"r& 	c #837C79",
"s& 	c #5D5653",
"t& 	c #393431",
"u& 	c #171310",
"v& 	c #13120E",
"w& 	c #0E0F0B",
"x& 	c #070A07",
"y& 	c #020404",
"z& 	c #020607",
"A& 	c #080F12",
"B& 	c #13191F",
"C& 	c #161D24",
"D& 	c #151A23",
"E& 	c #0B111A",
"F& 	c #040C14",
"G& 	c #081319",
"H& 	c #06151A",
"I& 	c #05171C",
"J& 	c #0C1D23",
"K& 	c #0B1C22",
"L& 	c #0A1B21",
"M& 	c #18282D",
"N& 	c #2F3E43",
"O& 	c #425257",
"P& 	c #3E4E53",
"Q& 	c #303F46",
"R& 	c #202D34",
"S& 	c #132027",
"T& 	c #152127",
"U& 	c #222C32",
"V& 	c #3E454A",
"W& 	c #53595F",
"X& 	c #4E5459",
"Y& 	c #716766",
"Z& 	c #69605E",
"`& 	c #4A4341",
" * 	c #1E1915",
".* 	c #0E0D08",
"+* 	c #050904",
"@* 	c #030805",
"#* 	c #010403",
"$* 	c #010707",
"%* 	c #081113",
"&* 	c #161D22",
"** 	c #1D232A",
"=* 	c #1F222D",
"-* 	c #161823",
";* 	c #0E161D",
">* 	c #142125",
",* 	c #102022",
"'* 	c #0A1C1D",
")* 	c #0D201F",
"!* 	c #0A1B1B",
"~* 	c #061615",
"{* 	c #162422",
"]* 	c #2F3C3A",
"^* 	c #43504D",
"/* 	c #3C4847",
"(* 	c #293535",
"_* 	c #1A2425",
":* 	c #151F20",
"<* 	c #232C2D",
"[* 	c #394144",
"}* 	c #4D5458",
"|* 	c #5C6266",
"1* 	c #695F5E",
"2* 	c #6C6261",
"3* 	c #514A48",
"4* 	c #2E2A27",
"5* 	c #191814",
"6* 	c #0A0F0A",
"7* 	c #050C09",
"8* 	c #010705",
"9* 	c #010909",
"0* 	c #0B1417",
"a* 	c #1D2328",
"b* 	c #292C35",
"c* 	c #2F2F3A",
"d* 	c #282834",
"e* 	c #1D2028",
"f* 	c #121B1F",
"g* 	c #0A1919",
"h* 	c #0A1A18",
"i* 	c #0F1F1B",
"j* 	c #0D1C17",
"k* 	c #0A1710",
"l* 	c #142119",
"m* 	c #303932",
"n* 	c #454E47",
"o* 	c #3D4640",
"p* 	c #2C342F",
"q* 	c #242C27",
"r* 	c #323835",
"s* 	c #454B4A",
"t* 	c #565D5D",
"u* 	c #5B6163",
"v* 	c #555A5E",
"w* 	c #6E6564",
"x* 	c #58514F",
"y* 	c #3C3836",
"z* 	c #242320",
"A* 	c #121613",
"B* 	c #09110E",
"C* 	c #020A08",
"D* 	c #020B0B",
"E* 	c #10171A",
"F* 	c #24282E",
"G* 	c #32333C",
"H* 	c #3B3844",
"I* 	c #37343F",
"J* 	c #2B2A32",
"K* 	c #191A1E",
"L* 	c #0D1512",
"M* 	c #0D1813",
"N* 	c #0E1B14",
"O* 	c #0D1911",
"P* 	c #10190F",
"Q* 	c #1D2218",
"R* 	c #45483F",
"S* 	c #66685F",
"T* 	c #5C5F56",
"U* 	c #43463F",
"V* 	c #31362F",
"W* 	c #3F4541",
"X* 	c #585E5C",
"Y* 	c #6B7170",
"Z* 	c #676D6E",
"`* 	c #4A4F51",
" = 	c #787171",
".= 	c #605C5B",
"+= 	c #434240",
"@= 	c #292A29",
"#= 	c #161B19",
"$= 	c #0C1512",
"%= 	c #030D0B",
"&= 	c #040E0E",
"*= 	c #13191D",
"== 	c #282A30",
"-= 	c #38363F",
";= 	c #423C47",
">= 	c #403943",
",= 	c #373339",
"'= 	c #2B2C2D",
")= 	c #202420",
"!= 	c #151B15",
"~= 	c #0A110B",
"{= 	c #070D06",
"]= 	c #17180F",
"^= 	c #2D2B20",
"/= 	c #6A675E",
"(= 	c #99968B",
"_= 	c #8C8980",
":= 	c #66645C",
"<= 	c #3A3B35",
"[= 	c #393E3A",
"}= 	c #595E5B",
"|= 	c #737978",
"1= 	c #717777",
"2= 	c #505558",
"3= 	c #918E91",
"4= 	c #848182",
"5= 	c #646263",
"6= 	c #414140",
"7= 	c #272929",
"8= 	c #151A19",
"9= 	c #0C1513",
"0= 	c #050F0E",
"a= 	c #071011",
"b= 	c #15191D",
"c= 	c #26262D",
"d= 	c #353039",
"e= 	c #3E353F",
"f= 	c #3C323B",
"g= 	c #342D33",
"h= 	c #2A2829",
"i= 	c #20211D",
"j= 	c #171810",
"k= 	c #120F07",
"l= 	c #161006",
"m= 	c #241E13",
"n= 	c #372F23",
"o= 	c #7C746A",
"p= 	c #B4AAA0",
"q= 	c #ACA399",
"r= 	c #857E76",
"s= 	c #49453F",
"t= 	c #2D2F2A",
"u= 	c #4B4E4B",
"v= 	c #646968",
"w= 	c #656A6A",
"x= 	c #4C5354",
"y= 	c #808285",
"z= 	c #8F8F92",
"A= 	c #A4A3A6",
"B= 	c #9F9EA1",
"C= 	c #858487",
"D= 	c #616062",
"E= 	c #39393B",
"F= 	c #202324",
"G= 	c #101717",
"H= 	c #0C1515",
"I= 	c #081012",
"J= 	c #0B1113",
"K= 	c #15171B",
"L= 	c #212025",
"M= 	c #2C252D",
"N= 	c #332730",
"O= 	c #30222B",
"P= 	c #291C21",
"Q= 	c #1F1816",
"R= 	c #19140D",
"S= 	c #1A1308",
"T= 	c #22170D",
"U= 	c #2B1E13",
"V= 	c #38291D",
"W= 	c #49372A",
"X= 	c #89796F",
"Y= 	c #C2B1A7",
"Z= 	c #C1B1A7",
"`= 	c #A0938A",
" - 	c #5F564F",
".- 	c #2B2620",
"+- 	c #33332F",
"@- 	c #414443",
"#- 	c #494E4D",
"$- 	c #4C5453",
"%- 	c #50463A",
"&- 	c #756759",
"*- 	c #958374",
"=- 	c #AE9789",
"-- 	c #BBA193",
";- 	c #C9AB9F",
">- 	c #D0B0A5",
",- 	c #C09E96",
"'- 	c #B08C86",
")- 	c #A6847F",
"!- 	c #9CA1A3",
"~- 	c #AEB2B5",
"{- 	c #B5B9BC",
"]- 	c #B9BCC0",
"^- 	c #B9BBBF",
"/- 	c #B2B3B7",
"(- 	c #9A9A9F",
"_- 	c #6F6F73",
":- 	c #4D4E52",
"<- 	c #323438",
"[- 	c #1B1F22",
"}- 	c #0E1517",
"|- 	c #0D1517",
"1- 	c #0C1215",
"2- 	c #0D1114",
"3- 	c #131317",
"4- 	c #1C171D",
"5- 	c #251A21",
"6- 	c #2A1A22",
"7- 	c #28151D",
"8- 	c #221013",
"9- 	c #1D0E0A",
"0- 	c #1D1005",
"a- 	c #26170A",
"b- 	c #362317",
"c- 	c #412C1F",
"d- 	c #50382C",
"e- 	c #674C40",
"f- 	c #9A8076",
"g- 	c #CAB1A6",
"h- 	c #CEB7AD",
"i- 	c #B5A198",
"j- 	c #7C6D65",
"k- 	c #453B35",
"l- 	c #24201C",
"m- 	c #202220",
"n- 	c #3E4443",
"o- 	c #5F6767",
"p- 	c #798282",
"q- 	c #919A9B",
"r- 	c #A3A9A9",
"s- 	c #A0A4A4",
"t- 	c #443529",
"u- 	c #7B6659",
"v- 	c #B09486",
"w- 	c #C7A495",
"x- 	c #CEA596",
"y- 	c #C79A8B",
"z- 	c #CA988B",
"A- 	c #D49E93",
"B- 	c #D69D93",
"C- 	c #CE958E",
"D- 	c #C18A85",
"E- 	c #CA9794",
"F- 	c #D4A5A3",
"G- 	c #CCA4A3",
"H- 	c #A2A5A5",
"I- 	c #B1B6B5",
"J- 	c #C0C7C7",
"K- 	c #C5CCCD",
"L- 	c #BEC5C7",
"M- 	c #C2C8CC",
"N- 	c #C4C8CD",
"O- 	c #ADAFB4",
"P- 	c #8A8C91",
"Q- 	c #606269",
"R- 	c #44464D",
"S- 	c #2F3339",
"T- 	c #1A1E23",
"U- 	c #0F161B",
"V- 	c #10171B",
"W- 	c #0F1418",
"X- 	c #0F1115",
"Y- 	c #130F14",
"Z- 	c #191015",
"`- 	c #221219",
" ; 	c #2A131C",
".; 	c #2B1218",
"+; 	c #301B19",
"@; 	c #3C2923",
"#; 	c #402E23",
"$; 	c #432E20",
"%; 	c #472E1F",
"&; 	c #4D2F21",
"*; 	c #5C3B2F",
"=; 	c #79564A",
"-; 	c #A07E72",
";; 	c #C3A297",
">; 	c #C8ABA0",
",; 	c #B9A096",
"'; 	c #96827A",
"); 	c #73655F",
"!; 	c #504A46",
"~; 	c #2A2724",
"{; 	c #3B4140",
"]; 	c #646C6C",
"^; 	c #7C8686",
"/; 	c #949C9D",
"(; 	c #AAB0B0",
"_; 	c #B3B6B6",
":; 	c #B5B5B6",
"<; 	c #B3AFB1",
"[; 	c #271912",
"}; 	c #382820",
"|; 	c #644D42",
"1; 	c #907265",
"2; 	c #B99486",
"3; 	c #C69B8C",
"4; 	c #C39183",
"5; 	c #B87E70",
"6; 	c #B57569",
"7; 	c #BD7B70",
"8; 	c #C8837A",
"9; 	c #C7827A",
"0; 	c #BC7A74",
"a; 	c #C68B87",
"b; 	c #D29C9A",
"c; 	c #D5A5A3",
"d; 	c #D3A9A8",
"e; 	c #CBA7A8",
"f; 	c #8D8E8A",
"g; 	c #A0A19E",
"h; 	c #B0B2B0",
"i; 	c #C2C6C4",
"j; 	c #D5DAD9",
"k; 	c #E0E8E7",
"l; 	c #DAE3E3",
"m; 	c #BCC5C6",
"n; 	c #BBC3C7",
"o; 	c #BEC5CB",
"p; 	c #959BA0",
"q; 	c #6F737A",
"r; 	c #60636B",
"s; 	c #494D55",
"t; 	c #30353D",
"u; 	c #1B2127",
"v; 	c #121A20",
"w; 	c #141B20",
"x; 	c #12171C",
"y; 	c #111317",
"z; 	c #130E12",
"A; 	c #190D12",
"B; 	c #251118",
"C; 	c #32171F",
"D; 	c #391B21",
"E; 	c #472D2A",
"F; 	c #5B433A",
"G; 	c #634B3D",
"H; 	c #644938",
"I; 	c #5D3D2D",
"J; 	c #593324",
"K; 	c #623A2D",
"L; 	c #7F5649",
"M; 	c #996F63",
"N; 	c #AA8377",
"O; 	c #B08B81",
"P; 	c #B09187",
"Q; 	c #AF968E",
"R; 	c #9C8B84",
"S; 	c #79706B",
"T; 	c #46413E",
"U; 	c #393F3E",
"V; 	c #5E6766",
"W; 	c #737D7E",
"X; 	c #8D9697",
"Y; 	c #ABB1B1",
"Z; 	c #C1C4C5",
"`; 	c #CECDCF",
" > 	c #CDC9CB",
".> 	c #BCB4B6",
"+> 	c #938888",
"@> 	c #5D514F",
"#> 	c #3C2823",
"$> 	c #553D36",
"%> 	c #84645A",
"&> 	c #9F756B",
"*> 	c #A37065",
"=> 	c #996155",
"-> 	c #8E4D42",
";> 	c #8F4439",
">> 	c #8F3F34",
",> 	c #903E35",
"'> 	c #9B463E",
")> 	c #A24C45",
"!> 	c #A3504A",
"~> 	c #A75C58",
"{> 	c #B77673",
"]> 	c #D29897",
"^> 	c #E6B6B6",
"/> 	c #ECC3C4",
"(> 	c #CEAEAE",
"_> 	c #A99293",
":> 	c #94978E",
"<> 	c #A6A8A0",
"[> 	c #B7BAB2",
"}> 	c #C9CCC5",
"|> 	c #D1D3CD",
"1> 	c #D0D3CD",
"2> 	c #CDD0CB",
"3> 	c #CCD1CD",
"4> 	c #CED6D3",
"5> 	c #D1DAD8",
"6> 	c #CAD4D3",
"7> 	c #B4BEC0",
"8> 	c #BCC6C9",
"9> 	c #C1CACF",
"0> 	c #8B9399",
"a> 	c #545A62",
"b> 	c #464A52",
"c> 	c #3B4049",
"d> 	c #2F353E",
"e> 	c #1C222A",
"f> 	c #151C23",
"g> 	c #181E24",
"h> 	c #161B20",
"i> 	c #15151A",
"j> 	c #160F14",
"k> 	c #1C0E13",
"l> 	c #2C151C",
"m> 	c #3E2027",
"n> 	c #4C2A2F",
"o> 	c #5A3937",
"p> 	c #684B40",
"q> 	c #7A5C4D",
"r> 	c #846352",
"s> 	c #7F5848",
"t> 	c #784B3C",
"u> 	c #734335",
"v> 	c #7A493C",
"w> 	c #825246",
"x> 	c #885B50",
"y> 	c #93695F",
"z> 	c #A8857C",
"A> 	c #C3A69E",
"B> 	c #B19B94",
"C> 	c #7D716C",
"D> 	c #46403C",
"E> 	c #2F3534",
"F> 	c #505957",
"G> 	c #646F6E",
"H> 	c #7B8584",
"I> 	c #949B9C",
"J> 	c #ABAEB0",
"K> 	c #BAB9BB",
"L> 	c #BEB8BA",
"M> 	c #B1A7A9",
"N> 	c #938586",
"O> 	c #635353",
"P> 	c #553A38",
"Q> 	c #795653",
"R> 	c #9B6F69",
"S> 	c #A3716A",
"T> 	c #8D534B",
"U> 	c #7B342B",
"V> 	c #7B2318",
"W> 	c #923227",
"X> 	c #9C362B",
"Y> 	c #9D3328",
"Z> 	c #A0342A",
"`> 	c #A43D34",
" , 	c #A84640",
"., 	c #9E4440",
"+, 	c #9C504F",
"@, 	c #AE706F",
"#, 	c #C69293",
"$, 	c #D7AAAC",
"%, 	c #D7B3B5",
"&, 	c #D1B4B8",
"*, 	c #C4AEB3",
"=, 	c #A2A59D",
"-, 	c #9EA199",
";, 	c #9DA198",
">, 	c #A0A49B",
",, 	c #A5A89F",
"', 	c #AAAEA5",
"), 	c #B6BAB1",
"!, 	c #C7CAC2",
"~, 	c #DCDFD7",
"{, 	c #E2E5DE",
"], 	c #DCE0D9",
"^, 	c #D4D8D2",
"/, 	c #CCD2CC",
"(, 	c #C3CCC8",
"_, 	c #B8C2BF",
":, 	c #ACB6B5",
"<, 	c #A3ADAF",
"[, 	c #B0BBBE",
"}, 	c #B4BFC3",
"|, 	c #838C92",
"1, 	c #475058",
"2, 	c #262D36",
"3, 	c #282E39",
"4, 	c #2A313B",
"5, 	c #19202A",
"6, 	c #161D25",
"7, 	c #1B1F24",
"8, 	c #1A191E",
"9, 	c #1A1216",
"0, 	c #201016",
"a, 	c #331A20",
"b, 	c #49282F",
"c, 	c #5B353A",
"d, 	c #6B4543",
"e, 	c #79574C",
"f, 	c #916E5E",
"g, 	c #A17B69",
"h, 	c #A07463",
"i, 	c #9E6D5E",
"j, 	c #9C685B",
"k, 	c #925C4F",
"l, 	c #8E584D",
"m, 	c #966359",
"n, 	c #A2736A",
"o, 	c #B99188",
"p, 	c #D4B3AB",
"q, 	c #BAA29A",
"r, 	c #796B65",
"s, 	c #433C37",
"t, 	c #292F2C",
"u, 	c #444D4A",
"v, 	c #5C6764",
"w, 	c #707A7A",
"x, 	c #81898B",
"y, 	c #919597",
"z, 	c #9D9C9E",
"A, 	c #A19A9D",
"B, 	c #9A8E91",
"C, 	c #867778",
"D, 	c #624F50",
"E, 	c #6E5050",
"F, 	c #9A7372",
"G, 	c #AD7C79",
"H, 	c #A76F6B",
"I, 	c #884742",
"J, 	c #782821",
"K, 	c #81261F",
"L, 	c #99352B",
"M, 	c #A73C31",
"N, 	c #AB3D32",
"O, 	c #AA3B31",
"P, 	c #AB4038",
"Q, 	c #AF4A44",
"R, 	c #A74C47",
"S, 	c #A0514F",
"T, 	c #A36060",
"U, 	c #AF7777",
"V, 	c #C19294",
"W, 	c #D6B0B3",
"X, 	c #DEC0C5",
"Y, 	c #DAC4C9",
"Z, 	c #C4B5BA",
"`, 	c #A1A49B",
" ' 	c #B8BCB3",
".' 	c #C7CDC3",
"+' 	c #D4D8CF",
"@' 	c #D8DCD3",
"#' 	c #D5DBD1",
"$' 	c #CFD2C9",
"%' 	c #C5CAC1",
"&' 	c #C3C7BE",
"*' 	c #C8CBC3",
"=' 	c #D5D8CF",
"-' 	c #CFD2CA",
";' 	c #BEC1BA",
">' 	c #BCC1BA",
",' 	c #BFC5C0",
"'' 	c #BEC6C2",
")' 	c #A8B2AE",
"!' 	c #8D9897",
"~' 	c #848F90",
"{' 	c #899498",
"]' 	c #8A969C",
"^' 	c #747E86",
"/' 	c #525A63",
"(' 	c #202833",
"_' 	c #222A34",
":' 	c #141C25",
"<' 	c #151C25",
"[' 	c #1C2229",
"}' 	c #1F2127",
"|' 	c #1E1C21",
"1' 	c #1D1419",
"2' 	c #231217",
"3' 	c #381D23",
"4' 	c #512D34",
"5' 	c #653D41",
"6' 	c #79514F",
"7' 	c #8E695E",
"8' 	c #A57E6F",
"9' 	c #B48B79",
"0' 	c #B78877",
"a' 	c #C08B7C",
"b' 	c #C78F81",
"c' 	c #BD8275",
"d' 	c #BD8276",
"e' 	c #CD9389",
"f' 	c #D4A096",
"g' 	c #DAAEA5",
"h' 	c #DFBCB3",
"i' 	c #BCA29A",
"j' 	c #776861",
"k' 	c #2C302D",
"l' 	c #424B48",
"m' 	c #606B69",
"n' 	c #768180",
"o' 	c #838C8D",
"p' 	c #8B8F91",
"q' 	c #8B8A8C",
"r' 	c #817A7E",
"s' 	c #73686B",
"t' 	c #655457",
"u' 	c #584245",
"v' 	c #836667",
"w' 	c #B58F90",
"x' 	c #BB8D8C",
"y' 	c #AF7875",
"z' 	c #995854",
"A' 	c #90433C",
"B' 	c #903830",
"C' 	c #903026",
"D' 	c #973125",
"E' 	c #A0372B",
"F' 	c #A23B2F",
"G' 	c #A7463C",
"H' 	c #B15750",
"I' 	c #BD6E67",
"J' 	c #C8827E",
"K' 	c #CE9291",
"L' 	c #CB9897",
"M' 	c #C69C9D",
"N' 	c #CCAAAE",
"O' 	c #DBC1C6",
"P' 	c #EAD7DB",
"Q' 	c #E3D5DA",
"R' 	c #D0C7CC",
"S' 	c #ABA5AB",
"T' 	c #C6CBC4",
"U' 	c #C8CEC7",
"V' 	c #CED2CB",
"W' 	c #CFD4CC",
"X' 	c #D2D8CF",
"Y' 	c #DCE1D9",
"Z' 	c #DDE2D9",
"`' 	c #D3D9D0",
" ) 	c #CFD4CB",
".) 	c #CACEC6",
"+) 	c #C1C7BE",
"@) 	c #BEC3BA",
"#) 	c #C0C4BC",
"$) 	c #C7CBC3",
"%) 	c #BFC2BB",
"&) 	c #ADB0A9",
"*) 	c #A6AAA4",
"=) 	c #A3A9A4",
"-) 	c #A0A8A4",
";) 	c #8F9A96",
">) 	c #798584",
",) 	c #6A7576",
"') 	c #616C70",
")) 	c #5C686E",
"!) 	c #576068",
"~) 	c #474F57",
"{) 	c #29313B",
"]) 	c #1C242F",
"^) 	c #0F1821",
"/) 	c #101820",
"() 	c #181D25",
"_) 	c #1F2126",
":) 	c #1B1217",
"<) 	c #210F14",
"[) 	c #3B2026",
"}) 	c #58343B",
"|) 	c #6C4348",
"1) 	c #805755",
"2) 	c #946D62",
"3) 	c #A07869",
"4) 	c #A57B6A",
"5) 	c #A57666",
"6) 	c #AE796A",
"7) 	c #B98072",
"8) 	c #BA7D70",
"9) 	c #BB7D72",
"0) 	c #C0857B",
"a) 	c #C08C82",
"b) 	c #C89C93",
"c) 	c #D6B1A8",
"d) 	c #B79A92",
"e) 	c #716059",
"f) 	c #3D3530",
"g) 	c #222623",
"h) 	c #353D3B",
"i) 	c #4D5755",
"j) 	c #616A6A",
"k) 	c #6E7577",
"l) 	c #76797B",
"m) 	c #747275",
"n) 	c #615A5E",
"o) 	c #4F4348",
"p) 	c #49383C",
"q) 	c #554245",
"r) 	c #8C7375",
"s) 	c #BE9EA0",
"t) 	c #C59E9E",
"u) 	c #BD8F8D",
"v) 	c #B37D77",
"w) 	c #AB6B63",
"x) 	c #A35950",
"y) 	c #97483D",
"z) 	c #8E382B",
"A) 	c #8F3629",
"B) 	c #A34E41",
"C) 	c #BD796D",
"D) 	c #D7A297",
"E) 	c #E3B9AF",
"F) 	c #EAC7BF",
"G) 	c #EDCEC8",
"H) 	c #EACDCA",
"I) 	c #E5CCCA",
"J) 	c #E5D2D2",
"K) 	c #EBDCDE",
"L) 	c #F1E5E8",
"M) 	c #EBE3E7",
"N) 	c #E2DDE3",
"O) 	c #D9D8DD",
"P) 	c #C6C8CB",
"Q) 	c #A7ADA6",
"R) 	c #CBD0C9",
"S) 	c #DAE1D9",
"T) 	c #E1E8E0",
"U) 	c #E1E6DF",
"V) 	c #DADFD8",
"W) 	c #D2D8D1",
"X) 	c #D5DAD3",
"Y) 	c #CFD5CE",
"Z) 	c #C1C8C0",
"`) 	c #C1C7C0",
" ! 	c #C0C6BF",
".! 	c #B7BEB6",
"+! 	c #B1B7AF",
"@! 	c #ADB3AB",
"#! 	c #AFB4AD",
"$! 	c #AEB2AB",
"%! 	c #A7AAA3",
"&! 	c #949892",
"*! 	c #828883",
"=! 	c #7B837E",
"-! 	c #7C8683",
";! 	c #5B6667",
">! 	c #414C4F",
",! 	c #303C41",
"'! 	c #363F47",
")! 	c #373F49",
"!! 	c #2F3742",
"~! 	c #242C37",
"{! 	c #171F2A",
"]! 	c #0C141D",
"^! 	c #081018",
"/! 	c #10151C",
"(! 	c #1B1D23",
"_! 	c #1D1B20",
":! 	c #1C1318",
"<! 	c #1F0F14",
"[! 	c #59353C",
"}! 	c #6D454A",
"|! 	c #815856",
"1! 	c #926B61",
"2! 	c #92695B",
"3! 	c #885D4C",
"4! 	c #805040",
"5! 	c #844F40",
"6! 	c #93594B",
"7! 	c #A4665A",
"8! 	c #A7695D",
"9! 	c #9B6055",
"0! 	c #966056",
"a! 	c #A57971",
"b! 	c #C49E97",
"c! 	c #AA8C85",
"d! 	c #63524C",
"e! 	c #312823",
"f! 	c #181D1A",
"g! 	c #29312F",
"h! 	c #303938",
"i! 	c #3B4343",
"j! 	c #494E51",
"k! 	c #57585B",
"l! 	c #595659",
"m! 	c #443D41",
"n! 	c #32252B",
"o! 	c #3A2B30",
"p! 	c #5A4C4F",
"q! 	c #8F7D7F",
"r! 	c #BBA4A6",
"s! 	c #C6A9A9",
"t! 	c #C7A29F",
"u! 	c #C49892",
"v! 	c #BD8980",
"w! 	c #B3766C",
"x! 	c #A56457",
"y! 	c #925042",
"z! 	c #8C4E41",
"A! 	c #B37668",
"B! 	c #DAA99A",
"C! 	c #F7D6C8",
"D! 	c #FEEADD",
"E! 	c #FEF2E7",
"F! 	c #FEF4EB",
"G! 	c #FEF3EC",
"H! 	c #FDF2EE",
"I! 	c #FCF4F2",
"J! 	c #F8F3F2",
"K! 	c #F3EFEF",
"L! 	c #EEEBEE",
"M! 	c #EEEDF1",
"N! 	c #F2F3F6",
"O! 	c #DDE0E1",
"P! 	c #BCC1BF",
"Q! 	c #AFB6AF",
"R! 	c #BEC4BE",
"S! 	c #CBD1CA",
"T! 	c #D6DDD6",
"U! 	c #D6DDD5",
"V! 	c #CFD6CF",
"W! 	c #C8CFC8",
"X! 	c #C5CBC4",
"Y! 	c #C2C9C2",
"Z! 	c #B9C0B9",
"`! 	c #B5BCB5",
" ~ 	c #BBC2BB",
".~ 	c #D5DCD5",
"+~ 	c #A6ADA6",
"@~ 	c #8B918A",
"#~ 	c #868C85",
"$~ 	c #939892",
"%~ 	c #9FA29C",
"&~ 	c #878A85",
"*~ 	c #737974",
"=~ 	c #78817D",
"-~ 	c #828C8A",
";~ 	c #7E8887",
">~ 	c #596364",
",~ 	c #374245",
"'~ 	c #2E393E",
")~ 	c #3F4850",
"!~ 	c #444C56",
"~~ 	c #3B424C",
"{~ 	c #29303A",
"]~ 	c #141B25",
"^~ 	c #08101A",
"/~ 	c #030811",
"(~ 	c #080C12",
"_~ 	c #16181D",
":~ 	c #201E23",
"<~ 	c #251E22",
"[~ 	c #25171C",
"}~ 	c #351C22",
"|~ 	c #4E2D33",
"1~ 	c #654044",
"2~ 	c #7D5654",
"3~ 	c #906B61",
"4~ 	c #8C6658",
"5~ 	c #7C5343",
"6~ 	c #6F4131",
"7~ 	c #743F31",
"8~ 	c #864D40",
"9~ 	c #995E52",
"0~ 	c #A06459",
"a~ 	c #9C6257",
"b~ 	c #9E6A61",
"c~ 	c #AA7D76",
"d~ 	c #B8938C",
"e~ 	c #977A75",
"f~ 	c #483833",
"g~ 	c #1E1612",
"h~ 	c #262927",
"i~ 	c #383E3C",
"j~ 	c #343C3A",
"k~ 	c #2E3636",
"l~ 	c #2F3436",
"m~ 	c #3D3C40",
"n~ 	c #433E42",
"o~ 	c #342C30",
"p~ 	c #372B2F",
"q~ 	c #655A5E",
"r~ 	c #928688",
"s~ 	c #B5A5A6",
"t~ 	c #BEA8A7",
"u~ 	c #C1A4A1",
"v~ 	c #C6A39D",
"w~ 	c #C49A91",
"x~ 	c #BB8C81",
"y~ 	c #AE7C6E",
"z~ 	c #A26E60",
"A~ 	c #A77869",
"B~ 	c #D3A798",
"C~ 	c #F1CFBF",
"D~ 	c #FDEADB",
"E~ 	c #FFF6E7",
"F~ 	c #FFFAEE",
"G~ 	c #FFFDF1",
"H~ 	c #FFFDF4",
"I~ 	c #FEFBF5",
"J~ 	c #F8F6F2",
"K~ 	c #F3F2EF",
"L~ 	c #F1F0EF",
"M~ 	c #F3F1F2",
"N~ 	c #F3F2F3",
"O~ 	c #F0F0F0",
"P~ 	c #E4E5E3",
"Q~ 	c #D4D7D2",
"R~ 	c #C3C7C1",
"S~ 	c #ABAFA9",
"T~ 	c #D1D8D4",
"U~ 	c #CCD4CE",
"V~ 	c #CDD5CF",
"W~ 	c #D1D9D3",
"X~ 	c #D4DBD5",
"Y~ 	c #CBD3CC",
"Z~ 	c #BFC6C0",
"`~ 	c #B8BFB9",
" { 	c #BEC6BF",
".{ 	c #C3CBC5",
"+{ 	c #B0B8B2",
"@{ 	c #A7AFA9",
"#{ 	c #B3BBB5",
"${ 	c #C4CCC6",
"%{ 	c #C6CEC7",
"&{ 	c #AFB6B0",
"*{ 	c #8D958F",
"={ 	c #717973",
"-{ 	c #787E79",
";{ 	c #868A85",
">{ 	c #8C8E8A",
",{ 	c #757773",
"'{ 	c #686D69",
"){ 	c #757D7A",
"!{ 	c #7C8583",
"~{ 	c #737C7B",
"{{ 	c #4C5657",
"]{ 	c #323C40",
"^{ 	c #3A4248",
"/{ 	c #4E565D",
"({ 	c #4E555D",
"_{ 	c #3A4049",
":{ 	c #282D36",
"<{ 	c #191F28",
"[{ 	c #141A22",
"}{ 	c #091017",
"|{ 	c #03070D",
"1{ 	c #0D1116",
"2{ 	c #1C1A1F",
"3{ 	c #251F23",
"4{ 	c #24181C",
"5{ 	c #2E171D",
"6{ 	c #43252C",
"7{ 	c #5F3D42",
"8{ 	c #795655",
"9{ 	c #8C6A62",
"0{ 	c #8D6A5D",
"a{ 	c #835F4F",
"b{ 	c #774F40",
"c{ 	c #794A3C",
"d{ 	c #855144",
"e{ 	c #8F584C",
"f{ 	c #955D53",
"g{ 	c #9A655A",
"h{ 	c #A8786F",
"i{ 	c #B1867F",
"j{ 	c #AC8882",
"k{ 	c #836964",
"l{ 	c #31221F",
"m{ 	c #17110F",
"n{ 	c #333534",
"o{ 	c #454A49",
"p{ 	c #3E4545",
"q{ 	c #2F3536",
"r{ 	c #1F2325",
"s{ 	c #282529",
"t{ 	c #312B2F",
"u{ 	c #2B2125",
"v{ 	c #201015",
"w{ 	c #393033",
"x{ 	c #70696B",
"y{ 	c #978F91",
"z{ 	c #B2A8A8",
"A{ 	c #B8A9A7",
"B{ 	c #BCA7A3",
"C{ 	c #C5ABA5",
"D{ 	c #C7A8A0",
"E{ 	c #C3A095",
"F{ 	c #B99488",
"G{ 	c #B89487",
"H{ 	c #C6A799",
"I{ 	c #E9CFC0",
"J{ 	c #FCEADB",
"K{ 	c #FFF7E8",
"L{ 	c #FEFBED",
"M{ 	c #FDFDF0",
"N{ 	c #FDFFF4",
"O{ 	c #FDFFF7",
"P{ 	c #FBFEF8",
"Q{ 	c #F5F8F2",
"R{ 	c #F4F5F0",
"S{ 	c #F6F6F3",
"T{ 	c #F9F8F6",
"U{ 	c #F9F7F5",
"V{ 	c #F4F3EF",
"W{ 	c #F0F0EA",
"X{ 	c #EAEBE3",
"Y{ 	c #E0E1D7",
"Z{ 	c #CFD0C6",
"`{ 	c #B1B2A7",
" ] 	c #E7EDEB",
".] 	c #EFF6F3",
"+] 	c #E2EAE6",
"@] 	c #D4DDD8",
"#] 	c #CAD3CE",
"$] 	c #C4CDC8",
"%] 	c #BDC6C1",
"&] 	c #B8C1BC",
"*] 	c #BDC5C1",
"=] 	c #C8D1CD",
"-] 	c #CDD6D1",
";] 	c #B3BBB7",
">] 	c #A1AAA5",
",] 	c #A5ADA9",
"'] 	c #A2ABA6",
")] 	c #969E99",
"!] 	c #7E8681",
"~] 	c #6D7571",
"{] 	c #6E7772",
"]] 	c #848B87",
"^] 	c #838784",
"/] 	c #6D706D",
"(] 	c #5B5D5B",
"_] 	c #5C5F5E",
":] 	c #6A706E",
"<] 	c #656D6B",
"[] 	c #535C5B",
"}] 	c #333B3C",
"|] 	c #2E363A",
"1] 	c #42494F",
"2] 	c #555A60",
"3] 	c #4E5359",
"4] 	c #2F323A",
"5] 	c #21242D",
"6] 	c #21262E",
"7] 	c #252B31",
"8] 	c #1B2126",
"9] 	c #080F14",
"0] 	c #04090E",
"a] 	c #111115",
"b] 	c #1C171B",
"c] 	c #1D1216",
"d] 	c #261119",
"e] 	c #3A2028",
"f] 	c #5A3D41",
"g] 	c #735454",
"h] 	c #846660",
"i] 	c #8F6F64",
"j] 	c #927162",
"k] 	c #8D695B",
"l] 	c #8C6456",
"m] 	c #8E6155",
"n] 	c #8A5A4F",
"o] 	c #8D5D52",
"p] 	c #9A6C62",
"q] 	c #AF847C",
"r] 	c #B48D86",
"s] 	c #9C7C76",
"t] 	c #6F5753",
"u] 	c #271B19",
"v] 	c #1D1918",
"w] 	c #393939",
"x] 	c #494D4E",
"y] 	c #44484A",
"z] 	c #34383B",
"A] 	c #1C1E20",
"B] 	c #1C191C",
"C] 	c #241A1E",
"D] 	c #1D0D12",
"E] 	c #3D3638",
"F] 	c #797476",
"G] 	c #9E9999",
"H] 	c #B2ACAB",
"I] 	c #B7ACAA",
"J] 	c #BBABA7",
"K] 	c #C3B0AB",
"L] 	c #C7B1A9",
"M] 	c #C7AEA5",
"N] 	c #C4A99F",
"O] 	c #CEB5A9",
"P] 	c #E1CEC1",
"Q] 	c #F5EBDE",
"R] 	c #FEFBEE",
"S] 	c #FEFDF1",
"T] 	c #FBFEF1",
"U] 	c #F9FEF2",
"V] 	c #F8FEF6",
"W] 	c #F9FFF8",
"X] 	c #F9FEF8",
"Y] 	c #F7FBF4",
"Z] 	c #F9FBF4",
"`] 	c #FDFDF8",
" ^ 	c #FEFBF7",
".^ 	c #FEFAF5",
"+^ 	c #FEF9F2",
"@^ 	c #FDFAF0",
"#^ 	c #FCFAEE",
"$^ 	c #FAF7E9",
"%^ 	c #EBE9DB",
"&^ 	c #D3D2C5",
"*^ 	c #B4B2A6",
"=^ 	c #C1C9C8",
"-^ 	c #E3EBEA",
";^ 	c #E9F1EF",
">^ 	c #E5EDEC",
",^ 	c #DBE4E2",
"'^ 	c #D0D9D7",
")^ 	c #C0C9C7",
"!^ 	c #ADB6B4",
"~^ 	c #AEB7B4",
"{^ 	c #BFC8C6",
"]^ 	c #D7E0DE",
"^^ 	c #D8E1DF",
"/^ 	c #C4CDCB",
"(^ 	c #9FA7A5",
"_^ 	c #868F8C",
":^ 	c #7C8582",
"<^ 	c #6F7875",
"[^ 	c #656E6C",
"}^ 	c #6F7876",
"|^ 	c #7E8684",
"1^ 	c #848B89",
"2^ 	c #737877",
"3^ 	c #4F5150",
"4^ 	c #424343",
"5^ 	c #464949",
"6^ 	c #4E5453",
"7^ 	c #444A4A",
"8^ 	c #303737",
"9^ 	c #1C2324",
"0^ 	c #2B3034",
"a^ 	c #3F4449",
"b^ 	c #474A4F",
"c^ 	c #3C3F44",
"d^ 	c #1E2026",
"e^ 	c #181A21",
"f^ 	c #292D32",
"g^ 	c #393E42",
"h^ 	c #30363A",
"i^ 	c #1C2326",
"j^ 	c #091013",
"k^ 	c #07080C",
"l^ 	c #110D11",
"m^ 	c #140B10",
"n^ 	c #1E0D14",
"o^ 	c #311B23",
"p^ 	c #4E3439",
"q^ 	c #624748",
"r^ 	c #705651",
"s^ 	c #856B61",
"t^ 	c #977B6F",
"u^ 	c #A18276",
"v^ 	c #A48176",
"w^ 	c #A17A70",
"x^ 	c #986F65",
"y^ 	c #9C7369",
"z^ 	c #AD857C",
"A^ 	c #B9938B",
"B^ 	c #B08F88",
"C^ 	c #856964",
"D^ 	c #543E3B",
"E^ 	c #201412",
"F^ 	c #1B1716",
"G^ 	c #2D2C2D",
"H^ 	c #393B3D",
"I^ 	c #3B3E41",
"J^ 	c #333538",
"K^ 	c #1C1C1F",
"L^ 	c #181417",
"M^ 	c #1F181B",
"N^ 	c #1F1417",
"O^ 	c #1B0A0E",
"P^ 	c #413A3B",
"Q^ 	c #7F7A7A",
"R^ 	c #A49F9E",
"S^ 	c #B7B2B0",
"T^ 	c #BBB2B0",
"U^ 	c #BCAFAC",
"V^ 	c #BFB0AB",
"W^ 	c #C3B0AA",
"X^ 	c #C5B1AA",
"Y^ 	c #C9B4AC",
"Z^ 	c #DBC9C1",
"`^ 	c #F1E4DC",
" / 	c #FBF4EC",
"./ 	c #FCFCF3",
"+/ 	c #F8FDF3",
"@/ 	c #F6FDF3",
"#/ 	c #F3FDF2",
"$/ 	c #F1FBF2",
"%/ 	c #F3FCF4",
"&/ 	c #F7FEF5",
"*/ 	c #FBFDF4",
"=/ 	c #FDFDF4",
"-/ 	c #FFFCF4",
";/ 	c #FFF6EE",
">/ 	c #FFF1E9",
",/ 	c #FFF0E6",
"'/ 	c #FFF1E4",
")/ 	c #FFF4E4",
"!/ 	c #FFF9E8",
"~/ 	c #F9F5E4",
"{/ 	c #F0E9DA",
"]/ 	c #E1DACB",
"^/ 	c #CCC4B7",
"// 	c #B8BFBE",
"(/ 	c #D6DEDE",
"_/ 	c #E4EDEC",
":/ 	c #DBE4E4",
"</ 	c #D2DBDB",
"[/ 	c #CDD7D6",
"}/ 	c #CDD6D6",
"|/ 	c #C1CACA",
"1/ 	c #A6B0B0",
"2/ 	c #A6AFAF",
"3/ 	c #BAC3C2",
"4/ 	c #D3DCDC",
"5/ 	c #CCD5D4",
"6/ 	c #AAB3B3",
"7/ 	c #858E8E",
"8/ 	c #6F7878",
"9/ 	c #707979",
"0/ 	c #636C6C",
"a/ 	c #586161",
"b/ 	c #5D6666",
"c/ 	c #757E7E",
"d/ 	c #838C8C",
"e/ 	c #767D7D",
"f/ 	c #5A5F60",
"g/ 	c #353639",
"h/ 	c #2B2B2E",
"i/ 	c #2E3032",
"j/ 	c #2E3233",
"k/ 	c #1F2425",
"l/ 	c #090E11",
"m/ 	c #0B0F12",
"n/ 	c #25282B",
"o/ 	c #34363A",
"p/ 	c #303136",
"q/ 	c #232428",
"r/ 	c #0D0D11",
"s/ 	c #0D0F14",
"t/ 	c #272A2E",
"u/ 	c #3C4044",
"v/ 	c #363D3F",
"w/ 	c #242C2E",
"x/ 	c #11181A",
"y/ 	c #04090C",
"z/ 	c #08080D",
"A/ 	c #0C070C",
"B/ 	c #170A11",
"C/ 	c #27141C",
"D/ 	c #3C272D",
"E/ 	c #4B3437",
"F/ 	c #553F3D",
"G/ 	c #6F5A52",
"H/ 	c #887267",
"I/ 	c #9C8278",
"J/ 	c #A5887E",
"K/ 	c #A7867D",
"L/ 	c #A8867C",
"M/ 	c #B39188",
"N/ 	c #C2A198",
"O/ 	c #BD9D96",
"P/ 	c #A38680",
"Q/ 	c #6A534F",
"R/ 	c #35221F",
"S/ 	c #1A0E0C",
"T/ 	c #16100F",
"U/ 	c #1B1A1A",
"V/ 	c #222224",
"W/ 	c #2C2C30",
"X/ 	c #19181B",
"Y/ 	c #161113",
"Z/ 	c #1A1215",
"`/ 	c #190E10",
" ( 	c #160306",
".( 	c #443B3C",
"+( 	c #867E7E",
"@( 	c #ABA3A2",
"#( 	c #BDB5B2",
"$( 	c #BFB4B2",
"%( 	c #BDAFAD",
"&( 	c #BCACA8",
"*( 	c #BDABA7",
"=( 	c #C2AEAA",
"-( 	c #CBB8B4",
";( 	c #E2D3CE",
">( 	c #F9EEE9",
",( 	c #FBF5F0",
"'( 	c #F8F7F2",
")( 	c #F5FAF5",
"!( 	c #F4FDF6",
"~( 	c #F3FDF5",
"{( 	c #F1FBF3",
"]( 	c #F4FCF3",
"^( 	c #F9FDF3",
"/( 	c #FEFCF1",
"(( 	c #FDF5EB",
"_( 	c #F7E9DF",
":( 	c #F3DCD2",
"<( 	c #F1D4C8",
"[( 	c #F2D2C6",
"}( 	c #F2D3C4",
"|( 	c #F4D9C8",
"1( 	c #F9E7D4",
"2( 	c #FDF0DE",
"3( 	c #FEF2E2",
"4( 	c #F5E8D8",
"5( 	c #E4D6C7",
"6( 	c #C0B3A7",
"7( 	c #E7EEEF",
"8( 	c #DEE7E7",
"9( 	c #C7D1D2",
"0( 	c #BFC9CB",
"a( 	c #BEC8CA",
"b( 	c #C2CCCE",
"c( 	c #CED7D9",
"d( 	c #CAD4D6",
"e( 	c #B1BBBD",
"f( 	c #A4AEB0",
"g( 	c #A3ADAE",
"h( 	c #A8B2B3",
"i( 	c #9BA4A5",
"j( 	c #808A8C",
"k( 	c #757F81",
"l( 	c #747D7F",
"m( 	c #757E80",
"n( 	c #656E70",
"o( 	c #566061",
"p( 	c #596365",
"q( 	c #717A7C",
"r( 	c #7A8385",
"s( 	c #585F61",
"t( 	c #353A3D",
"u( 	c #28292E",
"v( 	c #1E1E23",
"w( 	c #18191D",
"x( 	c #15181B",
"y( 	c #0C1013",
"z( 	c #06090D",
"A( 	c #0E1013",
"B( 	c #19191D",
"C( 	c #1D1E21",
"D( 	c #161619",
"E( 	c #0D0C0F",
"F( 	c #08060A",
"G( 	c #050508",
"H( 	c #1A1C1E",
"I( 	c #2F3334",
"J( 	c #2E3535",
"K( 	c #242D2C",
"L( 	c #151D1E",
"M( 	c #0A1113",
"N( 	c #0A0D11",
"O( 	c #0A090F",
"P( 	c #100810",
"Q( 	c #190C15",
"R( 	c #24141B",
"S( 	c #2D1C20",
"T( 	c #352625",
"U( 	c #483933",
"V( 	c #604F48",
"W( 	c #79665E",
"X( 	c #8C756E",
"Y( 	c #9B837B",
"Z( 	c #AE948B",
"`( 	c #C2A69E",
" _ 	c #CDB2AB",
"._ 	c #B69C96",
"+_ 	c #89736D",
"@_ 	c #4E3D3A",
"#_ 	c #180604",
"$_ 	c #130807",
"%_ 	c #0C0505",
"&_ 	c #090607",
"*_ 	c #0C0B0E",
"=_ 	c #17161A",
"-_ 	c #19171C",
";_ 	c #120B0E",
">_ 	c #150B0E",
",_ 	c #14070A",
"'_ 	c #0F0000",
")_ 	c #463C3C",
"!_ 	c #8F8382",
"~_ 	c #B3A6A4",
"{_ 	c #C1B3B0",
"]_ 	c #C1B0AE",
"^_ 	c #BDAAA9",
"/_ 	c #BAA6A5",
"(_ 	c #BAA4A3",
"__ 	c #BFA8A8",
":_ 	c #CBB7B7",
"<_ 	c #E4D4D4",
"[_ 	c #FAEFEE",
"}_ 	c #F8F1F0",
"|_ 	c #F4F3F1",
"1_ 	c #F6FAF8",
"2_ 	c #F7FDF9",
"3_ 	c #F8FEF9",
"4_ 	c #FBFEF9",
"5_ 	c #FDFEF7",
"6_ 	c #FEFBF2",
"7_ 	c #FDF3E8",
"8_ 	c #F4DFD3",
"9_ 	c #E3C0B3",
"0_ 	c #D5A79A",
"a_ 	c #D09A8C",
"b_ 	c #D39B8B",
"c_ 	c #D59E8D",
"d_ 	c #DAA997",
"e_ 	c #E8BDAA",
"f_ 	c #F5D8C5",
"g_ 	c #FCEBD9",
"h_ 	c #FDE8D6",
"i_ 	c #F5DECF",
"j_ 	c #E3D2C5",
"k_ 	c #C4B6AB",
"l_ 	c #D3DADF",
"m_ 	c #DFE7EB",
"n_ 	c #D7E0E4",
"o_ 	c #C5CED3",
"p_ 	c #B5BEC3",
"q_ 	c #BCC5CA",
"r_ 	c #D0D9DE",
"s_ 	c #D3DCE1",
"t_ 	c #C6CFD4",
"u_ 	c #A9B2B7",
"v_ 	c #99A2A7",
"w_ 	c #8E989C",
"x_ 	c #7E878B",
"y_ 	c #717A7E",
"z_ 	c #737C81",
"A_ 	c #8D969C",
"B_ 	c #97A0A5",
"C_ 	c #8B949A",
"D_ 	c #6F787D",
"E_ 	c #50595E",
"F_ 	c #485256",
"G_ 	c #596366",
"H_ 	c #61696D",
"I_ 	c #3F474C",
"J_ 	c #22272E",
"K_ 	c #23242B",
"L_ 	c #191920",
"M_ 	c #101118",
"N_ 	c #0E0F16",
"O_ 	c #0D0F15",
"P_ 	c #0D0F13",
"Q_ 	c #0E0F12",
"R_ 	c #0F0E11",
"S_ 	c #0E0C0E",
"T_ 	c #070405",
"U_ 	c #070305",
"V_ 	c #0C0809",
"W_ 	c #060304",
"X_ 	c #0D0E0F",
"Y_ 	c #1C1F1F",
"Z_ 	c #1D2222",
"`_ 	c #171F1E",
" : 	c #0E1616",
".: 	c #091113",
"+: 	c #090F13",
"@: 	c #090A10",
"#: 	c #0C0710",
"$: 	c #120812",
"%: 	c #150812",
"&: 	c #1A0E14",
"*: 	c #221819",
"=: 	c #2B211F",
"-: 	c #3C312C",
";: 	c #544741",
">: 	c #695953",
",: 	c #7D6B64",
"': 	c #937F78",
"): 	c #A48F87",
"!: 	c #AA958E",
"~: 	c #907D77",
"{: 	c #64534E",
"]: 	c #342724",
"^: 	c #080000",
"/: 	c #0F0506",
"(: 	c #090305",
"_: 	c #040003",
":: 	c #020002",
"<: 	c #08050A",
"[: 	c #0C070D",
"}: 	c #0C050A",
"|: 	c #12090D",
"1: 	c #170C10",
"2: 	c #18090D",
"3: 	c #130000",
"4: 	c #4A3F3D",
"5: 	c #978884",
"6: 	c #B7A7A2",
"7: 	c #BFAEA9",
"8: 	c #BDA9A5",
"9: 	c #BAA3A1",
"0: 	c #BAA2A1",
"a: 	c #BAA1A1",
"b: 	c #BEA6A8",
"c: 	c #CDB8BB",
"d: 	c #E6D5D9",
"e: 	c #FBEFF3",
"f: 	c #FBF5F7",
"g: 	c #F9F8F9",
"h: 	c #F9FCFC",
"i: 	c #F6FBFA",
"j: 	c #FDFDFA",
"k: 	c #FFFEF7",
"l: 	c #FCF5EB",
"m: 	c #ECD9CE",
"n: 	c #D8B6A9",
"o: 	c #C49284",
"p: 	c #BC7C6B",
"q: 	c #BC7360",
"r: 	c #C17460",
"s: 	c #C57B67",
"t: 	c #CA8671",
"u: 	c #D19480",
"v: 	c #DDAE9B",
"w: 	c #ECC8B6",
"x: 	c #FAD6C5",
"y: 	c #FDE0D0",
"z: 	c #F4E3D6",
"A: 	c #E5D6CB",
"B: 	c #D7DDE2",
"C: 	c #E4ECF1",
"D: 	c #DCE4EA",
"E: 	c #D3DCE2",
"F: 	c #C8D1D8",
"G: 	c #B3BCC4",
"H: 	c #BBC4CC",
"I: 	c #D3DCE3",
"J: 	c #CDD6DD",
"K: 	c #B8C0C8",
"L: 	c #8C959C",
"M: 	c #838C93",
"N: 	c #666F76",
"O: 	c #5D666D",
"P: 	c #737C83",
"Q: 	c #9AA2A9",
"R: 	c #A3ACB3",
"S: 	c #919AA1",
"T: 	c #707980",
"U: 	c #4C555C",
"V: 	c #3D464D",
"W: 	c #404850",
"X: 	c #414A51",
"Y: 	c #2D343C",
"Z: 	c #1F232C",
"`: 	c #20202A",
" < 	c #1B1A23",
".< 	c #16161F",
"+< 	c #16161E",
"@< 	c #15151C",
"#< 	c #121217",
"$< 	c #0C0C0F",
"%< 	c #090709",
"&< 	c #0B0607",
"*< 	c #0E0708",
"=< 	c #100909",
"-< 	c #100A0A",
";< 	c #0A0505",
">< 	c #040403",
",< 	c #050706",
"'< 	c #030705",
")< 	c #030B09",
"!< 	c #050E0F",
"~< 	c #070F12",
"{< 	c #080B11",
"]< 	c #0B0913",
"^< 	c #110B16",
"/< 	c #130C16",
"(< 	c #181118",
"_< 	c #1E191C",
":< 	c #1D1919",
"<< 	c #211C19",
"[< 	c #2F2824",
"}< 	c #413833",
"|< 	c #534842",
"1< 	c #655952",
"2< 	c #6F615B",
"3< 	c #6D6059",
"4< 	c #594B46",
"5< 	c #392C27",
"6< 	c #1E1411",
"7< 	c #0D0404",
"8< 	c #0E0607",
"9< 	c #0E070A",
"0< 	c #0C060B",
"a< 	c #09040A",
"b< 	c #080208",
"c< 	c #080108",
"d< 	c #0D0309",
"e< 	c #160B0F",
"f< 	c #1B1013",
"g< 	c #1D0F12",
"h< 	c #1A0407",
"i< 	c #4D403D",
"j< 	c #978882",
"k< 	c #B6A59D",
"l< 	c #BBA8A0",
"m< 	c #B8A39C",
"n< 	c #B69E9A",
"o< 	c #BAA19F",
"p< 	c #BAA0A1",
"q< 	c #BFA6AA",
"r< 	c #D2BCC1",
"s< 	c #E9D7DD",
"t< 	c #FBEEF5",
"u< 	c #FFF9FD",
"v< 	c #FEFDFF",
"w< 	c #FCFEFE",
"x< 	c #F6F9FA",
"y< 	c #F4F6F6",
"z< 	c #FCFBF8",
"A< 	c #FFF9F2",
"B< 	c #F5E8DD",
"C< 	c #D7BAAD",
"D< 	c #BA8B7B",
"E< 	c #AB6E5A",
"F< 	c #B3654F",
"G< 	c #BC664E",
"H< 	c #C1674E",
"I< 	c #C66D55",
"J< 	c #C7725C",
"K< 	c #C2735E",
"L< 	c #C6806C",
"M< 	c #D69987",
"N< 	c #EDBAA9",
"O< 	c #FBD7C7",
"P< 	c #FDE9DB",
"Q< 	c #F6E3D7",
"R< 	c #E7D3CA",
"S< 	c #94969A",
"T< 	c #D5DADF",
"U< 	c #F0F7FB",
"V< 	c #F0F7F9",
"W< 	c #DCE4E8",
"X< 	c #C0C9D1",
"Y< 	c #B0B9C2",
"Z< 	c #AFB8C1",
"`< 	c #B5BEC7",
" [ 	c #B0B9C1",
".[ 	c #A0A9B1",
"+[ 	c #89929A",
"@[ 	c #868F98",
"#[ 	c #757E87",
"$[ 	c #6A727B",
"%[ 	c #6D757E",
"&[ 	c #838B94",
"*[ 	c #868F97",
"=[ 	c #747D85",
"-[ 	c #5F6870",
";[ 	c #4F5860",
">[ 	c #4B545D",
",[ 	c #424A53",
"'[ 	c #323A43",
")[ 	c #202831",
"![ 	c #181C26",
"~[ 	c #1A1B26",
"{[ 	c #1C1A26",
"][ 	c #1B1A25",
"^[ 	c #1A1922",
"/[ 	c #16161D",
"([ 	c #111016",
"_[ 	c #0A080C",
":[ 	c #080407",
"<[ 	c #0D0608",
"[[ 	c #150C0C",
"}[ 	c #160C0C",
"|[ 	c #110807",
"1[ 	c #0E0705",
"2[ 	c #090604",
"3[ 	c #030302",
"4[ 	c #000301",
"5[ 	c #000401",
"6[ 	c #010604",
"7[ 	c #020A0A",
"8[ 	c #040D10",
"9[ 	c #060C11",
"0[ 	c #0D0E17",
"a[ 	c #14121E",
"b[ 	c #181420",
"c[ 	c #1B1821",
"d[ 	c #1E1E22",
"e[ 	c #1C1D1E",
"f[ 	c #1A1A19",
"g[ 	c #1D1B18",
"h[ 	c #25211E",
"i[ 	c #2F2925",
"j[ 	c #372F2A",
"k[ 	c #39312C",
"l[ 	c #372E29",
"m[ 	c #2C231F",
"n[ 	c #160D0B",
"o[ 	c #110909",
"p[ 	c #0F090B",
"q[ 	c #130D10",
"r[ 	c #150F14",
"s[ 	c #140D14",
"t[ 	c #0E060E",
"u[ 	c #0B0109",
"v[ 	c #10060C",
"w[ 	c #190E11",
"x[ 	c #1F1215",
"y[ 	c #201213",
"z[ 	c #1F0D0C",
"A[ 	c #4B3E39",
"B[ 	c #8F7F77",
"C[ 	c #AE9D92",
"D[ 	c #B7A599",
"E[ 	c #B6A197",
"F[ 	c #B69E98",
"G[ 	c #BAA19E",
"H[ 	c #BAA0A0",
"I[ 	c #C1A8AC",
"J[ 	c #DAC4CA",
"K[ 	c #EDDBE3",
"L[ 	c #F8ECF4",
"M[ 	c #FDF7FC",
"N[ 	c #FEFCFF",
"O[ 	c #FBFBFF",
"P[ 	c #F7F8FA",
"Q[ 	c #F7F6F7",
"R[ 	c #FDF9F6",
"S[ 	c #FAEEE6",
"T[ 	c #EAD3C8",
"U[ 	c #CAA596",
"V[ 	c #B27C68",
"W[ 	c #B06A53",
"X[ 	c #C16B50",
"Y[ 	c #CE6F52",
"Z[ 	c #D26D50",
"`[ 	c #D46E54",
" } 	c #D16F57",
".} 	c #C96C57",
"+} 	c #C46F5B",
"@} 	c #C67C6A",
"#} 	c #D79887",
"$} 	c #EABCAE",
"%} 	c #FBDCCF",
"&} 	c #FBE0D4",
"*} 	c #EFD6CD",
"=} 	c #D5C1BC",
"-} 	c #D0D2D3",
";} 	c #E1E6EA",
">} 	c #ECF3F7",
",} 	c #EBF3F7",
"'} 	c #D6DEE4",
")} 	c #B6BFC7",
"!} 	c #A1AAB4",
"~} 	c #959EA8",
"{} 	c #8F98A1",
"]} 	c #858D97",
"^} 	c #8E97A1",
"/} 	c #99A2AD",
"(} 	c #838C97",
"_} 	c #6A727D",
":} 	c #58606A",
"<} 	c #5E666F",
"[} 	c #5D656E",
"}} 	c #515A63",
"|} 	c #4C545E",
"1} 	c #535B65",
"2} 	c #606A73",
"3} 	c #515962",
"4} 	c #2D353E",
"5} 	c #19212A",
"6} 	c #141822",
"7} 	c #181A23",
"8} 	c #191823",
"9} 	c #171620",
"0} 	c #13121A",
"a} 	c #111017",
"b} 	c #100F14",
"c} 	c #0F0D11",
"d} 	c #0C080B",
"e} 	c #0A0405",
"f} 	c #130908",
"g} 	c #100706",
"h} 	c #0D0604",
"i} 	c #0B0705",
"j} 	c #0A0A08",
"k} 	c #080B08",
"l} 	c #050B08",
"m} 	c #040B0A",
"n} 	c #040D0E",
"o} 	c #061014",
"p} 	c #10131D",
"q} 	c #171723",
"r} 	c #1A1825",
"s} 	c #1A1A23",
"t} 	c #1A1B22",
"u} 	c #191C1E",
"v} 	c #161919",
"w} 	c #101211",
"x} 	c #0F0F0C",
"y} 	c #11100B",
"z} 	c #0A0803",
"A} 	c #000000",
"B} 	c #080401",
"C} 	c #110B08",
"D} 	c #0F0807",
"E} 	c #0D0606",
"F} 	c #0D0609",
"G} 	c #110A0E",
"H} 	c #150E13",
"I} 	c #171016",
"J} 	c #10070E",
"K} 	c #0B0207",
"L} 	c #11060B",
"M} 	c #170B0F",
"N} 	c #1A0D0F",
"O} 	c #1A0C0C",
"P} 	c #190706",
"Q} 	c #433731",
"R} 	c #837369",
"S} 	c #A69486",
"T} 	c #B7A495",
"U} 	c #BBA498",
"V} 	c #BBA19A",
"W} 	c #BCA19E",
"X} 	c #B99E9E",
"Y} 	c #C2A9AD",
"Z} 	c #E1CBD2",
"`} 	c #F0DFE7",
" | 	c #F3E7F1",
".| 	c #F5EFF7",
"+| 	c #F6F5FB",
"@| 	c #F7F8FE",
"#| 	c #F9F9FD",
"$| 	c #FBFAFA",
"%| 	c #FEF9F6",
"&| 	c #F6E8E1",
"*| 	c #E6C9BD",
"=| 	c #CEA493",
"-| 	c #C28872",
";| 	c #C57D65",
">| 	c #D07A5E",
",| 	c #D77658",
"'| 	c #D66E51",
")| 	c #D96E52",
"!| 	c #DB7057",
"~| 	c #D8715C",
"{| 	c #D2725F",
"]| 	c #CC7764",
"^| 	c #CC8171",
"/| 	c #D59B8D",
"(| 	c #E5BBAF",
"_| 	c #F4D5CA",
":| 	c #F8DFD6",
"<| 	c #ECD6D0",
"[| 	c #D2BEBA",
"}| 	c #BEC0BE",
"|| 	c #EDEFEE",
"1| 	c #E7ECEE",
"2| 	c #D9E1E7",
"3| 	c #D5DEE6",
"4| 	c #C3CDD6",
"5| 	c #A9B3BB",
"6| 	c #919BA4",
"7| 	c #7E8791",
"8| 	c #717984",
"9| 	c #5F6874",
"0| 	c #6F7884",
"a| 	c #979FAC",
"b| 	c #A8B1BE",
"c| 	c #A4ADBA",
"d| 	c #848D9A",
"e| 	c #606874",
"f| 	c #3D4753",
"g| 	c #333C48",
"h| 	c #313A45",
"i| 	c #313B45",
"j| 	c #3A434D",
"k| 	c #505862",
"l| 	c #667078",
"m| 	c #565F67",
"n| 	c #2D353D",
"o| 	c #171F27",
"p| 	c #12181F",
"q| 	c #161920",
"r| 	c #13141B",
"s| 	c #0C0B13",
"t| 	c #04040A",
"u| 	c #06060B",
"v| 	c #0D0C11",
"w| 	c #131115",
"x| 	c #0F0C0F",
"y| 	c #050102",
"z| 	c #060102",
"A| 	c #0B0604",
"B| 	c #0A0806",
"C| 	c #0F0F0E",
"D| 	c #0E110F",
"E| 	c #0A1010",
"F| 	c #081011",
"G| 	c #081114",
"H| 	c #0A1218",
"I| 	c #0C131C",
"J| 	c #131622",
"K| 	c #1A1927",
"L| 	c #1A1A27",
"M| 	c #181823",
"N| 	c #13151D",
"O| 	c #13161A",
"P| 	c #131718",
"Q| 	c #0B0E0E",
"R| 	c #070807",
"S| 	c #080807",
"T| 	c #060503",
"U| 	c #030201",
"V| 	c #050303",
"W| 	c #110D0B",
"X| 	c #14100E",
"Y| 	c #0B0605",
"Z| 	c #060202",
"`| 	c #080205",
" 1 	c #0B0408",
".1 	c #160D12",
"+1 	c #0F060A",
"@1 	c #090104",
"#1 	c #0F0408",
"$1 	c #120609",
"%1 	c #130708",
"&1 	c #130606",
"*1 	c #130201",
"=1 	c #382B25",
"-1 	c #6F5F54",
";1 	c #968374",
">1 	c #AF9A8A",
",1 	c #B89F93",
"'1 	c #BC9F98",
")1 	c #BEA09D",
"!1 	c #BC9D9E",
"~1 	c #C6AAAF",
"{1 	c #E8D2D8",
"]1 	c #F3E2EA",
"^1 	c #EDE4ED",
"/1 	c #EBE8F2",
"(1 	c #EDEEF8",
"_1 	c #F3F6FE",
":1 	c #FAFBFF",
"<1 	c #FFFDFD",
"[1 	c #FFFBF8",
"}1 	c #F4E7E0",
"|1 	c #E4C8BB",
"11 	c #DAB09D",
"21 	c #D89F89",
"31 	c #DA957D",
"41 	c #DA896F",
"51 	c #D87C61",
"61 	c #D46F54",
"71 	c #DA6E53",
"81 	c #E17359",
"91 	c #E47760",
"01 	c #E17B67",
"a1 	c #D87C6B",
"b1 	c #CC7B6C",
"c1 	c #C57F71",
"d1 	c #CA9287",
"e1 	c #E7C2B9",
"f1 	c #FBE0D8",
"g1 	c #FCE4DD",
"h1 	c #E3CEC9",
"i1 	c #B8A5A3",
"j1 	c #C2C4BE",
"k1 	c #DCE0DC",
"l1 	c #D0D7D6",
"m1 	c #BEC8CB",
"n1 	c #BCC8CC",
"o1 	c #ADB9BF",
"p1 	c #99A4AB",
"q1 	c #919DA5",
"r1 	c #8A959F",
"s1 	c #7F8894",
"t1 	c #6C7784",
"u1 	c #727C8A",
"v1 	c #8E97A6",
"w1 	c #969FAF",
"x1 	c #8C96A5",
"y1 	c #6B7383",
"z1 	c #505969",
"A1 	c #434E5D",
"B1 	c #3B4453",
"C1 	c #343D4B",
"D1 	c #2F3A46",
"E1 	c #303A45",
"F1 	c #39424B",
"G1 	c #444E55",
"H1 	c #3B454B",
"I1 	c #263036",
"J1 	c #182225",
"K1 	c #10181A",
"L1 	c #0E1314",
"M1 	c #0C0E0F",
"N1 	c #070809",
"O1 	c #010203",
"P1 	c #010103",
"Q1 	c #060509",
"R1 	c #0D0B0F",
"S1 	c #09070C",
"T1 	c #030105",
"U1 	c #070408",
"V1 	c #0B070B",
"W1 	c #0D090B",
"X1 	c #0C0A0B",
"Y1 	c #0B0A0B",
"Z1 	c #090A0B",
"`1 	c #080B0C",
" 2 	c #080D0F",
".2 	c #0B1013",
"+2 	c #0A0F14",
"@2 	c #090E16",
"#2 	c #0D111C",
"$2 	c #141523",
"%2 	c #1A192A",
"&2 	c #1B1A2A",
"*2 	c #181725",
"=2 	c #0F1019",
"-2 	c #0E0F14",
";2 	c #0F1012",
">2 	c #0D0D0E",
",2 	c #09090B",
"'2 	c #060506",
")2 	c #070505",
"!2 	c #0B0809",
"~2 	c #120F0F",
"{2 	c #141010",
"]2 	c #0E0A0A",
"^2 	c #090405",
"/2 	c #070103",
"(2 	c #090304",
"_2 	c #12090C",
":2 	c #0E0406",
"<2 	c #090102",
"[2 	c #0B0203",
"}2 	c #110707",
"|2 	c #180E0D",
"12 	c #1F1412",
"22 	c #1E110E",
"32 	c #2A1C16",
"42 	c #4B3A30",
"52 	c #6C574A",
"62 	c #886F61",
"72 	c #9A7D72",
"82 	c #AC8B85",
"92 	c #BE9B99",
"02 	c #C4A0A2",
"a2 	c #D0B0B4",
"b2 	c #EFD5DB",
"c2 	c #F5E4EB",
"d2 	c #EAE5EC",
"e2 	c #E9EAF3",
"f2 	c #EDF2FA",
"g2 	c #F4F9FE",
"h2 	c #FAFDFF",
"i2 	c #FFFFFE",
"j2 	c #FEFCF8",
"k2 	c #F1E6DE",
"l2 	c #E1C8BA",
"m2 	c #E1BAA7",
"n2 	c #E4B09A",
"o2 	c #E5A690",
"p2 	c #DD9580",
"q2 	c #D68470",
"r2 	c #D37761",
"s2 	c #DA735A",
"t2 	c #E27459",
"u2 	c #E4755C",
"v2 	c #DF7761",
"w2 	c #D77967",
"x2 	c #D17E70",
"y2 	c #CC8175",
"z2 	c #CA887E",
"A2 	c #DAA59D",
"B2 	c #EDC5BE",
"C2 	c #FBDED8",
"D2 	c #F9E1DC",
"E2 	c #E8D3D0",
"F2 	c #B9A7A6",
"G2 	c #BDBEB5",
"H2 	c #C9CCC3",
"I2 	c #CCD1CB",
"J2 	c #B7BFBB",
"K2 	c #A0AAAB",
"L2 	c #9DAAAC",
"M2 	c #97A4A7",
"N2 	c #929FA4",
"O2 	c #9CA9B0",
"P2 	c #9CA8B2",
"Q2 	c #8E99A5",
"R2 	c #77828F",
"S2 	c #6D7887",
"T2 	c #798293",
"U2 	c #788293",
"V2 	c #6A7587",
"W2 	c #505A6C",
"X2 	c #475164",
"Y2 	c #4C5768",
"Z2 	c #434E5E",
"`2 	c #384250",
" 3 	c #2C3744",
".3 	c #25313B",
"+3 	c #222D35",
"@3 	c #202D32",
"#3 	c #202D31",
"$3 	c #1F2B2D",
"%3 	c #151F21",
"&3 	c #0C1514",
"*3 	c #0A100B",
"=3 	c #0A0E08",
"-3 	c #070A06",
";3 	c #020402",
">3 	c #000101",
",3 	c #020306",
"'3 	c #09090D",
")3 	c #07070D",
"!3 	c #05050B",
"~3 	c #0C0B12",
"{3 	c #101015",
"]3 	c #121216",
"^3 	c #101115",
"/3 	c #0C0F12",
"(3 	c #0D1014",
"_3 	c #0E1016",
":3 	c #0A0D14",
"<3 	c #060812",
"[3 	c #0A0C19",
"}3 	c #101121",
"|3 	c #151426",
"13 	c #151425",
"23 	c #11111F",
"33 	c #0C0B16",
"43 	c #0F1016",
"53 	c #16161A",
"63 	c #0D0C10",
"73 	c #0F0E10",
"83 	c #110F11",
"93 	c #110E10",
"03 	c #100C0E",
"a3 	c #0F0C0C",
"b3 	c #0D0809",
"c3 	c #0A0506",
"d3 	c #090404",
"e3 	c #0B0504",
"f3 	c #0F0707",
"g3 	c #0E0605",
"h3 	c #0C0403",
"i3 	c #100605",
"j3 	c #1E1412",
"k3 	c #1E130F",
"l3 	c #200F07",
"m3 	c #2C1306",
"n3 	c #472A1C",
"o3 	c #624235",
"p3 	c #77564B",
"q3 	c #906D67",
"r3 	c #AB8584",
"s3 	c #B58F91",
"t3 	c #C6A4A8",
"u3 	c #EACED3",
"v3 	c #F3E2E8",
"w3 	c #ECE8EF",
"x3 	c #EBF0F7",
"y3 	c #EFF6FC",
"z3 	c #F5FBFE",
"A3 	c #FCFCFC",
"B3 	c #FAF6F3",
"C3 	c #EBDFD7",
"D3 	c #DBC2B4",
"E3 	c #E1BCA9",
"F3 	c #E7B8A3",
"G3 	c #E9B09B",
"H3 	c #E1A190",
"I3 	c #DA9283",
"J3 	c #D98775",
"K3 	c #DC7D67",
"L3 	c #DF775C",
"M3 	c #DD7459",
"N3 	c #D8745E",
"O3 	c #D07767",
"P3 	c #CC7C6E",
"Q3 	c #C67E73",
"R3 	c #C17F77",
"S3 	c #C78B84",
"T3 	c #D7A59F",
"U3 	c #ECC8C2",
"V3 	c #FAE2DE",
"W3 	c #FAE8E6",
"X3 	c #DDCCCE",
"Y3 	c #BEAEB2",
"Z3 	c #CACCC2",
"`3 	c #D5D8CE",
" 4 	c #C7CCC4",
".4 	c #ABB2AE",
"+4 	c #8D9796",
"@4 	c #808D8E",
"#4 	c #869496",
"$4 	c #96A4A8",
"%4 	c #A7B4BB",
"&4 	c #A6B3BC",
"*4 	c #939EAA",
"=4 	c #75818E",
"-4 	c #5D6979",
";4 	c #5B6577",
">4 	c #525D6F",
",4 	c #3F495D",
"'4 	c #465163",
")4 	c #4E596A",
"!4 	c #424E5E",
"~4 	c #313D4B",
"{4 	c #1F2B37",
"]4 	c #18242E",
"^4 	c #1A262D",
"/4 	c #1D2B2F",
"(4 	c #1C2A2C",
"_4 	c #172526",
":4 	c #0C1918",
"<4 	c #08120E",
"[4 	c #0D140D",
"}4 	c #0D130C",
"|4 	c #090E08",
"14 	c #040703",
"24 	c #030608",
"34 	c #0A0C10",
"44 	c #090B11",
"54 	c #070A11",
"64 	c #101119",
"74 	c #15171D",
"84 	c #17191F",
"94 	c #17191E",
"04 	c #171A1F",
"a4 	c #181A1F",
"b4 	c #15171E",
"c4 	c #0D1018",
"d4 	c #050613",
"e4 	c #0C0E1C",
"f4 	c #121323",
"g4 	c #131225",
"h4 	c #0D0D1F",
"i4 	c #080818",
"j4 	c #0B0B16",
"k4 	c #16171D",
"l4 	c #1D1E23",
"m4 	c #18191E",
"n4 	c #121116",
"o4 	c #151419",
"p4 	c #18171B",
"q4 	c #080609",
"r4 	c #0D0A0C",
"s4 	c #0F0C0E",
"t4 	c #0F0B0C",
"u4 	c #090505",
"v4 	c #080303",
"w4 	c #0D0707",
"x4 	c #120C0B",
"y4 	c #130D0B",
"z4 	c #100907",
"A4 	c #0D0503",
"B4 	c #0D0402",
"C4 	c #100806",
"D4 	c #130805",
"E4 	c #1B0A03",
"F4 	c #2C1307",
"G4 	c #3E2013",
"H4 	c #4F2D20",
"I4 	c #59342C",
"J4 	c #6A4340",
"K4 	c #815858",
"L4 	c #8E6367",
"M4 	c #A9848A",
"N4 	c #D9BBC1",
"O4 	c #EEDCE1",
"P4 	c #F0EDF2",
"Q4 	c #F0F5FA",
"R4 	c #F1F8FD",
"S4 	c #F7FBFF",
"T4 	c #FAF7FA",
"U4 	c #F3EBE8",
"V4 	c #E2D3CB",
"W4 	c #D4BAAC",
"X4 	c #DEB9A6",
"Y4 	c #E6B9A4",
"Z4 	c #E9B5A0",
"`4 	c #E7AC9C",
" 5 	c #E4A395",
".5 	c #E29A8A",
"+5 	c #E08D78",
"@5 	c #DB7F65",
"#5 	c #D3765C",
"$5 	c #CC7560",
"%5 	c #C47767",
"&5 	c #BA7367",
"*5 	c #B17167",
"=5 	c #AD726A",
"-5 	c #B07972",
";5 	c #BA8983",
">5 	c #CDA49E",
",5 	c #E7CFCB",
"'5 	c #F9EBEA",
")5 	c #F8E8EA",
"!5 	c #E3D2D6",
"~5 	c #989992",
"{5 	c #D6D7CF",
"]5 	c #E1E4DB",
"^5 	c #CCD0C9",
"/5 	c #B8C0BC",
"(5 	c #A3ADAC",
"_5 	c #879495",
":5 	c #8A989A",
"<5 	c #9BA9AD",
"[5 	c #A2AFB6",
"}5 	c #99A6AF",
"|5 	c #828E99",
"15 	c #687482",
"25 	c #525E6E",
"35 	c #485465",
"45 	c #3A4457",
"55 	c #2C374A",
"65 	c #2E394C",
"75 	c #3D485A",
"85 	c #3B4656",
"95 	c #283442",
"05 	c #16212D",
"a5 	c #101D27",
"b5 	c #152229",
"c5 	c #19262A",
"d5 	c #172527",
"e5 	c #111E1F",
"f5 	c #071413",
"g5 	c #0F1712",
"h5 	c #0F1710",
"i5 	c #0C120C",
"j5 	c #060A07",
"k5 	c #010506",
"l5 	c #02070A",
"m5 	c #090C12",
"n5 	c #070B12",
"o5 	c #060A12",
"p5 	c #10121A",
"q5 	c #151820",
"r5 	c #171B22",
"s5 	c #181B22",
"t5 	c #1F2329",
"u5 	c #22252B",
"v5 	c #23252C",
"w5 	c #22262E",
"x5 	c #1B1E27",
"y5 	c #131521",
"z5 	c #202331",
"A5 	c #27293A",
"B5 	c #27283B",
"C5 	c #1F2033",
"D5 	c #161728",
"E5 	c #131421",
"F5 	c #1B1D25",
"G5 	c #23262C",
"H5 	c #27292F",
"I5 	c #1B1B22",
"J5 	c #1D1D24",
"K5 	c #202026",
"L5 	c #131318",
"M5 	c #08060B",
"N5 	c #0C0B0F",
"O5 	c #0E0B0F",
"P5 	c #080507",
"Q5 	c #0C0709",
"R5 	c #120E0E",
"S5 	c #140F0F",
"T5 	c #110B0B",
"U5 	c #080101",
"V5 	c #080201",
"W5 	c #0C0201",
"X5 	c #160501",
"Y5 	c #281004",
"Z5 	c #341608",
"`5 	c #3D1A0D",
" 6 	c #411A11",
".6 	c #4C2320",
"+6 	c #5E3334",
"@6 	c #693B40",
"#6 	c #8B656B",
"$6 	c #C5A4AA",
"%6 	c #E6D1D7",
"&6 	c #F4EDF4",
"*6 	c #F4F5FB",
"=6 	c #F3F7FD",
"-6 	c #F6F7FF",
";6 	c #FBF8FF",
">6 	c #FAF3F9",
",6 	c #F1E4E3",
"'6 	c #E1CDC6",
")6 	c #D5B9AC",
"!6 	c #E9BAA5",
"~6 	c #E9B6A1",
"{6 	c #EBB5A3",
"]6 	c #ECB2A2",
"^6 	c #EBAD9B",
"/6 	c #E6A28D",
"(6 	c #DA9279",
"_6 	c #C77F67",
":6 	c #B77360",
"<6 	c #AB6F61",
"[6 	c #9F6A5F",
"}6 	c #9A6960",
"|6 	c #9A6D65",
"16 	c #996F67",
"26 	c #9B736C",
"36 	c #A48079",
"46 	c #BEA5A1",
"56 	c #DCCCCA",
"66 	c #F6E8E9",
"76 	c #EDE2E4",
"86 	c #C4BEC2",
"96 	c #ADAEA6",
"06 	c #DBDCD4",
"a6 	c #E7E9E1",
"b6 	c #D3D8D1",
"c6 	c #C3CAC7",
"d6 	c #AEB8B8",
"e6 	c #8E9B9C",
"f6 	c #94A2A6",
"g6 	c #8E9BA2",
"h6 	c #7F8B94",
"i6 	c #697480",
"j6 	c #606C7A",
"k6 	c #5C6777",
"l6 	c #556071",
"m6 	c #444E5F",
"n6 	c #2E3849",
"o6 	c #253041",
"p6 	c #2F3A4B",
"q6 	c #384354",
"r6 	c #2D3949",
"s6 	c #1E2938",
"t6 	c #111D29",
"u6 	c #111D27",
"v6 	c #152327",
"w6 	c #122023",
"x6 	c #0D1B1C",
"y6 	c #081515",
"z6 	c #0A1513",
"A6 	c #0F1814",
"B6 	c #101812",
"C6 	c #0C140F",
"D6 	c #060C0B",
"E6 	c #020709",
"F6 	c #02070C",
"G6 	c #070C12",
"H6 	c #050912",
"I6 	c #040811",
"J6 	c #0C1019",
"K6 	c #11151F",
"L6 	c #141821",
"M6 	c #151921",
"N6 	c #191E24",
"O6 	c #21262C",
"P6 	c #252A31",
"Q6 	c #292E35",
"R6 	c #2D323A",
"S6 	c #262B35",
"T6 	c #202430",
"U6 	c #303444",
"V6 	c #3A3D4F",
"W6 	c #3A3D51",
"X6 	c #34364A",
"Y6 	c #282B3D",
"Z6 	c #1B1E2C",
"`6 	c #23262E",
" 7 	c #2A2D35",
".7 	c #272A32",
"+7 	c #1F2029",
"@7 	c #1E1F27",
"#7 	c #1F2027",
"$7 	c #1F2026",
"%7 	c #15161C",
"&7 	c #09090F",
"*7 	c #0A0A10",
"=7 	c #0C0B10",
"-7 	c #0B0A0F",
";7 	c #07060A",
">7 	c #070509",
",7 	c #0B070C",
"'7 	c #100C0F",
")7 	c #110D0F",
"!7 	c #0F0A0C",
"~7 	c #0C0708",
"{7 	c #0B0303",
"]7 	c #140401",
"^7 	c #240D03",
"/7 	c #2E1104",
"(7 	c #330F03",
"_7 	c #350D04",
":7 	c #3C0F0D",
"<7 	c #48171A",
"[7 	c #4D161C",
"}7 	c #714B50",
"|7 	c #AF8C93",
"17 	c #DBC3CA",
"27 	c #F4E9F1",
"37 	c #F3F1F8",
"47 	c #F1F1FA",
"57 	c #F5F2FC",
"67 	c #FBF5FF",
"77 	c #FCF3F8",
"87 	c #F4E3E3",
"97 	c #E7CEC8",
"07 	c #DEBDB1",
"a7 	c #E9BEAD",
"b7 	c #EDBCA7",
"c7 	c #EAB6A0",
"d7 	c #EDB9A5",
"e7 	c #F0BBA8",
"f7 	c #EEB9A5",
"g7 	c #E9B39E",
"h7 	c #DCA690",
"i7 	c #C08E7A",
"j7 	c #A67A69",
"k7 	c #936D61",
"l7 	c #8A6A61",
"m7 	c #896C65",
"n7 	c #8A6F68",
"o7 	c #866D65",
"p7 	c #836962",
"q7 	c #856C64",
"r7 	c #947D76",
"s7 	c #B4A19E",
"t7 	c #DED2D1",
"u7 	c #E9E2E3",
"v7 	c #DEDADC",
"w7 	c #BFBCBF",
"x7 	c #C1C2BA",
"y7 	c #D9DAD2",
"z7 	c #E2E4DD",
"A7 	c #D8DCD6",
"B7 	c #A0AAAA",
"C7 	c #889596",
"D7 	c #808D91",
"E7 	c #7D8A90",
"F7 	c #6E7A81",
"G7 	c #5B6770",
"H7 	c #505B67",
"I7 	c #64707D",
"J7 	c #727E8C",
"K7 	c #707B8B",
"L7 	c #5D6878",
"M7 	c #404B5A",
"N7 	c #263141",
"O7 	c #1E293A",
"P7 	c #232F3E",
"Q7 	c #1C2735",
"R7 	c #131F2C",
"S7 	c #17242B",
"T7 	c #111F22",
"U7 	c #101D20",
"V7 	c #101C1D",
"W7 	c #0E1918",
"X7 	c #0D1613",
"Y7 	c #0A1310",
"Z7 	c #050D0E",
"`7 	c #02090D",
" 8 	c #030A10",
".8 	c #070D15",
"+8 	c #050A13",
"@8 	c #020611",
"#8 	c #070C18",
"$8 	c #0B111C",
"%8 	c #0E141E",
"&8 	c #0E151D",
"*8 	c #131921",
"=8 	c #1B2229",
"-8 	c #222931",
";8 	c #2B3139",
">8 	c #333942",
",8 	c #2E343E",
"'8 	c #282E3B",
")8 	c #3B404F",
"!8 	c #464B5D",
"~8 	c #484C61",
"{8 	c #43475C",
"]8 	c #363B4D",
"^8 	c #202534",
"/8 	c #131925",
"(8 	c #1A1F29",
"_8 	c #252933",
":8 	c #1C202A",
"<8 	c #161922",
"[8 	c #171B23",
"}8 	c #12151C",
"|8 	c #090B13",
"18 	c #06080F",
"28 	c #07090F",
"38 	c #0A0B10",
"48 	c #0B090F",
"58 	c #0A080D",
"68 	c #09070B",
"78 	c #09060A",
"88 	c #0C090C",
"98 	c #110C10",
"08 	c #10090B",
"a8 	c #140704",
"b8 	c #230D04",
"c8 	c #2D1104",
"d8 	c #341105",
"e8 	c #3A110A",
"f8 	c #401211",
"g8 	c #471417",
"h8 	c #44080F",
"i8 	c #613B40",
"j8 	c #9D777E",
"k8 	c #CFB5BC",
"l8 	c #EFE0E8",
"m8 	c #EEE8F0",
"n8 	c #ECE9F3",
"o8 	c #F2ECF8",
"p8 	c #FAF3FD",
"q8 	c #FEF4F9",
"r8 	c #FBE5E6",
"s8 	c #F1D2CD",
"t8 	c #EAC4B8",
"u8 	c #F4C5B4",
"v8 	c #F4C0AB",
"w8 	c #ECB69F",
"x8 	c #EEB9A3",
"y8 	c #EFBDA8",
"z8 	c #EABEA8",
"A8 	c #E6BDA8",
"B8 	c #DBB6A3",
"C8 	c #C1A191",
"D8 	c #A48B7E",
"E8 	c #8D7971",
"F8 	c #887A75",
"G8 	c #867B76",
"H8 	c #837772",
"I8 	c #7C706A",
"J8 	c #7C6E68",
"K8 	c #86766F",
"L8 	c #877870",
"M8 	c #91847E",
"N8 	c #AFA6A3",
"O8 	c #D6D1D1",
"P8 	c #EFEDEE",
"Q8 	c #D8D6D7",
"R8 	c #B8B6B6",
"S8 	c #B8B8B2",
"T8 	c #D3D4CD",
"U8 	c #D5D6CF",
"V8 	c #D3D5CE",
"W8 	c #CACFC9",
"X8 	c #8A9493",
"Y8 	c #879394",
"Z8 	c #818D91",
"`8 	c #748086",
" 9 	c #606B73",
".9 	c #4A555E",
"+9 	c #414C56",
"@9 	c #5F6976",
"#9 	c #6F7A87",
"$9 	c #697483",
"%9 	c #545F6E",
"&9 	c #374150",
"*9 	c #222C3C",
"=9 	c #172132",
"-9 	c #15202F",
";9 	c #0F1A28",
">9 	c #0E1925",
",9 	c #111C27",
"'9 	c #131F28",
")9 	c #131F26",
"!9 	c #111E22",
"~9 	c #142024",
"{9 	c #172326",
"]9 	c #162223",
"^9 	c #111C1B",
"/9 	c #071110",
"(9 	c #07100F",
"_9 	c #050E11",
":9 	c #050E14",
"<9 	c #081019",
"[9 	c #0C141E",
"}9 	c #0A111C",
"|9 	c #060D19",
"19 	c #0B121E",
"29 	c #0F1623",
"39 	c #111824",
"49 	c #0E151F",
"59 	c #0E151E",
"69 	c #141C24",
"79 	c #1D242D",
"89 	c #262E36",
"99 	c #2F363F",
"09 	c #222937",
"a9 	c #323848",
"b9 	c #3C4255",
"c9 	c #3F455A",
"d9 	c #3B4055",
"e9 	c #303548",
"f9 	c #1C2332",
"g9 	c #101825",
"h9 	c #141C27",
"i9 	c #1F2530",
"j9 	c #1F242F",
"k9 	c #151B25",
"l9 	c #0D121D",
"m9 	c #0C111C",
"n9 	c #121621",
"o9 	c #0E121C",
"p9 	c #080B15",
"q9 	c #060913",
"r9 	c #0C0F18",
"s9 	c #111219",
"t9 	c #0C0C13",
"u9 	c #07060D",
"v9 	c #040309",
"w9 	c #0B0A0E",
"x9 	c #100E13",
"y9 	c #110F13",
"z9 	c #120D0F",
"A9 	c #160B08",
"B9 	c #220F06",
"C9 	c #2C1206",
"D9 	c #351308",
"E9 	c #3F150F",
"F9 	c #461615",
"G9 	c #4A1519",
"H9 	c #43050C",
"I9 	c #593036",
"J9 	c #91676F",
"K9 	c #C5A9B1",
"L9 	c #E9D7DF",
"M9 	c #E8DEE6",
"N9 	c #E8E0EB",
"O9 	c #F3E9F6",
"P9 	c #FBF3FD",
"Q9 	c #FEF3F8",
"R9 	c #FCE2E4",
"S9 	c #F2CFCB",
"T9 	c #ECC1B7",
"U9 	c #F8C5B5",
"V9 	c #F9C2AE",
"W9 	c #F2B9A2",
"X9 	c #F2BCA5",
"Y9 	c #EFC0A9",
"Z9 	c #E6C0A9",
"`9 	c #DBBDA9",
" 0 	c #CFB8A9",
".0 	c #BEB0A5",
"+0 	c #ABA59E",
"@0 	c #9A9A98",
"#0 	c #959997",
"$0 	c #8D9190",
"%0 	c #808280",
"&0 	c #767571",
"*0 	c #7C7973",
"=0 	c #938E87",
"-0 	c #A09A92",
";0 	c #A39D96",
">0 	c #9E9994",
",0 	c #BAB8B6",
"'0 	c #DDDDDB",
")0 	c #E5E5E3",
"!0 	c #D9D9D6",
"~0 	c #C0C1BC",
"{0 	c #E2E3DD",
"]0 	c #D4D5CF",
"^0 	c #C0C2BC",
"/0 	c #B2B7B1",
"(0 	c #929895",
"_0 	c #919C9E",
":0 	c #8E999D",
"<0 	c #7A858A",
"[0 	c #646E75",
"}0 	c #4B555D",
"|0 	c #505964",
"10 	c #5B6470",
"20 	c #505966",
"30 	c #3B4350",
"40 	c #212937",
"50 	c #1D2636",
"60 	c #192332",
"70 	c #121C2A",
"80 	c #0D1724",
"90 	c #0D1722",
"00 	c #0F1923",
"a0 	c #0E1821",
"b0 	c #0C161E",
"c0 	c #0F191E",
"d0 	c #182327",
"e0 	c #1E292C",
"f0 	c #1A2527",
"g0 	c #101B1B",
"h0 	c #030A0B",
"i0 	c #020A0C",
"j0 	c #040E11",
"k0 	c #061015",
"l0 	c #0A131C",
"m0 	c #101923",
"n0 	c #161E2A",
"o0 	c #151D29",
"p0 	c #121B28",
"q0 	c #19212E",
"r0 	c #1E2734",
"s0 	c #202835",
"t0 	c #0A131E",
"u0 	c #212B34",
"v0 	c #212934",
"w0 	c #171E2D",
"x0 	c #22293A",
"y0 	c #2C3347",
"z0 	c #31374E",
"A0 	c #2B3248",
"B0 	c #22293E",
"C0 	c #1D2536",
"D0 	c #242D3B",
"E0 	c #2B3440",
"F0 	c #27303B",
"G0 	c #1E2732",
"H0 	c #141D28",
"I0 	c #19202B",
"J0 	c #1D232E",
"K0 	c #1A212C",
"L0 	c #131924",
"M0 	c #0F141F",
"N0 	c #171C26",
"O0 	c #21262F",
"P0 	c #262A34",
"Q0 	c #21252E",
"R0 	c #191C24",
"S0 	c #10111A",
"T0 	c #090A13",
"U0 	c #06070F",
"V0 	c #08080F",
"W0 	c #0C0C12",
"X0 	c #0D0D12",
"Y0 	c #110D10",
"Z0 	c #180F0D",
"`0 	c #23120A",
" a 	c #2C1408",
".a 	c #471515",
"+a 	c #4A1318",
"@a 	c #44050C",
"#a 	c #562A30",
"$a 	c #885C65",
"%a 	c #BE9FA8",
"&a 	c #E3CFD8",
"*a 	c #E2D5DE",
"=a 	c #E6DBE6",
"-a 	c #F6E9F7",
";a 	c #FDF2FE",
">a 	c #FDEFF7",
",a 	c #F7DADD",
"'a 	c #EBC2C0",
")a 	c #E4B3AB",
"!a 	c #F4BCAD",
"~a 	c #FCBFAB",
"{a 	c #F9BBA5",
"]a 	c #F8C0A8",
"^a 	c #F1C3AA",
"/a 	c #E3C0AA",
"(a 	c #CFB8A7",
"_a 	c #BDB3A8",
":a 	c #B2B9B8",
"<a 	c #AAB6B8",
"[a 	c #A3B2B5",
"}a 	c #96A5A8",
"|a 	c #849092",
"1a 	c #767F7F",
"2a 	c #7D827E",
"3a 	c #999A93",
"4a 	c #B5B4AB",
"5a 	c #BFBEB5",
"6a 	c #ABAAA4",
"7a 	c #A8A8A3",
"8a 	c #BEBFBA",
"9a 	c #E3E4DF",
"0a 	c #E6E7E2",
"aa 	c #BBBBB6",
"ba 	c #C1C2BD",
"ca 	c #EBECE7",
"da 	c #D6D7D2",
"ea 	c #B4B5B0",
"fa 	c #969995",
"ga 	c #818786",
"ha 	c #879092",
"ia 	c #A7B1B4",
"ja 	c #A1ACB0",
"ka 	c #859095",
"la 	c #6C777C",
"ma 	c #505A61",
"na 	c #333C45",
"oa 	c #323B45",
"pa 	c #353D48",
"qa 	c #2B333E",
"ra 	c #1C222E",
"sa 	c #121925",
"ta 	c #1E2835",
"ua 	c #16202C",
"va 	c #101A25",
"wa 	c #0C1620",
"xa 	c #09131C",
"ya 	c #050D15",
"za 	c #050D13",
"Aa 	c #0B161A",
"Ba 	c #1A2428",
"Ca 	c #202B2F",
"Da 	c #182325",
"Ea 	c #0C1617",
"Fa 	c #00090B",
"Ga 	c #030E13",
"Ha 	c #08121A",
"Ia 	c #0E1923",
"Ja 	c #17212D",
"Ka 	c #202937",
"La 	c #202A38",
"Ma 	c #202A3A",
"Na 	c #2A3343",
"Oa 	c #313B4A",
"Pa 	c #323D4B",
"Qa 	c #212B36",
"Ra 	c #0A1520",
"Sa 	c #0F1A24",
"Ta 	c #1D2731",
"Ua 	c #252F39",
"Va 	c #222E37",
"Wa 	c #1A2530",
"Xa 	c #141D2B",
"Ya 	c #1C2637",
"Za 	c #2A3346",
"`a 	c #333B51",
" b 	c #2A3349",
".b 	c #222B40",
"+b 	c #2A3546",
"@b 	c #424D5D",
"#b 	c #4D5968",
"$b 	c #3E4957",
"%b 	c #2B3643",
"&b 	c #222D3A",
"*b 	c #323B49",
"=b 	c #38404E",
"-b 	c #2E3743",
";b 	c #212935",
">b 	c #1E2530",
",b 	c #2E3540",
"'b 	c #39404B",
")b 	c #3C424D",
"!b 	c #303640",
"~b 	c #212731",
"{b 	c #151923",
"]b 	c #0F131C",
"^b 	c #0E111A",
"/b 	c #080B13",
"(b 	c #04060E",
"_b 	c #04050C",
":b 	c #181111",
"<b 	c #24150F",
"[b 	c #2C150B",
"}b 	c #311107",
"|b 	c #380E08",
"1b 	c #3D0C0B",
"2b 	c #410A0F",
"3b 	c #3F0007",
"4b 	c #53262B",
"5b 	c #80555C",
"6b 	c #B6989F",
"7b 	c #DDC9D0",
"8b 	c #DED0D8",
"9b 	c #E5D9E5",
"0b 	c #F9EBF9",
"ab 	c #FFF1FF",
"bb 	c #FBE9F3",
"cb 	c #EDCCD1",
"db 	c #DAADAC",
"eb 	c #D29A92",
"fb 	c #E9A799",
"gb 	c #F8B3A1",
"hb 	c #FDB9A4",
"ib 	c #FDC0A9",
"jb 	c #F6C3AC",
"kb 	c #E5C0AB",
"lb 	c #C9B4A4",
"mb 	c #B0ACA4",
"nb 	c #AFB6B4",
"ob 	c #B1C1C4",
"pb 	c #B1C5CC",
"qb 	c #A9BEC6",
"rb 	c #9DB2B9",
"sb 	c #90A2A8",
"tb 	c #819093",
"ub 	c #7C8685",
"vb 	c #898F89",
"wb 	c #B0B2AA",
"xb 	c #C9CBC2",
"yb 	c #C3C5BE",
"zb 	c #B3B5AF",
"Ab 	c #ABAEA7",
"Bb 	c #CACDC7",
"Cb 	c #DDDFD8",
"Db 	c #D9DAD3",
"Eb 	c #BCBCB4",
"Fb 	c #898986",
"Gb 	c #C0C1BD",
"Hb 	c #E5E5E2",
"Ib 	c #D7D8D4",
"Jb 	c #B5B6B3",
"Kb 	c #898B89",
"Lb 	c #737879",
"Mb 	c #7F878A",
"Nb 	c #9CA6AA",
"Ob 	c #96A0A4",
"Pb 	c #7A8489",
"Qb 	c #616B70",
"Rb 	c #485158",
"Sb 	c #2E383F",
"Tb 	c #1D2730",
"Ub 	c #131D27",
"Vb 	c #0D1721",
"Wb 	c #101722",
"Xb 	c #171E28",
"Yb 	c #1D2631",
"Zb 	c #1C2531",
"`b 	c #161F2A",
" c 	c #0A141D",
".c 	c #050F17",
"+c 	c #010810",
"@c 	c #01080E",
"#c 	c #091318",
"$c 	c #172125",
"%c 	c #1D272B",
"&c 	c #131E21",
"*c 	c #071114",
"=c 	c #01080C",
"-c 	c #010C11",
";c 	c #041118",
">c 	c #09151F",
",c 	c #0F1B28",
"'c 	c #182332",
")c 	c #242F3F",
"!c 	c #263242",
"~c 	c #333D4F",
"{c 	c #3D4859",
"]c 	c #3F4B5A",
"^c 	c #2B3542",
"/c 	c #101B27",
"(c 	c #19262F",
"_c 	c #2D3841",
":c 	c #344049",
"<c 	c #27333D",
"[c 	c #1A2732",
"}c 	c #1B2634",
"|c 	c #293444",
"1c 	c #3D475A",
"2c 	c #4B5469",
"3c 	c #3C465B",
"4c 	c #2E3A4E",
"5c 	c #3D495C",
"6c 	c #606E7E",
"7c 	c #707E8E",
"8c 	c #596575",
"9c 	c #374251",
"0c 	c #4D5867",
"ac 	c #525D6C",
"bc 	c #414C5A",
"cc 	c #2E3846",
"dc 	c #293340",
"ec 	c #3C4652",
"fc 	c #48515E",
"gc 	c #4A515F",
"hc 	c #3B434F",
"ic 	c #2A323C",
"jc 	c #1C222D",
"kc 	c #161C27",
"lc 	c #141923",
"mc 	c #0C111B",
"nc 	c #01050F",
"oc 	c #00020B",
"pc 	c #09080F",
"qc 	c #171113",
"rc 	c #231611",
"sc 	c #2B160C",
"tc 	c #301107",
"uc 	c #330A04",
"vc 	c #360504",
"wc 	c #3A0306",
"xc 	c #3A0003",
"yc 	c #4D1F24",
"zc 	c #744A4F",
"Ac 	c #AB8F94",
"Bc 	c #D4C2C7",
"Cc 	c #DBCED6",
"Dc 	c #E5DAE4",
"Ec 	c #F8E9F7",
"Fc 	c #FEEFFD",
"Gc 	c #FAE5F1",
"Hc 	c #E9C5CB",
"Ic 	c #CF9E9F",
"Jc 	c #BE807A",
"Kc 	c #D58B80",
"Lc 	c #EB9D8D",
"Mc 	c #F8AB97",
"Nc 	c #FBB59F",
"Oc 	c #F6BCA5",
"Pc 	c #E7BDAA",
"Qc 	c #CAB2A6",
"Rc 	c #AEAAA7",
"Sc 	c #AAB4B6",
"Tc 	c #ACBEC6",
"Uc 	c #ADC4CF",
"Vc 	c #A6BECB",
"Wc 	c #A0B8C4",
"Xc 	c #9EB3BD",
"Yc 	c #93A4AB",
"Zc 	c #849294",
"`c 	c #7D8582",
" d 	c #9A9E97",
".d 	c #BBBEB7",
"+d 	c #D0D3CC",
"@d 	c #CACEC7",
"#d 	c #B7BCB5",
"$d 	c #CDD1CA",
"%d 	c #DDE1D9",
"&d 	c #CFD3C9",
"*d 	c #B2B8AC",
"=d 	c #8F8F8D",
"-d 	c #ACACAA",
";d 	c #C2C2C0",
">d 	c #D3D3D1",
",d 	c #D6D6D4",
"'d 	c #909291",
")d 	c #6C7071",
"!d 	c #646C6F",
"~d 	c #788185",
"{d 	c #737C80",
"]d 	c #5C656A",
"^d 	c #464E54",
"/d 	c #353E44",
"(d 	c #2C353C",
"_d 	c #1E262D",
":d 	c #101922",
"<d 	c #121B24",
"[d 	c #1A222C",
"}d 	c #1D2530",
"|d 	c #18202A",
"1d 	c #131C26",
"2d 	c #0B141D",
"3d 	c #081119",
"4d 	c #081118",
"5d 	c #060F15",
"6d 	c #050F15",
"7d 	c #091217",
"8d 	c #121A1F",
"9d 	c #151E23",
"0d 	c #0E181C",
"ad 	c #051015",
"bd 	c #020D13",
"cd 	c #041219",
"dd 	c #07151E",
"ed 	c #0B1723",
"fd 	c #0E1B29",
"gd 	c #162232",
"hd 	c #1F2A3C",
"id 	c #222E3F",
"jd 	c #273344",
"kd 	c #364153",
"ld 	c #434F60",
"md 	c #475363",
"nd 	c #303C49",
"od 	c #182430",
"pd 	c #27353E",
"qd 	c #3F4C55",
"rd 	c #46535C",
"sd 	c #2F3C46",
"td 	c #1D2B37",
"ud 	c #24303E",
"vd 	c #384454",
"wd 	c #515D6F",
"xd 	c #626D82",
"yd 	c #4F5A6F",
"zd 	c #39465B",
"Ad 	c #4A586B",
"Bd 	c #758494",
"Cd 	c #8797A7",
"Dd 	c #6B7989",
"Ed 	c #4D5A6B",
"Fd 	c #465364",
"Gd 	c #5F6B7C",
"Hd 	c #626F7F",
"Id 	c #4B5868",
"Jd 	c #344150",
"Kd 	c #2E3A49",
"Ld 	c #414D5B",
"Md 	c #4D5866",
"Nd 	c #4F5967",
"Od 	c #424B59",
"Pd 	c #313B47",
"Qd 	c #232B38",
"Rd 	c #1C2430",
"Sd 	c #1B222D",
"Td 	c #1A202C",
"Ud 	c #121823",
"Vd 	c #060D17",
"Wd 	c #020511",
"Xd 	c #070911",
"Yd 	c #141014",
"Zd 	c #211611",
"`d 	c #2A170D",
" e 	c #31140A",
".e 	c #340E07",
"+e 	c #350605",
"@e 	c #380305",
"#e 	c #370002",
"$e 	c #44181C",
"%e 	c #643D40",
"&e 	c #9C8487",
"*e 	c #C9BABD",
"=e 	c #D8CFD4",
"-e 	c #E4DBE4",
";e 	c #F2E5F1",
">e 	c #FBECF9",
",e 	c #FBE6F1",
"'e 	c #EDC7CE",
")e 	c #CC9A9C",
"!e 	c #AE6B67",
"~e 	c #BF6B62",
"{e 	c #D87E70",
"]e 	c #EB9280",
"^e 	c #F2A18B",
"/e 	c #F1AD98",
"(e 	c #E8B7A4",
"_e 	c #D0B2A8",
":e 	c #B5ADAE",
"<e 	c #ACB4BB",
"[e 	c #A8B8C5",
"}e 	c #A5BACA",
"|e 	c #A0B8CA",
"1e 	c #A3BBCB",
"2e 	c #AABFCD",
"3e 	c #A4B6C0",
"4e 	c #96A3A8",
"5e 	c #838B8B",
"6e 	c #838782",
"7e 	c #A1A59E",
"8e 	c #D3D8D2",
"9e 	c #E0E5DF",
"0e 	c #D2D9D3",
"ae 	c #C1C8C1",
"be 	c #D5DCD4",
"ce 	c #D9E1D6",
"de 	c #D1DACE",
"ee 	c #9F9F9F",
"fe 	c #C1C1C1",
"ge 	c #D3D3D3",
"he 	c #CCCCCB",
"ie 	c #BEBEBC",
"je 	c #D5D5D4",
"ke 	c #D2D2D2",
"le 	c #A4A5A6",
"me 	c #717476",
"ne 	c #495053",
"oe 	c #535B60",
"pe 	c #51595E",
"qe 	c #424A4F",
"re 	c #2E363B",
"se 	c #273035",
"te 	c #2D363C",
"ue 	c #1F272D",
"ve 	c #0A131B",
"we 	c #0E161E",
"xe 	c #0F161F",
"ye 	c #0A121A",
"ze 	c #070E17",
"Ae 	c #060D15",
"Be 	c #040A12",
"Ce 	c #070F16",
"De 	c #0F181D",
"Ee 	c #131C21",
"Fe 	c #0C1419",
"Ge 	c #0B1318",
"He 	c #0C151A",
"Ie 	c #091419",
"Je 	c #08141A",
"Ke 	c #09161E",
"Le 	c #0B1921",
"Me 	c #0C1A24",
"Ne 	c #0B1825",
"Oe 	c #0B1827",
"Pe 	c #101D2D",
"Qe 	c #182436",
"Re 	c #192638",
"Se 	c #202C3E",
"Te 	c #313D4F",
"Ue 	c #3F4C5D",
"Ve 	c #445162",
"We 	c #303C4B",
"Xe 	c #212F3B",
"Ye 	c #36444E",
"Ze 	c #515E68",
"`e 	c #57646D",
" f 	c #36434C",
".f 	c #1B2935",
"+f 	c #404D5C",
"@f 	c #5E6A7C",
"#f 	c #717C92",
"$f 	c #586478",
"%f 	c #39485D",
"&f 	c #4B5B6F",
"*f 	c #768698",
"=f 	c #8999AA",
"-f 	c #6B7A8C",
";f 	c #4D5D6F",
">f 	c #49586A",
",f 	c #5E6C7E",
"'f 	c #5F6E7F",
")f 	c #445263",
"!f 	c #2E3B4B",
"~f 	c #273343",
"{f 	c #354151",
"]f 	c #434F5E",
"^f 	c #4A5564",
"/f 	c #424D5C",
"(f 	c #36414E",
"_f 	c #293240",
":f 	c #202936",
"<f 	c #1C2431",
"[f 	c #18202B",
"}f 	c #111823",
"|f 	c #09101B",
"1f 	c #090D16",
"2f 	c #121014",
"3f 	c #1E1410",
"4f 	c #2B190F",
"5f 	c #371B11",
"6f 	c #3C1711",
"7f 	c #3E110F",
"8f 	c #3D0B0C",
"9f 	c #380306",
"0f 	c #3C1214",
"af 	c #553132",
"bf 	c #8E7A7B",
"cf 	c #BFB2B4",
"df 	c #D8D0D4",
"ef 	c #E4DDE4",
"ff 	c #E9DFE9",
"gf 	c #F6EBF6",
"hf 	c #FDECF5",
"if 	c #F7D1D6",
"jf 	c #D3A1A3",
"kf 	c #A7615F",
"lf 	c #AD524B",
"mf 	c #C46155",
"nf 	c #DA7666",
"of 	c #E58975",
"pf 	c #EA9C88",
"qf 	c #EAAE9E",
"rf 	c #D6B1AA",
"sf 	c #BFB2B5",
"tf 	c #B7BBC5",
"uf 	c #ADBBCA",
"vf 	c #A4B6C9",
"wf 	c #A2B8CB",
"xf 	c #A7BDD0",
"yf 	c #AFC3D3",
"zf 	c #B0C0CC",
"Af 	c #ABB7BE",
"Bf 	c #A2A9AA",
"Cf 	c #909491",
"Df 	c #9A9D98",
"Ef 	c #D3D7D3",
"Ff 	c #ECF1ED",
"Gf 	c #EBF0ED",
"Hf 	c #D6DDD8",
"If 	c #C9D2CB",
"Jf 	c #CFD9D1",
"Kf 	c #D9E3D9",
"Lf 	c #D4DFD4",
"Mf 	c #A8B4AA",
"Nf 	c #929293",
"Of 	c #BFBFC0",
"Pf 	c #DDDDDD",
"Qf 	c #E3E3E4",
"Rf 	c #CECECE",
"Sf 	c #AFAFAF",
"Tf 	c #C9C9C9",
"Uf 	c #CFCFD0",
"Vf 	c #AFB0B2",
"Wf 	c #7A7C7F",
"Xf 	c #394044",
"Yf 	c #343D42",
"Zf 	c #333C41",
"`f 	c #2B3439",
" g 	c #1D252A",
".g 	c #272F34",
"+g 	c #1A2227",
"@g 	c #060E15",
"#g 	c #030C12",
"$g 	c #030B11",
"%g 	c #02070E",
"&g 	c #01060D",
"*g 	c #02060D",
"=g 	c #0B1218",
"-g 	c #151D22",
";g 	c #182025",
">g 	c #171F24",
",g 	c #131B20",
"'g 	c #0D151A",
")g 	c #071016",
"!g 	c #071117",
"~g 	c #0A161D",
"{g 	c #101D25",
"]g 	c #1D2A35",
"^g 	c #1C2836",
"/g 	c #162231",
"(g 	c #132031",
"_g 	c #1B273B",
":g 	c #2F3A4C",
"<g 	c #3B4658",
"[g 	c #374356",
"}g 	c #384558",
"|g 	c #3D4A58",
"1g 	c #3E4B57",
"2g 	c #46545F",
"3g 	c #515F69",
"4g 	c #54626B",
"5g 	c #48555D",
"6g 	c #39454F",
"7g 	c #303E4A",
"8g 	c #3E4B59",
"9g 	c #576374",
"0g 	c #6A768A",
"ag 	c #5D6A7F",
"bg 	c #4C5B6F",
"cg 	c #4F6074",
"dg 	c #6E7E91",
"eg 	c #8293A6",
"fg 	c #7D8EA0",
"gg 	c #6E7E90",
"hg 	c #5C6B7D",
"ig 	c #5B6B7D",
"jg 	c #5A697B",
"kg 	c #4F5E6E",
"lg 	c #3F4E5D",
"mg 	c #303E4D",
"ng 	c #2C3A4A",
"og 	c #404C5C",
"pg 	c #525E6D",
"qg 	c #566270",
"rg 	c #4E5967",
"sg 	c #3B4553",
"tg 	c #28323F",
"ug 	c #1B2531",
"vg 	c #1B2431",
"wg 	c #1A222F",
"xg 	c #0E1621",
"yg 	c #19110E",
"zg 	c #29170E",
"Ag 	c #371E13",
"Bg 	c #3E1B14",
"Cg 	c #401512",
"Dg 	c #3E1110",
"Eg 	c #380A0A",
"Fg 	c #350C0C",
"Gg 	c #432322",
"Hg 	c #7E706F",
"Ig 	c #B1A8A8",
"Jg 	c #CEC9CB",
"Kg 	c #DBD7DC",
"Lg 	c #E1D9E3",
"Mg 	c #F1E8F1",
"Ng 	c #FDECF3",
"Og 	c #FBD7DA",
"Pg 	c #D9A7A8",
"Qg 	c #A9615F",
"Rg 	c #A94640",
"Sg 	c #BC4D42",
"Tg 	c #D05E50",
"Ug 	c #D76F5D",
"Vg 	c #DC8371",
"Wg 	c #DD988A",
"Xg 	c #CEA29C",
"Yg 	c #BEABAF",
"Zg 	c #BABAC5",
"`g 	c #B3BDCD",
" h 	c #AABACE",
".h 	c #A7BACF",
"+h 	c #AABCD1",
"@h 	c #AFC0D1",
"#h 	c #B1BFCD",
"$h 	c #B3BDC6",
"%h 	c #B4BABC",
"&h 	c #A6A9A8",
"*h 	c #A5A6A3",
"=h 	c #C9CCC9",
"-h 	c #E7EAE8",
";h 	c #F5F9F7",
">h 	c #EAF0ED",
",h 	c #DCE5E1",
"'h 	c #D7E1DC",
")h 	c #DAE5DE",
"!h 	c #D5E1D9",
"~h 	c #BCCAC3",
"{h 	c #A1AEA9",
"]h 	c #919192",
"^h 	c #BBBBBD",
"/h 	c #DCDCDD",
"(h 	c #EDEDEE",
"_h 	c #E0E0E2",
":h 	c #C5C5C6",
"<h 	c #A8A8A8",
"[h 	c #AFAFB0",
"}h 	c #B6B6B8",
"|h 	c #AEAEB2",
"1h 	c #838589",
"2h 	c #454A4F",
"3h 	c #2F363D",
"4h 	c #252C33",
"5h 	c #1E252B",
"6h 	c #1A2127",
"7h 	c #171E24",
"8h 	c #040C12",
"9h 	c #081015",
"0h 	c #0A1117",
"ah 	c #050C12",
"bh 	c #040A10",
"ch 	c #050C11",
"dh 	c #070E14",
"eh 	c #181F25",
"fh 	c #151C22",
"gh 	c #141B21",
"hh 	c #151B22",
"ih 	c #091118",
"jh 	c #071017",
"kh 	c #09151C",
"lh 	c #23303B",
"mh 	c #2B3845",
"nh 	c #2B3847",
"oh 	c #233040",
"ph 	c #222E40",
"qh 	c #313C51",
"rh 	c #4E596E",
"sh 	c #5B677C",
"th 	c #455164",
"uh 	c #354254",
"vh 	c #414D5D",
"wh 	c #596573",
"xh 	c #616E7A",
"yh 	c #4B5962",
"zh 	c #525F67",
"Ah 	c #6C7982",
"Bh 	c #65727B",
"Ch 	c #46535D",
"Dh 	c #374551",
"Eh 	c #445060",
"Fh 	c #5C687A",
"Gh 	c #6C7A8D",
"Hh 	c #6C7B8F",
"Ih 	c #59697D",
"Jh 	c #627387",
"Kh 	c #7E90A3",
"Lh 	c #9CAEC1",
"Mh 	c #95A7B9",
"Nh 	c #728395",
"Oh 	c #596A7C",
"Ph 	c #586879",
"Qh 	c #667787",
"Rh 	c #5B6B7B",
"Sh 	c #445363",
"Th 	c #31404F",
"Uh 	c #465362",
"Vh 	c #606D7C",
"Wh 	c #6B7986",
"Xh 	c #64717E",
"Yh 	c #4B5764",
"Zh 	c #16222E",
"`h 	c #161F2B",
" i 	c #0E1823",
".i 	c #0C131D",
"+i 	c #0F1117",
"@i 	c #120D0B",
"#i 	c #221309",
"$i 	c #321C12",
"%i 	c #381912",
"&i 	c #3B1411",
"*i 	c #3C1311",
"=i 	c #370F0C",
"-i 	c #2E0805",
";i 	c #2E1210",
">i 	c #6D6462",
",i 	c #A09B99",
"'i 	c #BAB9B9",
")i 	c #CBCBCF",
"!i 	c #DAD6DE",
"~i 	c #EDE3EB",
"{i 	c #FAE6ED",
"]i 	c #FBD8DA",
"^i 	c #DCACAC",
"/i 	c #B06664",
"(i 	c #B04943",
"_i 	c #C0473E",
":i 	c #CF5144",
"<i 	c #CE5646",
"[i 	c #C96151",
"}i 	c #C47264",
"|i 	c #B8827D",
"1i 	c #AE9599",
"2i 	c #B2ADB7",
"3i 	c #B4BACA",
"4i 	c #B3BFD2",
"5i 	c #ADBBD1",
"6i 	c #AAB9CE",
"7i 	c #ABB9CC",
"8i 	c #ACB7C6",
"9i 	c #B1B8C2",
"0i 	c #BABCC2",
"ai 	c #B9BABA",
"bi 	c #B6B6B4",
"ci 	c #B9BAB9",
"di 	c #D4D6D5",
"ei 	c #F2F4F3",
"fi 	c #F7FBFA",
"gi 	c #F2F8F7",
"hi 	c #E8F0EF",
"ii 	c #DEE8E5",
"ji 	c #D7E2DE",
"ki 	c #D4E1DE",
"li 	c #B9C8C6",
"mi 	c #949494",
"ni 	c #B3B3B3",
"oi 	c #D4D4D6",
"pi 	c #E8E8EA",
"qi 	c #EBEBED",
"ri 	c #D3D3D5",
"si 	c #99989A",
"ti 	c #919093",
"ui 	c #99999D",
"vi 	c #A4A5A9",
"wi 	c #8D9094",
"xi 	c #64686E",
"yi 	c #3B4047",
"zi 	c #192028",
"Ai 	c #12181E",
"Bi 	c #0B1116",
"Ci 	c #040B10",
"Di 	c #040B0F",
"Ei 	c #091014",
"Fi 	c #060E12",
"Gi 	c #030A0F",
"Hi 	c #03090E",
"Ii 	c #040C10",
"Ji 	c #080F13",
"Ki 	c #10161A",
"Li 	c #11171D",
"Mi 	c #131920",
"Ni 	c #090F17",
"Oi 	c #070F17",
"Pi 	c #08121B",
"Qi 	c #1B2833",
"Ri 	c #222F3C",
"Si 	c #243140",
"Ti 	c #263344",
"Ui 	c #3A4558",
"Vi 	c #586277",
"Wi 	c #6B768C",
"Xi 	c #6E798F",
"Yi 	c #4F5A6E",
"Zi 	c #3F4B5D",
"`i 	c #838F9C",
" j 	c #8995A1",
".j 	c #66737E",
"+j 	c #6B7780",
"@j 	c #8A969E",
"#j 	c #AAB8BF",
"$j 	c #9DAAB2",
"%j 	c #48555F",
"&j 	c #5D6975",
"*j 	c #8994A4",
"=j 	c #9DA9BB",
"-j 	c #94A1B3",
";j 	c #667486",
">j 	c #6C7D90",
",j 	c #93A4B8",
"'j 	c #B3C5D9",
")j 	c #A7B8CB",
"!j 	c #758698",
"~j 	c #57687A",
"{j 	c #5E6F7F",
"]j 	c #778898",
"^j 	c #6D7E8E",
"/j 	c #556574",
"(j 	c #3D4C5B",
"_j 	c #435060",
":j 	c #566372",
"<j 	c #606E7B",
"[j 	c #5A6774",
"}j 	c #45515E",
"|j 	c #2B3642",
"1j 	c #121E2A",
"2j 	c #131D28",
"3j 	c #131D29",
"4j 	c #0A121C",
"5j 	c #0B0E14",
"6j 	c #0F0A09",
"7j 	c #1F1108",
"8j 	c #2F1A11",
"9j 	c #361912",
"0j 	c #391511",
"aj 	c #3B1512",
"bj 	c #36110E",
"cj 	c #2C0A05",
"dj 	c #260E08",
"ej 	c #615B58",
"fj 	c #93908D",
"gj 	c #B1B2B1",
"hj 	c #C5C7C9",
"ij 	c #D4D3D9",
"jj 	c #E6DEE5",
"kj 	c #F5E3E9",
"lj 	c #FBDDDE",
"mj 	c #DFB4B2",
"nj 	c #B66E69",
"oj 	c #B64D46",
"pj 	c #C5463D",
"qj 	c #D24B40",
"rj 	c #D14D3E",
"sj 	c #CB5444",
"tj 	c #C05F53",
"uj 	c #A86761",
"vj 	c #957779",
"wj 	c #9B939B",
"xj 	c #A6A8B6",
"yj 	c #ADB4C8",
"zj 	c #ABB7CC",
"Aj 	c #ABB8CD",
"Bj 	c #AEB9CD",
"Cj 	c #AFB8C9",
"Dj 	c #B4B9C5",
"Ej 	c #BEBFC5",
"Fj 	c #C0BEC1",
"Gj 	c #BCB9BB",
"Hj 	c #B5B3B5",
"Ij 	c #CDCDCE",
"Jj 	c #EEEFF0",
"Kj 	c #FAFCFC",
"Lj 	c #FAFDFE",
"Mj 	c #F1F6F8",
"Nj 	c #E0E7E8",
"Oj 	c #D6DEDF",
"Pj 	c #DBE6E8",
"Qj 	c #C9D6D9",
"Rj 	c #A5B4B9",
"Sj 	c #CBCBCC",
"Tj 	c #E1E1E3",
"Uj 	c #E8E7EA",
"Vj 	c #DFDEE1",
"Wj 	c #C2C2C5",
"Xj 	c #A8A8AB",
"Yj 	c #949497",
"Zj 	c #7D7C80",
"`j 	c #7C7C81",
" k 	c #919296",
".k 	c #909398",
"+k 	c #7B8086",
"@k 	c #494D54",
"#k 	c #171D25",
"$k 	c #0B1016",
"%k 	c #0F151A",
"&k 	c #0F151B",
"*k 	c #090E12",
"=k 	c #050B0E",
"-k 	c #060D0F",
";k 	c #0C1114",
">k 	c #080E10",
",k 	c #02080A",
"'k 	c #010608",
")k 	c #040B0D",
"!k 	c #0E1417",
"~k 	c #131A1D",
"{k 	c #0F1519",
"]k 	c #0D1218",
"^k 	c #070C15",
"/k 	c #070F18",
"(k 	c #09121B",
"_k 	c #131F2B",
":k 	c #182533",
"<k 	c #1E2939",
"[k 	c #273345",
"}k 	c #424D61",
"|k 	c #646F84",
"1k 	c #727D93",
"2k 	c #6E7A8F",
"3k 	c #505A6E",
"4k 	c #687483",
"5k 	c #919CA9",
"6k 	c #94A0AA",
"7k 	c #6F7C84",
"8k 	c #8C989F",
"9k 	c #B6C3CA",
"0k 	c #D1DFE5",
"ak 	c #BECCD2",
"bk 	c #88949C",
"ck 	c #6F7A86",
"dk 	c #A0ACBB",
"ek 	c #B2BECE",
"fk 	c #A3B0C0",
"gk 	c #697788",
"hk 	c #6D7E90",
"ik 	c #95A6BA",
"jk 	c #B2C4D7",
"kk 	c #A3B5C7",
"lk 	c #6F8092",
"mk 	c #526375",
"nk 	c #5B6B7C",
"ok 	c #748494",
"pk 	c #546373",
"qk 	c #394757",
"rk 	c #43505F",
"sk 	c #4A5765",
"tk 	c #465360",
"uk 	c #384351",
"vk 	c #242F3C",
"wk 	c #0C1622",
"xk 	c #0F1925",
"yk 	c #121B27",
"zk 	c #0F1924",
"Ak 	c #0B131D",
"Bk 	c #0E0908",
"Ck 	c #1D1009",
"Dk 	c #2C1810",
"Ek 	c #341912",
"Fk 	c #381713",
"Gk 	c #391612",
"Hk 	c #35130E",
"Ik 	c #2C0E08",
"Jk 	c #261009",
"Kk 	c #56504C",
"Lk 	c #86837F",
"Mk 	c #ABADAB",
"Nk 	c #C2C5C6",
"Ok 	c #CED0D4",
"Pk 	c #DEDADF",
"Qk 	c #EEE2E5",
"Rk 	c #FAE5E4",
"Sk 	c #E2BFBB",
"Tk 	c #BC7871",
"Uk 	c #BA524A",
"Vk 	c #C7453C",
"Wk 	c #D64A3F",
"Xk 	c #D84D3E",
"Yk 	c #D25343",
"Zk 	c #C3594C",
"`k 	c #9F524A",
" l 	c #7A5657",
".l 	c #7F7379",
"+l 	c #8F8E9A",
"@l 	c #9CA2B3",
"#l 	c #A2ABBF",
"$l 	c #A7B2C7",
"%l 	c #AEB9CC",
"&l 	c #B1B9CB",
"*l 	c #B7BBC9",
"=l 	c #BFBFC8",
"-l 	c #C1BEC3",
";l 	c #BDB9BD",
">l 	c #B6B2B6",
",l 	c #CAC8CB",
"'l 	c #F8F8F9",
")l 	c #FCFDFF",
"!l 	c #F7F9FC",
"~l 	c #E9ECEF",
"{l 	c #DFE3E7",
"]l 	c #E1E7ED",
"^l 	c #D6DFE6",
"/l 	c #C1CDD6",
"(l 	c #9EA7B0",
"_l 	c #979799",
":l 	c #C3C3C4",
"<l 	c #DBDADD",
"[l 	c #E0E0E4",
"}l 	c #DBDBDF",
"|l 	c #CCCCD0",
"1l 	c #B2B1B6",
"2l 	c #A7A7AB",
"3l 	c #A4A4A8",
"4l 	c #818085",
"5l 	c #66656B",
"6l 	c #717277",
"7l 	c #888A90",
"8l 	c #878A91",
"9l 	c #53565D",
"0l 	c #1E222A",
"al 	c #0A0E15",
"bl 	c #090E13",
"cl 	c #0A0F13",
"dl 	c #060C0D",
"el 	c #080E0F",
"fl 	c #0C1011",
"gl 	c #070B0C",
"hl 	c #010404",
"il 	c #000304",
"jl 	c #050B0B",
"kl 	c #0A0F10",
"ll 	c #0F1315",
"ml 	c #111619",
"nl 	c #0C1115",
"ol 	c #0A0E13",
"pl 	c #0E1319",
"ql 	c #0B1017",
"rl 	c #070B14",
"sl 	c #0A101A",
"tl 	c #0E1620",
"ul 	c #131C27",
"vl 	c #1A2532",
"wl 	c #222D3B",
"xl 	c #293242",
"yl 	c #293446",
"zl 	c #3A4357",
"Al 	c #555E74",
"Bl 	c #5F697F",
"Cl 	c #5B667B",
"Dl 	c #475064",
"El 	c #4C5666",
"Fl 	c #66717F",
"Gl 	c #7B8591",
"Hl 	c #7C8790",
"Il 	c #727E85",
"Jl 	c #A7B2B7",
"Kl 	c #D2DDE2",
"Ll 	c #DFECF0",
"Ml 	c #CAD7DB",
"Nl 	c #9BA6AC",
"Ol 	c #6D7980",
"Pl 	c #707B86",
"Ql 	c #97A2AE",
"Rl 	c #A4AFBE",
"Sl 	c #95A1B1",
"Tl 	c #62707F",
"Ul 	c #576778",
"Vl 	c #738496",
"Wl 	c #90A1B3",
"Xl 	c #8A9BAD",
"Yl 	c #67788A",
"Zl 	c #4C5C6E",
"`l 	c #475668",
" m 	c #4C5A6A",
".m 	c #3A4858",
"+m 	c #2C3948",
"@m 	c #2B3747",
"#m 	c #323E4E",
"$m 	c #374351",
"%m 	c #36414F",
"&m 	c #2F3947",
"*m 	c #212B38",
"=m 	c #0E1723",
"-m 	c #111925",
";m 	c #151D28",
">m 	c #0F1620",
",m 	c #0E0909",
"'m 	c #1B0F09",
")m 	c #29160F",
"!m 	c #321813",
"~m 	c #371814",
"{m 	c #371612",
"]m 	c #35150F",
"^m 	c #2E130A",
"/m 	c #261108",
"(m 	c #48413B",
"_m 	c #75716C",
":m 	c #A3A4A1",
"<m 	c #BDC0BF",
"[m 	c #C7CBCE",
"}m 	c #D4D4D7",
"|m 	c #E6E0E0",
"1m 	c #F8ECE8",
"2m 	c #E6CBC4",
"3m 	c #C4867C",
"4m 	c #BB594F",
"5m 	c #C64439",
"6m 	c #D7493C",
"7m 	c #DD4C3D",
"8m 	c #D85141",
"9m 	c #C65446",
"0m 	c #9A463C",
"am 	c #69403F",
"bm 	c #67585C",
"cm 	c #76737C",
"dm 	c #858997",
"em 	c #8E97A9",
"fm 	c #9AA5B8",
"gm 	c #A6B1C4",
"hm 	c #AEB6C8",
"im 	c #B5BAC9",
"jm 	c #BEBDC8",
"km 	c #BFBCC4",
"lm 	c #BCB7BD",
"mm 	c #B8B3B9",
"nm 	c #C7C2C8",
"om 	c #E0DCE2",
"pm 	c #F5F3F6",
"qm 	c #FCFAFE",
"rm 	c #FAF8FC",
"sm 	c #F4F4F7",
"tm 	c #E9EAF2",
"um 	c #E0E3EF",
"vm 	c #D4D8E5",
"wm 	c #AEB2BE",
"xm 	c #B9B9BB",
"ym 	c #CBCBCD",
"zm 	c #D7D7DA",
"Am 	c #D1D0D5",
"Bm 	c #BFBEC3",
"Cm 	c #A5A4A9",
"Dm 	c #A6A5AB",
"Em 	c #B1B0B5",
"Fm 	c #8A898E",
"Gm 	c #5B5B61",
"Hm 	c #535459",
"Im 	c #717279",
"Jm 	c #797B83",
"Km 	c #51545C",
"Lm 	c #292C34",
"Mm 	c #11141A",
"Nm 	c #060A0F",
"Om 	c #060A0E",
"Pm 	c #060B0D",
"Qm 	c #070C0D",
"Rm 	c #080D0D",
"Sm 	c #080C0C",
"Tm 	c #040707",
"Um 	c #000302",
"Vm 	c #000403",
"Wm 	c #030707",
"Xm 	c #070C0C",
"Ym 	c #0D1211",
"Zm 	c #101415",
"`m 	c #0C0F13",
" n 	c #0C1016",
".n 	c #0E131E",
"+n 	c #111722",
"@n 	c #161E29",
"#n 	c #242D39",
"$n 	c #353E4C",
"%n 	c #434B5C",
"&n 	c #3D4456",
"*n 	c #394155",
"=n 	c #495066",
"-n 	c #555C73",
";n 	c #575F75",
">n 	c #495064",
",n 	c #444D5D",
"'n 	c #4F5966",
")n 	c #5D6671",
"!n 	c #707A82",
"~n 	c #8B959A",
"{n 	c #B6C0C4",
"]n 	c #D3DEE1",
"^n 	c #D9E5E7",
"/n 	c #CEDADD",
"(n 	c #B5BFC3",
"_n 	c #8F999F",
":n 	c #78828A",
"<n 	c #7E8792",
"[n 	c #8C96A3",
"}n 	c #8A96A4",
"|n 	c #6D7A89",
"1n 	c #556474",
"2n 	c #79899B",
"3n 	c #8494A6",
"4n 	c #7A8A9B",
"5n 	c #5C6B7C",
"6n 	c #415061",
"7n 	c #404F5F",
"8n 	c #2F3C4C",
"9n 	c #243040",
"0n 	c #222E3D",
"an 	c #273342",
"bn 	c #2C3745",
"cn 	c #19222D",
"dn 	c #131923",
"en 	c #0C0F14",
"fn 	c #0F0A0B",
"gn 	c #1A0D09",
"hn 	c #26140D",
"in 	c #301712",
"jn 	c #361814",
"kn 	c #361712",
"ln 	c #351710",
"mn 	c #31160D",
"nn 	c #271207",
"on 	c #3A3029",
"pn 	c #645E59",
"qn 	c #9A9895",
"rn 	c #B7B8B8",
"sn 	c #C2C5C8",
"tn 	c #CDD0D1",
"un 	c #E0DEDC",
"vn 	c #F7EFE7",
"wn 	c #EBD3C9",
"xn 	c #CC9689",
"yn 	c #BA6155",
"zn 	c #C14134",
"An 	c #D7483A",
"Bn 	c #DE4C3B",
"Cn 	c #DA503E",
"Dn 	c #C85242",
"En 	c #9E4639",
"Fn 	c #6A3C36",
"Gn 	c #5C494A",
"Hn 	c #625E64",
"In 	c #6E717D",
"Jn 	c #787F90",
"Kn 	c #8690A3",
"Ln 	c #96A1B4",
"Mn 	c #A3ABBE",
"Nn 	c #AEB3C3",
"On 	c #B7B7C4",
"Pn 	c #BAB7C0",
"Qn 	c #BAB5BD",
"Rn 	c #BBB6BE",
"Sn 	c #C3BEC5",
"Tn 	c #D4CED5",
"Un 	c #F0ECF1",
"Vn 	c #FFFBFF",
"Wn 	c #FEFAFF",
"Xn 	c #FFFCFF",
"Yn 	c #FCF9FD",
"Zn 	c #F0EDF5",
"`n 	c #E4E2EF",
" o 	c #D6D6E4",
".o 	c #BBBCC9",
"+o 	c #A0A2AD",
"@o 	c #B2B2B4",
"#o 	c #CCCCCE",
"$o 	c #D2D1D5",
"%o 	c #CCCBD0",
"&o 	c #BAB9BE",
"*o 	c #9C9BA0",
"=o 	c #9F9EA4",
"-o 	c #AEADB3",
";o 	c #8A898F",
">o 	c #58575E",
",o 	c #3D3C43",
"'o 	c #505059",
")o 	c #5C5C66",
"!o 	c #474851",
"~o 	c #2E3039",
"{o 	c #16181F",
"]o 	c #060A10",
"^o 	c #03060B",
"/o 	c #070A0D",
"(o 	c #070B0A",
"_o 	c #040807",
":o 	c #030603",
"<o 	c #020502",
"[o 	c #020604",
"}o 	c #050908",
"|o 	c #0B0F0E",
"1o 	c #121614",
"2o 	c #141717",
"3o 	c #111416",
"4o 	c #0E1114",
"5o 	c #0C0E14",
"6o 	c #0D0F16",
"7o 	c #0B0E16",
"8o 	c #0D0F19",
"9o 	c #131722",
"0o 	c #1A1E29",
"ao 	c #232833",
"bo 	c #303743",
"co 	c #444B5A",
"do 	c #545B6C",
"eo 	c #495062",
"fo 	c #3B4255",
"go 	c #43495E",
"ho 	c #565C71",
"io 	c #62687D",
"jo 	c #595F72",
"ko 	c #464C5C",
"lo 	c #353C48",
"mo 	c #4F5760",
"no 	c #7B838A",
"oo 	c #A5ADB2",
"po 	c #BAC3C6",
"qo 	c #C4CED0",
"ro 	c #CAD4D5",
"so 	c #D1DBDC",
"to 	c #D0DADC",
"uo 	c #B2BBBE",
"vo 	c #889096",
"wo 	c #616A72",
"xo 	c #757F89",
"yo 	c #86909D",
"zo 	c #7B8796",
"Ao 	c #5E6C7B",
"Bo 	c #4E5D6D",
"Co 	c #748394",
"Do 	c #8B9BAC",
"Eo 	c #8E9EAE",
"Fo 	c #6B7A89",
"Go 	c #3E4C5B",
"Ho 	c #3E4A5A",
"Io 	c #394554",
"Jo 	c #293442",
"Ko 	c #202C3A",
"Lo 	c #232E3B",
"Mo 	c #293440",
"No 	c #2C3642",
"Oo 	c #242D38",
"Po 	c #1C242E",
"Qo 	c #1D252F",
"Ro 	c #1E262F",
"So 	c #161B24",
"To 	c #111318",
"Uo 	c #110D0E",
"Vo 	c #180D09",
"Wo 	c #23110B",
"Xo 	c #2E1611",
"Yo 	c #351814",
"Zo 	c #351712",
"`o 	c #351811",
" p 	c #33180F",
".p 	c #291207",
"+p 	c #2F1F17",
"@p 	c #544B47",
"#p 	c #8F8988",
"$p 	c #AFACAD",
"%p 	c #BCBFC1",
"&p 	c #C8CBCC",
"*p 	c #DADBD7",
"=p 	c #F1ECE2",
"-p 	c #ECD8CA",
";p 	c #D2A596",
">p 	c #B76A5B",
",p 	c #BB3E2E",
"'p 	c #D44838",
")p 	c #DC4B38",
"!p 	c #D94F3B",
"~p 	c #CB5341",
"{p 	c #A54C3D",
"]p 	c #75433A",
"^p 	c #5D4543",
"/p 	c #575056",
"(p 	c #5D5D69",
"_p 	c #626879",
":p 	c #6F788B",
"<p 	c #818B9F",
"[p 	c #919AAD",
"}p 	c #9FA5B6",
"|p 	c #ACADBA",
"1p 	c #B2B1BB",
"2p 	c #B6B3BD",
"3p 	c #BDB9C2",
"4p 	c #BEB9C2",
"5p 	c #C6C1C8",
"6p 	c #EAE5EB",
"7p 	c #FFF9FF",
"8p 	c #FFFAFF",
"9p 	c #FEFAFD",
"0p 	c #FBF7FB",
"ap 	c #F5F0F8",
"bp 	c #EAE6F0",
"cp 	c #D9D8E3",
"dp 	c #C6C5D1",
"ep 	c #AEAEB8",
"fp 	c #848389",
"gp 	c #B7B7B8",
"hp 	c #E4E4E5",
"ip 	c #D3D3D4",
"jp 	c #C3C3C6",
"kp 	c #CECDD3",
"lp 	c #BBBAC0",
"mp 	c #97969D",
"np 	c #8A8990",
"op 	c #8F8E95",
"pp 	c #74737A",
"qp 	c #525158",
"rp 	c #3B3A42",
"sp 	c #3C3C45",
"tp 	c #40404A",
"up 	c #363640",
"vp 	c #272830",
"wp 	c #15161E",
"xp 	c #07090B",
"yp 	c #080A0A",
"zp 	c #070A09",
"Ap 	c #060806",
"Bp 	c #060905",
"Cp 	c #070A05",
"Dp 	c #070906",
"Ep 	c #0A0D0A",
"Fp 	c #101311",
"Gp 	c #181A19",
"Hp 	c #191B1B",
"Ip 	c #141617",
"Jp 	c #131418",
"Kp 	c #121319",
"Lp 	c #11121C",
"Mp 	c #181A25",
"Np 	c #292C37",
"Op 	c #383C48",
"Pp 	c #3E4451",
"Qp 	c #494F5E",
"Rp 	c #535969",
"Sp 	c #464C5D",
"Tp 	c #373D50",
"Up 	c #41465A",
"Vp 	c #5E6377",
"Wp 	c #73798C",
"Xp 	c #727889",
"Yp 	c #5E6472",
"Zp 	c #474C57",
"`p 	c #6F757C",
" q 	c #979FA4",
".q 	c #B3BBBE",
"+q 	c #B2BBBC",
"@q 	c #AFB8B7",
"#q 	c #BDC7C5",
"$q 	c #D8E1E0",
"%q 	c #E7EFF0",
"&q 	c #CFD7D9",
"*q 	c #A0A8AB",
"=q 	c #636A70",
"-q 	c #727B83",
";q 	c #87919B",
">q 	c #7D8997",
",q 	c #626F7D",
"'q 	c #556372",
")q 	c #7E8B9C",
"!q 	c #94A1B2",
"~q 	c #93A1B1",
"{q 	c #6C7988",
"]q 	c #435160",
"^q 	c #455160",
"/q 	c #4C5867",
"(q 	c #4A5664",
"_q 	c #333D4A",
":q 	c #212C38",
"<q 	c #212B37",
"[q 	c #29323D",
"}q 	c #2C3540",
"|q 	c #232B35",
"1q 	c #1F2630",
"2q 	c #202731",
"3q 	c #202730",
"4q 	c #1E252E",
"5q 	c #191E28",
"6q 	c #151822",
"7q 	c #131419",
"8q 	c #130F0F",
"9q 	c #180C09",
"0q 	c #200F0A",
"aq 	c #2C1511",
"bq 	c #331814",
"cq 	c #351812",
"dq 	c #361911",
"eq 	c #34180E",
"fq 	c #2C1208",
"gq 	c #2A1109",
"hq 	c #4A3B39",
"iq 	c #837777",
"jq 	c #A49D9F",
"kq 	c #B7B6BA",
"lq 	c #C3C6C7",
"mq 	c #D2D6D1",
"nq 	c #E4E5D9",
"oq 	c #E6D9C8",
"pq 	c #D6B4A1",
"qq 	c #B47462",
"rq 	c #B33E29",
"sq 	c #CE4935",
"tq 	c #D64A34",
"uq 	c #D64E38",
"vq 	c #CC5542",
"wq 	c #AC5242",
"xq 	c #7F4A40",
"yq 	c #614542",
"zq 	c #554A50",
"Aq 	c #565460",
"Bq 	c #565B6C",
"Cq 	c #5D6679",
"Dq 	c #6A7489",
"Eq 	c #798498",
"Fq 	c #8A92A4",
"Gq 	c #9B9EAD",
"Hq 	c #A8A9B5",
"Iq 	c #B3B2BD",
"Jq 	c #BBB9C3",
"Kq 	c #B8B5BF",
"Lq 	c #BBB7BF",
"Mq 	c #E3DEE5",
"Nq 	c #FBF6FB",
"Oq 	c #FEFAFE",
"Pq 	c #F8F4F7",
"Qq 	c #F4F0F3",
"Rq 	c #FAF6FA",
"Sq 	c #F9F7FC",
"Tq 	c #ECEBF2",
"Uq 	c #CDCCD4",
"Vq 	c #B4B4BB",
"Wq 	c #9A9A99",
"Xq 	c #EDEDEF",
"Yq 	c #C5C4C9",
"Zq 	c #C4C3C9",
"`q 	c #B5B4BA",
" r 	c #99989F",
".r 	c #818088",
"+r 	c #727179",
"@r 	c #5E5D65",
"#r 	c #504F57",
"$r 	c #4E4C55",
"%r 	c #403F49",
"&r 	c #2E2E38",
"*r 	c #24242E",
"=r 	c #101018",
"-r 	c #0B0C11",
";r 	c #08090D",
">r 	c #060709",
",r 	c #060807",
"'r 	c #070907",
")r 	c #090C08",
"!r 	c #0B0D08",
"~r 	c #0A0C08",
"{r 	c #0D0F0B",
"]r 	c #131512",
"^r 	c #1B1D1B",
"/r 	c #1B1D1C",
"(r 	c #161719",
"_r 	c #17181C",
":r 	c #15151D",
"<r 	c #12121B",
"[r 	c #13141E",
"}r 	c #1A1B27",
"|r 	c #292B37",
"1r 	c #363A45",
"2r 	c #3A3F4B",
"3r 	c #404553",
"4r 	c #454B5A",
"5r 	c #393E4F",
"6r 	c #2C3145",
"7r 	c #373B4F",
"8r 	c #53576B",
"9r 	c #696D80",
"0r 	c #6D7283",
"ar 	c #646977",
"br 	c #616670",
"cr 	c #90949B",
"dr 	c #ACB1B6",
"er 	c #B0B7B9",
"fr 	c #A7AEAE",
"gr 	c #A3ABA8",
"hr 	c #B7BFBC",
"ir 	c #D8DFDD",
"jr 	c #EEF5F3",
"kr 	c #E1E8E7",
"lr 	c #BCC2C3",
"mr 	c #84898D",
"nr 	c #7B8288",
"or 	c #7F8891",
"pr 	c #727D89",
"qr 	c #5B6775",
"rr 	c #556272",
"sr 	c #7A8797",
"tr 	c #8B97A7",
"ur 	c #8592A1",
"vr 	c #606B7A",
"wr 	c #394655",
"xr 	c #3F4A58",
"yr 	c #475260",
"zr 	c #46505D",
"Ar 	c #2F3944",
"Br 	c #1E2733",
"Cr 	c #1D2632",
"Dr 	c #262E39",
"Er 	c #28303A",
"Fr 	c #242C36",
"Gr 	c #1E252F",
"Hr 	c #1C222C",
"Ir 	c #1F252E",
"Jr 	c #1E242D",
"Kr 	c #1A1F28",
"Lr 	c #11141C",
"Mr 	c #131217",
"Nr 	c #150F10",
"Or 	c #180C0A",
"Pr 	c #1E0C09",
"Qr 	c #29120E",
"Rr 	c #311712",
"Sr 	c #361810",
"Tr 	c #35170D",
"Ur 	c #2F1208",
"Vr 	c #2A0902",
"Wr 	c #412C2C",
"Xr 	c #756364",
"Yr 	c #988C8F",
"Zr 	c #AFABB0",
"`r 	c #BCBFC0",
" s 	c #C7CFC9",
".s 	c #D4DCCE",
"+s 	c #DED9C5",
"@s 	c #DAC1AA",
"#s 	c #B57F6B",
"$s 	c #AD4229",
"%s 	c #C54830",
"&s 	c #CE482E",
"*s 	c #D14E35",
"=s 	c #CB5741",
"-s 	c #AD5342",
";s 	c #81493E",
">s 	c #62423E",
",s 	c #56484E",
"'s 	c #58535F",
")s 	c #545668",
"!s 	c #535B70",
"~s 	c #586279",
"{s 	c #636E84",
"]s 	c #747C90",
"^s 	c #878B9C",
"/s 	c #9A9DAB",
"(s 	c #A9ABB7",
"_s 	c #B2B2BD",
":s 	c #B1B0BA",
"<s 	c #B4B2BB",
"[s 	c #D4D1D7",
"}s 	c #EEECEF",
"|s 	c #FCFAFC",
"1s 	c #F8F5F6",
"2s 	c #F5F1F2",
"3s 	c #FDFBFB",
"4s 	c #FFFFFF",
"5s 	c #F7F7FA",
"6s 	c #DBDCE0",
"7s 	c #CCCDD0",
"8s 	c #CBCCCD",
"9s 	c #B0B1B1",
"0s 	c #BCBCBA",
"as 	c #DBDBDB",
"bs 	c #F1F1F3",
"cs 	c #D6D6D8",
"ds 	c #B4B4B7",
"es 	c #ADACB2",
"fs 	c #A8A7AD",
"gs 	c #A1A0A7",
"hs 	c #8B8A92",
"is 	c #68676F",
"js 	c #515058",
"ks 	c #52515A",
"ls 	c #605E69",
"ms 	c #4E4C57",
"ns 	c #2B2B36",
"os 	c #171721",
"ps 	c #090912",
"qs 	c #080810",
"rs 	c #0C0D10",
"ss 	c #040605",
"ts 	c #0D0F0A",
"us 	c #0D0F09",
"vs 	c #0B0E07",
"ws 	c #0B0D07",
"xs 	c #131510",
"ys 	c #1B1D1A",
"zs 	c #161718",
"As 	c #1B1C1F",
"Bs 	c #181920",
"Cs 	c #14141D",
"Ds 	c #14141F",
"Es 	c #1A1A26",
"Fs 	c #20212D",
"Gs 	c #252733",
"Hs 	c #2A2D39",
"Is 	c #373A47",
"Js 	c #484A58",
"Ks 	c #545664",
"Ls 	c #585A69",
"Ms 	c #545565",
"Ns 	c #525466",
"Os 	c #56596A",
"Ps 	c #5F6171",
"Qs 	c #6B6D7B",
"Rs 	c #80838D",
"Ss 	c #A9ACB3",
"Ts 	c #B6BABE",
"Us 	c #A4A9AA",
"Vs 	c #9EA3A1",
"Ws 	c #A6ABA7",
"Xs 	c #B8BDB9",
"Ys 	c #D4D9D5",
"Zs 	c #EBF0EC",
"`s 	c #EBF1EE",
" t 	c #D8DDDC",
".t 	c #B1B5B7",
"+t 	c #93989C",
"@t 	c #7B8289",
"#t 	c #6A737D",
"$t 	c #5B6673",
"%t 	c #5C6877",
"&t 	c #748090",
"*t 	c #7C8897",
"=t 	c #56616E",
"-t 	c #3B4552",
";t 	c #37414D",
">t 	c #353F4B",
",t 	c #303945",
"'t 	c #222A35",
")t 	c #161A23",
"!t 	c #191D26",
"~t 	c #171B24",
"{t 	c #131720",
"]t 	c #0D1019",
"^t 	c #0C0E15",
"/t 	c #160E0F",
"(t 	c #190C0A",
"_t 	c #1C0B07",
":t 	c #260F0B",
"<t 	c #2F1410",
"[t 	c #371710",
"}t 	c #35140B",
"|t 	c #321108",
"1t 	c #2D0801",
"2t 	c #3B2121",
"3t 	c #664E51",
"4t 	c #8A797E",
"5t 	c #A49FA4",
"6t 	c #B3B6B7",
"7t 	c #BBC6C0",
"8t 	c #C3D2C2",
"9t 	c #D6D9C1",
"0t 	c #DDCCB2",
"at 	c #BB8C74",
"bt 	c #AC4C30",
"ct 	c #BB462B",
"dt 	c #C44528",
"et 	c #CA4C30",
"ft 	c #C7563E",
"gt 	c #AA503E",
"ht 	c #804439",
"it 	c #623C39",
"jt 	c #59464D",
"kt 	c #5E5362",
"lt 	c #59566B",
"mt 	c #52576F",
"nt 	c #4F5871",
"ot 	c #535D76",
"pt 	c #5F687E",
"qt 	c #71778A",
"rt 	c #878B9A",
"st 	c #989BA8",
"tt 	c #A1A3AF",
"ut 	c #A7A8B3",
"vt 	c #B0B0B7",
"wt 	c #C0C0C4",
"xt 	c #DBDCDD",
"yt 	c #F8F9F8",
"zt 	c #FCFBF9",
"At 	c #FAF9F5",
"Bt 	c #FDFDF9",
"Ct 	c #FDFFFC",
"Dt 	c #F8FBFB",
"Et 	c #EBEFEF",
"Ft 	c #E8EBEB",
"Gt 	c #E8EAEA",
"Ht 	c #C2C4C3",
"It 	c #949493",
"Jt 	c #CBCBC9",
"Kt 	c #E8E8E7",
"Lt 	c #F4F4F6",
"Mt 	c #DEDEE0",
"Nt 	c #BBBBBE",
"Ot 	c #A1A1A6",
"Pt 	c #95949A",
"Qt 	c #ACABB3",
"Rt 	c #9F9EA5",
"St 	c #54525B",
"Tt 	c #52505B",
"Ut 	c #62606B",
"Vt 	c #4F4E58",
"Wt 	c #2A2A35",
"Xt 	c #14141E",
"Yt 	c #070710",
"Zt 	c #090911",
"`t 	c #0F1015",
" u 	c #0F1013",
".u 	c #080A06",
"+u 	c #0C0F09",
"@u 	c #0B0E06",
"#u 	c #080B03",
"$u 	c #090C05",
"%u 	c #11130E",
"&u 	c #191B18",
"*u 	c #191B19",
"=u 	c #141616",
"-u 	c #212226",
";u 	c #1A1A21",
">u 	c #12121C",
",u 	c #161621",
"'u 	c #22232E",
")u 	c #2F313D",
"!u 	c #535461",
"~u 	c #7D7C8B",
"{u 	c #A4A5B4",
"]u 	c #B4B5C5",
"^u 	c #A4A4B5",
"/u 	c #8F8FA0",
"(u 	c #7D7E8F",
"_u 	c #7D7D8D",
":u 	c #8F909C",
"<u 	c #A6A9B2",
"[u 	c #B7B9BF",
"}u 	c #B6B8BB",
"|u 	c #A3A7A7",
"1u 	c #A5A8A5",
"2u 	c #B0B4AF",
"3u 	c #BBBFBA",
"4u 	c #D2D7D2",
"5u 	c #EBEEE9",
"6u 	c #F4F7F4",
"7u 	c #F2F5F4",
"8u 	c #E3E5E6",
"9u 	c #BFC2C5",
"0u 	c #9AA0A6",
"au 	c #8C949E",
"bu 	c #818B98",
"cu 	c #7E8A98",
"du 	c #8994A3",
"eu 	c #85909C",
"fu 	c #757F8B",
"gu 	c #616B76",
"hu 	c #4F5863",
"iu 	c #3B434E",
"ju 	c #28303C",
"ku 	c #161D27",
"lu 	c #191E27",
"mu 	c #12161E",
"nu 	c #11151C",
"ou 	c #10131B",
"pu 	c #0E1119",
"qu 	c #0C0E16",
"ru 	c #100D12",
"su 	c #170F10",
"tu 	c #1C0905",
"uu 	c #240C08",
"vu 	c #2E120E",
"wu 	c #371813",
"xu 	c #38160F",
"yu 	c #351109",
"zu 	c #361009",
"Au 	c #320804",
"Bu 	c #381719",
"Cu 	c #593A3F",
"Du 	c #7C686D",
"Eu 	c #999196",
"Fu 	c #A7ABAB",
"Gu 	c #AFBDB5",
"Hu 	c #B7CBB9",
"Iu 	c #CFD9BF",
"Ju 	c #DDD5B6",
"Ku 	c #C49C7E",
"Lu 	c #B05E3E",
"Mu 	c #AF4527",
"Nu 	c #BA4221",
"Ou 	c #C24B2C",
"Pu 	c #C15338",
"Qu 	c #A84F3C",
"Ru 	c #83443A",
"Su 	c #633837",
"Tu 	c #59404B",
"Uu 	c #5F4F61",
"Vu 	c #5B546B",
"Wu 	c #54556F",
"Xu 	c #4E536F",
"Yu 	c #4B5470",
"Zu 	c #4F5971",
"`u 	c #5A6176",
" v 	c #6A7081",
".v 	c #7A808E",
"+v 	c #868C97",
"@v 	c #959BA3",
"#v 	c #A4ABAE",
"$v 	c #AFB5B6",
"%v 	c #CDD3D0",
"&v 	c #F1F7F2",
"*v 	c #FAFEF9",
"=v 	c #FAFDF6",
"-v 	c #F8FEF4",
";v 	c #F5FDF3",
">v 	c #F2FBF4",
",v 	c #F1F9F5",
"'v 	c #F5FAF8",
")v 	c #F4F7F5",
"!v 	c #D7D8D7",
"~v 	c #B5B5B5",
"{v 	c #B0AFAA",
"]v 	c #B7B7B4",
"^v 	c #C3C3C1",
"/v 	c #DEDFDD",
"(v 	c #F1F1F1",
"_v 	c #F6F6F8",
":v 	c #D0D0D2",
"<v 	c #A4A3A8",
"[v 	c #89888F",
"}v 	c #919097",
"|v 	c #B3B2BB",
"1v 	c #AAA9B2",
"2v 	c #7B7A84",
"3v 	c #56555F",
"4v 	c #4A4954",
"5v 	c #575661",
"6v 	c #45454F",
"7v 	c #262632",
"8v 	c #1B1D26",
"9v 	c #16171F",
"0v 	c #14141B",
"av 	c #101114",
"bv 	c #0C0E0E",
"cv 	c #0A0C0A",
"dv 	c #080B06",
"ev 	c #060902",
"fv 	c #040701",
"gv 	c #080C05",
"hv 	c #0D100B",
"iv 	c #161815",
"jv 	c #161816",
"kv 	c #111313",
"lv 	c #1E1F22",
"mv 	c #222328",
"nv 	c #13131C",
"ov 	c #0F0F19",
"pv 	c #10101C",
"qv 	c #13131F",
"rv 	c #1C1C27",
"sv 	c #2B2D37",
"tv 	c #545561",
"uv 	c #838391",
"vv 	c #B6B6C6",
"wv 	c #CACBDB",
"xv 	c #B8B7C8",
"yv 	c #A3A2B3",
"zv 	c #9494A5",
"Av 	c #9594A2",
"Bv 	c #A2A3AE",
"Cv 	c #B2B4BC",
"Dv 	c #B5B6BB",
"Ev 	c #AFB0B3",
"Fv 	c #A4A7A6",
"Gv 	c #A5A8A4",
"Hv 	c #ACAEA9",
"Iv 	c #B3B7B1",
"Jv 	c #CDD0CA",
"Kv 	c #E8EAE5",
"Lv 	c #F7F9F5",
"Mv 	c #FDFFFD",
"Nv 	c #F9FBF9",
"Ov 	c #E1E4E4",
"Pv 	c #C9CDD1",
"Qv 	c #C2C8CD",
"Rv 	c #BBC2CB",
"Sv 	c #B5BEC9",
"Tv 	c #B6BECB",
"Uv 	c #B3BCC8",
"Vv 	c #AEB7C2",
"Wv 	c #A6AFBA",
"Xv 	c #99A1AC",
"Yv 	c #848A94",
"Zv 	c #626771",
"`v 	c #383E48",
" w 	c #20252F",
".w 	c #141B24",
"+w 	c #151B24",
"@w 	c #131820",
"#w 	c #11151E",
"$w 	c #10141C",
"%w 	c #0F131A",
"&w 	c #0D1017",
"*w 	c #0B0D14",
"=w 	c #0D0E15",
"-w 	c #111118",
";w 	c #120F13",
">w 	c #1A0F0C",
",w 	c #1A0904",
"'w 	c #210A06",
")w 	c #2D110D",
"!w 	c #381813",
"~w 	c #37150F",
"{w 	c #350F07",
"]w 	c #39100A",
"^w 	c #360A07",
"/w 	c #370F12",
"(w 	c #4E2A2F",
"_w 	c #70595E",
":w 	c #8F8589",
"<w 	c #9E9F9F",
"[w 	c #A6B3AC",
"}w 	c #AFC5B3",
"|w 	c #CBDABF",
"1w 	c #DEDBBC",
"2w 	c #CDAA8B",
"3w 	c #B57051",
"4w 	c #A44627",
"5w 	c #B13F1D",
"6w 	c #BC4929",
"7w 	c #BB4E33",
"8w 	c #AC503E",
"9w 	c #914A40",
"0w 	c #6B3736",
"aw 	c #583945",
"bw 	c #5B495B",
"cw 	c #585066",
"dw 	c #53536D",
"ew 	c #4F5470",
"fw 	c #4A526E",
"gw 	c #465069",
"hw 	c #444C61",
"iw 	c #4B5263",
"jw 	c #575E6C",
"kw 	c #67707A",
"lw 	c #7C868B",
"mw 	c #949D9F",
"nw 	c #ACB4B4",
"ow 	c #CCD5D1",
"pw 	c #EDF6EF",
"qw 	c #F7FEF7",
"rw 	c #F8FDF5",
"sw 	c #F6FEF3",
"tw 	c #F2FDF1",
"uw 	c #F0FCF2",
"vw 	c #F5FEF8",
"ww 	c #F8FFFB",
"xw 	c #F8FBF9",
"yw 	c #E9EBE9",
"zw 	c #86837B",
"Aw 	c #A5A29A",
"Bw 	c #C2BFB9",
"Cw 	c #DCDAD5",
"Dw 	c #ECEBE7",
"Ew 	c #F4F4F1",
"Fw 	c #F5F7F5",
"Gw 	c #F5F7F7",
"Hw 	c #F6F7F8",
"Iw 	c #F8F9FA",
"Jw 	c #E8E9EA",
"Kw 	c #B6B6BC",
"Lw 	c #909099",
"Mw 	c #8F8D98",
"Nw 	c #AEAEB9",
"Ow 	c #A7A7B3",
"Pw 	c #7B7C89",
"Qw 	c #575A66",
"Rw 	c #424551",
"Sw 	c #40434F",
"Tw 	c #30323D",
"Uw 	c #1E202B",
"Vw 	c #23262F",
"Ww 	c #23252D",
"Xw 	c #1E1E26",
"Yw 	c #14161C",
"Zw 	c #0F1113",
"`w 	c #0C0F0F",
" x 	c #080B0A",
".x 	c #030503",
"+x 	c #010301",
"@x 	c #010401",
"#x 	c #040601",
"$x 	c #050804",
"%x 	c #090D0A",
"&x 	c #131614",
"*x 	c #131615",
"=x 	c #0F1213",
"-x 	c #1D1F23",
";x 	c #232429",
">x 	c #191B22",
",x 	c #11131B",
"'x 	c #0D0D17",
")x 	c #0D0D18",
"!x 	c #0B0B17",
"~x 	c #090914",
"{x 	c #0D0E18",
"]x 	c #2F2F39",
"^x 	c #595865",
"/x 	c #92919F",
"(x 	c #AAAAB8",
"_x 	c #9D9CAB",
":x 	c #9695A3",
"<x 	c #9796A4",
"[x 	c #9D9DA8",
"}x 	c #A3A3AB",
"|x 	c #A5A6AC",
"1x 	c #A4A6A9",
"2x 	c #A3A5A3",
"3x 	c #9B9D99",
"4x 	c #959892",
"5x 	c #E2E4DE",
"6x 	c #F4F6F1",
"7x 	c #FAFCF7",
"8x 	c #F8F9F4",
"9x 	c #F6F7F5",
"0x 	c #F2F5F6",
"ax 	c #EDF3F6",
"bx 	c #E8EEF5",
"cx 	c #E2E8F3",
"dx 	c #DCE2ED",
"ex 	c #D5DCE6",
"fx 	c #D2D9E3",
"gx 	c #C7CDD8",
"hx 	c #AFB3BE",
"ix 	c #848791",
"jx 	c #4C5058",
"kx 	c #252830",
"lx 	c #10151D",
"mx 	c #161B22",
"nx 	c #10151B",
"ox 	c #0D1118",
"px 	c #0F1219",
"qx 	c #101319",
"rx 	c #090A11",
"sx 	c #0A0A11",
"tx 	c #100F15",
"ux 	c #16151B",
"vx 	c #16151A",
"wx 	c #151215",
"xx 	c #181412",
"yx 	c #18120C",
"zx 	c #160B03",
"Ax 	c #1C0B04",
"Bx 	c #29110C",
"Cx 	c #361813",
"Dx 	c #350E08",
"Ex 	c #3B100C",
"Fx 	c #390B0A",
"Gx 	c #370B0E",
"Hx 	c #461E23",
"Ix 	c #674E53",
"Jx 	c #87797E",
"Kx 	c #969495",
"Lx 	c #A0AAA4",
"Mx 	c #ABC0B0",
"Nx 	c #C8D7C1",
"Ox 	c #DDDDC3",
"Px 	c #D4B59B",
"Qx 	c #BA8067",
"Rx 	c #9B482F",
"Sx 	c #A83C1D",
"Tx 	c #B74528",
"Ux 	c #B74830",
"Vx 	c #B45241",
"Wx 	c #A35246",
"Xx 	c #773834",
"Yx 	c #59323A",
"Zx 	c #54414E",
"`x 	c #4F495C",
" y 	c #4D5067",
".y 	c #4E546E",
"+y 	c #4A536D",
"@y 	c #444E65",
"#y 	c #3D4355",
"$y 	c #3D404D",
"%y 	c #484C55",
"&y 	c #5F656A",
"*y 	c #747A7E",
"=y 	c #8F9698",
"-y 	c #BBC1C2",
";y 	c #DCE2E0",
">y 	c #F0F6F2",
",y 	c #F6FBF4",
"'y 	c #F9FEF7",
")y 	c #F8FFF8",
"!y 	c #F6FEF8",
"~y 	c #F6FFF9",
"{y 	c #F6FDF9",
"]y 	c #F6FBF7",
"^y 	c #E8E8E8",
"/y 	c #A7A7A7",
"(y 	c #CBC3B5",
"_y 	c #DFD9CC",
":y 	c #DDDBD0",
"<y 	c #E0DED5",
"[y 	c #E6E4DC",
"}y 	c #EFEBE5",
"|y 	c #F7F5EF",
"1y 	c #FCFDF9",
"2y 	c #FBFDFB",
"3y 	c #F4F8F8",
"4y 	c #EDF1F3",
"5y 	c #F3F7FA",
"6y 	c #EBEEF3",
"7y 	c #C5C6CF",
"8y 	c #9B9BA7",
"9y 	c #807F8D",
"0y 	c #8D8D9B",
"ay 	c #888998",
"by 	c #727787",
"cy 	c #707788",
"dy 	c #646C7D",
"ey 	c #414958",
"fy 	c #242B38",
"gy 	c #161A25",
"hy 	c #1C2029",
"iy 	c #191B23",
"jy 	c #12151B",
"ky 	c #0C1015",
"ly 	c #0B0D12",
"my 	c #04080A",
"ny 	c #010306",
"oy 	c #000305",
"py 	c #010405",
"qy 	c #060A0B",
"ry 	c #15181A",
"sy 	c #171A1D",
"ty 	c #13171C",
"uy 	c #21242A",
"vy 	c #1A1D25",
"wy 	c #13161F",
"xy 	c #10121B",
"yy 	c #13151F",
"zy 	c #11131C",
"Ay 	c #0B0915",
"By 	c #161520",
"Cy 	c #34333E",
"Dy 	c #686772",
"Ey 	c #8A8894",
"Fy 	c #9997A3",
"Gy 	c #9896A2",
"Hy 	c #91909B",
"Iy 	c #93939B",
"Jy 	c #9D9EA1",
"Ky 	c #9C9C9E",
"Ly 	c #9C9C9C",
"My 	c #9E9F9D",
"Ny 	c #969794",
"Oy 	c #8D8E89",
"Py 	c #8E908A",
"Qy 	c #B4B5AE",
"Ry 	c #DCDDD6",
"Sy 	c #F0F1EA",
"Ty 	c #F8F9F2",
"Uy 	c #F9F9F3",
"Vy 	c #F8F9F7",
"Wy 	c #F9FAFC",
"Xy 	c #F7F9FE",
"Yy 	c #F3F5FD",
"Zy 	c #EEF0F9",
"`y 	c #E7E9F2",
" z 	c #DFE1E9",
".z 	c #D9DCE4",
"+z 	c #C5C7CF",
"@z 	c #999BA4",
"#z 	c #6C6E76",
"$z 	c #40434A",
"%z 	c #24272D",
"&z 	c #15191F",
"*z 	c #0F1318",
"=z 	c #0E1117",
"-z 	c #111419",
";z 	c #101217",
">z 	c #0C0A10",
",z 	c #110F14",
"'z 	c #151218",
")z 	c #161318",
"!z 	c #151314",
"~z 	c #14140F",
"{z 	c #121308",
"]z 	c #100E02",
"^z 	c #160D03",
"/z 	c #23110A",
"(z 	c #311812",
"_z 	c #38130F",
":z 	c #3A100E",
"<z 	c #390B0B",
"[z 	c #36090B",
"}z 	c #3B1216",
"|z 	c #563E42",
"1z 	c #77676B",
"2z 	c #898486",
"3z 	c #969D9A",
"4z 	c #A3B4AB",
"5z 	c #BDCABC",
"6z 	c #D2D2C2",
"7z 	c #D6BCAC",
"8z 	c #BE9182",
"9z 	c #954F3F",
"0z 	c #9D361F",
"az 	c #AC3B25",
"bz 	c #B44736",
"cz 	c #A7473A",
"dz 	c #80332A",
"ez 	c #5F3030",
"fz 	c #4D3A41",
"gz 	c #3E3D4A",
"hz 	c #374052",
"iz 	c #374258",
"jz 	c #364258",
"kz 	c #42495B",
"lz 	c #595A64",
"mz 	c #6A676C",
"nz 	c #838081",
"oz 	c #A6A6A5",
"pz 	c #BCBDBB",
"qz 	c #CBCCCC",
"rz 	c #E1E2E3",
"sz 	c #F8F9F9",
"tz 	c #FAFBFA",
"uz 	c #FBFBFA",
"vz 	c #FDFDFB",
"wz 	c #FDFEFC",
"xz 	c #FCFEFC",
"yz 	c #FBFEFC",
"zz 	c #F7F9F7",
"Az 	c #FDFDFD",
"Bz 	c #F5F5F5",
"Cz 	c #D5D5D5",
"Dz 	c #A39887",
"Ez 	c #DCD1C2",
"Fz 	c #F5EBDC",
"Gz 	c #FAF4E7",
"Hz 	c #FBF6EB",
"Iz 	c #FAF5EC",
"Jz 	c #FAF4ED",
"Kz 	c #FAF7F1",
"Lz 	c #FAFBF6",
"Mz 	c #F8FBF8",
"Nz 	c #EEF3F2",
"Oz 	c #E1E9ED",
"Pz 	c #E0E6EC",
"Qz 	c #CDD0DB",
"Rz 	c #A9AAB7",
"Sz 	c #696A7C",
"Tz 	c #606477",
"Uz 	c #646C7F",
"Vz 	c #7C879B",
"Wz 	c #788396",
"Xz 	c #475263",
"Yz 	c #222C3B",
"Zz 	c #141A25",
"`z 	c #131821",
" A 	c #11151D",
".A 	c #0D1119",
"+A 	c #080D14",
"@A 	c #05080F",
"#A 	c #02060C",
"$A 	c #01050B",
"%A 	c #03080E",
"&A 	c #02050B",
"*A 	c #000208",
"=A 	c #05090E",
"-A 	c #171A20",
";A 	c #1B1F25",
">A 	c #181D23",
",A 	c #1D2128",
"'A 	c #1F222A",
")A 	c #191C25",
"!A 	c #1A1D26",
"~A 	c #181822",
"{A 	c #13121D",
"]A 	c #1A1822",
"^A 	c #3D3C45",
"/A 	c #696771",
"(A 	c #92909B",
"_A 	c #96959E",
":A 	c #8A8991",
"<A 	c #87868C",
"[A 	c #8C8C90",
"}A 	c #959597",
"|A 	c #949495",
"1A 	c #989896",
"2A 	c #92938F",
"3A 	c #888984",
"4A 	c #7E7F79",
"5A 	c #A1A29B",
"6A 	c #CBCBC3",
"7A 	c #DFE0D8",
"8A 	c #EAEBE2",
"9A 	c #EFEFE7",
"0A 	c #EBECE5",
"aA 	c #EAEBE8",
"bA 	c #F0EFF2",
"cA 	c #EFEEF4",
"dA 	c #EBEAF1",
"eA 	c #E6E5EC",
"fA 	c #E0DFE6",
"gA 	c #D7D6DC",
"hA 	c #C9C8CE",
"iA 	c #67686C",
"jA 	c #393A3F",
"kA 	c #27292E",
"lA 	c #202327",
"mA 	c #1A1D22",
"nA 	c #13171B",
"oA 	c #0F1217",
"pA 	c #121519",
"qA 	c #101216",
"rA 	c #0C0D11",
"sA 	c #0D0B10",
"tA 	c #100D13",
"uA 	c #120D13",
"vA 	c #131014",
"wA 	c #141313",
"xA 	c #10150D",
"yA 	c #0B1406",
"zA 	c #091001",
"AA 	c #110E02",
"BA 	c #1E1107",
"CA 	c #2B1610",
"DA 	c #3A1615",
"EA 	c #391010",
"FA 	c #370A0C",
"GA 	c #34080A",
"HA 	c #32080A",
"IA 	c #462E30",
"JA 	c #645256",
"KA 	c #7C7377",
"LA 	c #8D8F91",
"MA 	c #9BA6A4",
"NA 	c #B0B9B5",
"OA 	c #C5C3BE",
"PA 	c #D4BEB7",
"QA 	c #C29D96",
"RA 	c #965A51",
"SA 	c #953629",
"TA 	c #A43223",
"UA 	c #B13626",
"VA 	c #B63D2B",
"WA 	c #AD3D2C",
"XA 	c #8C3122",
"YA 	c #693029",
"ZA 	c #4C3B3B",
"`A 	c #424A4D",
" B 	c #4C5C63",
".B 	c #606E78",
"+B 	c #6F7B85",
"@B 	c #848B92",
"#B 	c #9E9EA2",
"$B 	c #ADAAAA",
"%B 	c #BFBBB9",
"&B 	c #DCDAD7",
"*B 	c #EDECE9",
"=B 	c #F5F3F2",
"-B 	c #FBF7FA",
";B 	c #FEF8FE",
">B 	c #FEF9FF",
",B 	c #FEFCFE",
"'B 	c #FCFAFB",
")B 	c #FAFAFA",
"!B 	c #EFEFEF",
"~B 	c #716857",
"{B 	c #988D78",
"]B 	c #B7A994",
"^B 	c #CFBFAB",
"/B 	c #E8D5C4",
"(B 	c #F5E1D2",
"_B 	c #F5E2D5",
":B 	c #F2E0D4",
"<B 	c #F3E4DA",
"[B 	c #FBF4EB",
"}B 	c #FEFBF4",
"|B 	c #FCFAF4",
"1B 	c #F2F3EE",
"2B 	c #E2E7E4",
"3B 	c #D1D9D8",
"4B 	c #C9D2D4",
"5B 	c #CAD1D6",
"6B 	c #CED1DB",
"7B 	c #B9BBC8",
"8B 	c #9395A4",
"9B 	c #6F7183",
"0B 	c #565A6D",
"aB 	c #565E71",
"bB 	c #717E91",
"cB 	c #6E7D90",
"dB 	c #425060",
"eB 	c #232F3D",
"fB 	c #151821",
"gB 	c #10131C",
"hB 	c #0A0E17",
"iB 	c #02060F",
"jB 	c #02060E",
"kB 	c #03070F",
"lB 	c #080C15",
"mB 	c #090D15",
"nB 	c #050911",
"oB 	c #02050E",
"pB 	c #060A13",
"qB 	c #1C2028",
"rB 	c #1A1E26",
"sB 	c #1B1F28",
"tB 	c #12161F",
"uB 	c #0D111A",
"vB 	c #12151E",
"wB 	c #1D2029",
"xB 	c #22242E",
"yB 	c #21222C",
"zB 	c #1A1A24",
"AB 	c #13131D",
"BB 	c #282831",
"CB 	c #4A4A52",
"DB 	c #6F6F77",
"EB 	c #828188",
"FB 	c #89888E",
"GB 	c #86858B",
"HB 	c #858488",
"IB 	c #878789",
"JB 	c #888989",
"KB 	c #8C8C8C",
"LB 	c #91918F",
"MB 	c #8B8B88",
"NB 	c #7E7E7A",
"OB 	c #6D6D68",
"PB 	c #84847D",
"QB 	c #A6A69E",
"RB 	c #B7B7AE",
"SB 	c #C4C4BB",
"TB 	c #CECEC5",
"UB 	c #D2D2CB",
"VB 	c #D8D7D4",
"WB 	c #E2E0E1",
"XB 	c #D7D5DA",
"YB 	c #D1CDD4",
"ZB 	c #CCC9CF",
"`B 	c #C2C0C6",
" C 	c #A2A0A5",
".C 	c #767579",
"+C 	c #454448",
"@C 	c #1A1B1F",
"#C 	c #191C20",
"$C 	c #121619",
"%C 	c #0E1215",
"&C 	c #111418",
"*C 	c #0B0C10",
"=C 	c #0A090E",
"-C 	c #110C12",
";C 	c #130F13",
">C 	c #131413",
",C 	c #10180F",
"'C 	c #0A1807",
")C 	c #071301",
"!C 	c #0D0F01",
"~C 	c #1A1006",
"{C 	c #28150F",
"]C 	c #331714",
"^C 	c #391615",
"/C 	c #381111",
"(C 	c #33090A",
"_C 	c #2F0708",
":C 	c #3D2425",
"<C 	c #574447",
"[C 	c #72686C",
"}C 	c #878588",
"|C 	c #949B9E",
"1C 	c #A6ADAF",
"2C 	c #CEBEBC",
"3C 	c #C3A5A2",
"4C 	c #9E6964",
"5C 	c #95413A",
"6C 	c #A03227",
"7C 	c #B3382A",
"8C 	c #C04231",
"9C 	c #BC4432",
"0C 	c #9B3927",
"aC 	c #743326",
"bC 	c #554541",
"cC 	c #616E6E",
"dC 	c #84969B",
"eC 	c #A7B9C1",
"fC 	c #C0CFD8",
"gC 	c #D5DEE5",
"hC 	c #E8E8EB",
"iC 	c #EEECEB",
"jC 	c #F1EFEB",
"kC 	c #F7F6F2",
"lC 	c #FBFAF7",
"mC 	c #FEF7FC",
"nC 	c #FEF3FD",
"oC 	c #FCF1FD",
"pC 	c #FEF3FE",
"qC 	c #FFF6FF",
"rC 	c #FFF8FF",
"sC 	c #FCFAFD",
"tC 	c #FCFBFC",
"uC 	c #F3F3F3",
"vC 	c #CFCFCF",
"wC 	c #8F8F8F",
"xC 	c #B4AD9E",
"yC 	c #C7BDAE",
"zC 	c #CCC1B1",
"AC 	c #CEC0AE",
"BC 	c #D5C1AD",
"CC 	c #DFC9B5",
"DC 	c #EAD4C0",
"EC 	c #F0D6C3",
"FC 	c #F1D4C3",
"GC 	c #EED0C1",
"HC 	c #EACDC0",
"IC 	c #EDD5CA",
"JC 	c #FBEDE3",
"KC 	c #FFF8F0",
"LC 	c #FDF7F0",
"MC 	c #F0EDE6",
"NC 	c #DBDCD7",
"OC 	c #C3C8C5",
"PC 	c #B7BEBD",
"QC 	c #BCC1C4",
"RC 	c #CACDD4",
"SC 	c #BEC0CA",
"TC 	c #A0A1AD",
"UC 	c #7B7D8B",
"VC 	c #585C6B",
"WC 	c #464E5E",
"XC 	c #566374",
"YC 	c #546374",
"ZC 	c #334250",
"`C 	c #1E2B37",
" D 	c #030710",
".D 	c #1A1E27",
"+D 	c #0C101A",
"@D 	c #10141D",
"#D 	c #20222C",
"$D 	c #1E1F2A",
"%D 	c #161620",
"&D 	c #0F101A",
"*D 	c #13141D",
"=D 	c #191A22",
"-D 	c #2E2E35",
";D 	c #4A4B52",
">D 	c #696970",
",D 	c #7F7F84",
"'D 	c #858589",
")D 	c #828286",
"!D 	c #7C7C7E",
"~D 	c #818182",
"{D 	c #888988",
"]D 	c #8E8F8D",
"^D 	c #8A8A87",
"/D 	c #7C7B78",
"(D 	c #666661",
"_D 	c #6F6F69",
":D 	c #87877F",
"<D 	c #94948B",
"[D 	c #A3A39A",
"}D 	c #B3B2AA",
"|D 	c #BDBDB6",
"1D 	c #C6C5C2",
"2D 	c #CDCBCC",
"3D 	c #C9C7CA",
"4D 	c #BFBDC2",
"5D 	c #B7B3B9",
"6D 	c #ADAAB0",
"7D 	c #9D9BA0",
"8D 	c #747378",
"9D 	c #444347",
"0D 	c #262529",
"aD 	c #16191D",
"bD 	c #15191C",
"cD 	c #101317",
"dD 	c #0C1014",
"eD 	c #0F1216",
"fD 	c #0A0B0F",
"gD 	c #09080E",
"hD 	c #0F0C12",
"iD 	c #100B12",
"jD 	c #120F14",
"kD 	c #141615",
"lD 	c #111B12",
"mD 	c #0C1B0B",
"nD 	c #071403",
"oD 	c #0B0F01",
"pD 	c #170F05",
"qD 	c #24130D",
"rD 	c #301613",
"sD 	c #371615",
"tD 	c #381212",
"uD 	c #350D0D",
"vD 	c #310907",
"wD 	c #2D0705",
"xD 	c #341A19",
"yD 	c #483637",
"zD 	c #665B5D",
"AD 	c #7D797C",
"BD 	c #8B9093",
"CD 	c #9AA0A3",
"DD 	c #AEAEB0",
"ED 	c #C9BBBB",
"FD 	c #C7ABA9",
"GD 	c #AD7D78",
"HD 	c #9A514C",
"ID 	c #9B332A",
"JD 	c #B03A2E",
"KD 	c #BE4333",
"LD 	c #BB4532",
"MD 	c #9E3B28",
"ND 	c #763020",
"OD 	c #584642",
"PD 	c #747C7D",
"QD 	c #A0AFB4",
"RD 	c #C8D9E0",
"SD 	c #E1EFF6",
"TD 	c #F2FAFF",
"UD 	c #FDFEFF",
"VD 	c #FFFEFD",
"WD 	c #FFFCFA",
"XD 	c #FEFCF9",
"YD 	c #FEFCFB",
"ZD 	c #FFFBFD",
"`D 	c #FFF8FD",
" E 	c #FEF5FD",
".E 	c #FDF3FD",
"+E 	c #FEF5FE",
"@E 	c #FFF7FF",
"#E 	c #FFFDFF",
"$E 	c #F7F7F7",
"%E 	c #E0E0E0",
"&E 	c #C0C0C0",
"*E 	c #A39D91",
"=E 	c #B9B1A3",
"-E 	c #D1C7B7",
";E 	c #EADDCC",
">E 	c #F6E7D4",
",E 	c #FAE7D3",
"'E 	c #FADFCA",
")E 	c #FADBC6",
"!E 	c #F8DAC5",
"~E 	c #F2CFBB",
"{E 	c #ECC4B2",
"]E 	c #E9C1B2",
"^E 	c #E7C1B3",
"/E 	c #E9C9BD",
"(E 	c #F4DDD1",
"_E 	c #FAEADF",
":E 	c #F9EEE4",
"<E 	c #EDE7DD",
"[E 	c #D5D3CB",
"}E 	c #B5B7B1",
"|E 	c #A9ACA9",
"1E 	c #B0B3B3",
"2E 	c #C1C2C5",
"3E 	c #B9BABF",
"4E 	c #A2A3AA",
"5E 	c #858690",
"6E 	c #61656F",
"7E 	c #3B434D",
"8E 	c #2F3C48",
"9E 	c #2A3945",
"0E 	c #1C2B36",
"aE 	c #14212A",
"bE 	c #121A23",
"cE 	c #10151E",
"dE 	c #050812",
"eE 	c #040711",
"fE 	c #030711",
"gE 	c #0C111A",
"hE 	c #1E222B",
"iE 	c #161A24",
"jE 	c #131520",
"kE 	c #0C0F19",
"lE 	c #0B0F18",
"mE 	c #15181F",
"nE 	c #272930",
"oE 	c #4F5055",
"pE 	c #6E6F74",
"qE 	c #808186",
"rE 	c #808184",
"sE 	c #747678",
"tE 	c #797B7B",
"uE 	c #828483",
"vE 	c #8A8C89",
"wE 	c #878885",
"xE 	c #7A7A78",
"yE 	c #62635F",
"zE 	c #61615C",
"AE 	c #71706B",
"BE 	c #7A7A73",
"CE 	c #898981",
"DE 	c #9C9B94",
"EE 	c #ABABA5",
"FE 	c #B3B2B0",
"GE 	c #B2B0B2",
"HE 	c #AEACB1",
"IE 	c #A7A6AC",
"JE 	c #9D9BA2",
"KE 	c #8A878E",
"LE 	c #6B6A6F",
"ME 	c #444348",
"NE 	c #1A1A1F",
"OE 	c #07080E",
"PE 	c #101318",
"QE 	c #0D1015",
"RE 	c #08090E",
"SE 	c #08080E",
"TE 	c #0C0A11",
"UE 	c #0F0C13",
"VE 	c #0E0C13",
"WE 	c #111015",
"XE 	c #141718",
"YE 	c #131E16",
"ZE 	c #0F1D0F",
"`E 	c #091505",
" F 	c #0A0E02",
".F 	c #140C04",
"+F 	c #20100B",
"@F 	c #2C1411",
"#F 	c #351614",
"$F 	c #371412",
"%F 	c #350F0D",
"&F 	c #300A05",
"*F 	c #2B0702",
"=F 	c #2C0F0C",
"-F 	c #392625",
";F 	c #584C4C",
">F 	c #706A6C",
",F 	c #808385",
"'F 	c #8D9294",
")F 	c #A1A1A1",
"!F 	c #C2B5B4",
"~F 	c #CAB0AC",
"{F 	c #BB908A",
"]F 	c #A0625C",
"^F 	c #95362D",
"/F 	c #A73B2F",
"(F 	c #B23F2F",
"_F 	c #B1412E",
":F 	c #9D3E2C",
"<F 	c #7A3122",
"[F 	c #58403D",
"}F 	c #757678",
"|F 	c #A1AAAF",
"1F 	c #C7D5DB",
"2F 	c #DFEBEF",
"3F 	c #EFF6F8",
"4F 	c #F8FAFC",
"5F 	c #FDFAFB",
"6F 	c #FEF9F9",
"7F 	c #FCF7F9",
"8F 	c #FCF8FB",
"9F 	c #FFFAFE",
"0F 	c #FEFDFE",
"aF 	c #E1E1E1",
"bF 	c #ABABAB",
"cF 	c #B2ADA2",
"dF 	c #CDC5B9",
"eF 	c #DDD3C5",
"fF 	c #E3D6C7",
"gF 	c #EADAC8",
"hF 	c #F5E3CF",
"iF 	c #F8E2CE",
"jF 	c #F6DAC5",
"kF 	c #F5D1BB",
"lF 	c #F0C6B0",
"mF 	c #E9BCA7",
"nF 	c #E7B6A2",
"oF 	c #E6B4A2",
"pF 	c #E5B4A4",
"qF 	c #E5B7A9",
"rF 	c #E2B9AC",
"sF 	c #D9B9AC",
"tF 	c #E0C7BB",
"uF 	c #EAD9CC",
"vF 	c #E5DACD",
"wF 	c #CEC9BC",
"xF 	c #A9A79D",
"yF 	c #9E9F9B",
"zF 	c #ACADAB",
"AF 	c #A9AAAA",
"BF 	c #9B9C9E",
"CF 	c #8A8D91",
"DF 	c #6D7277",
"EF 	c #424A4E",
"FF 	c #243036",
"GF 	c #13232B",
"HF 	c #101F26",
"IF 	c #0C181F",
"JF 	c #03050F",
"KF 	c #02040D",
"LF 	c #02040E",
"MF 	c #02050F",
"NF 	c #01040D",
"OF 	c #01040E",
"PF 	c #252932",
"QF 	c #282C35",
"RF 	c #0B0F19",
"SF 	c #080E18",
"TF 	c #0B111B",
"UF 	c #080E17",
"VF 	c #0B1119",
"WF 	c #0D121A",
"XF 	c #12161D",
"YF 	c #34373C",
"ZF 	c #56585D",
"`F 	c #76787D",
" G 	c #7A7C80",
".G 	c #6C6E71",
"+G 	c #6A6C6D",
"@G 	c #707171",
"#G 	c #777978",
"$G 	c #767776",
"%G 	c #6B6B6A",
"&G 	c #565654",
"*G 	c #51514D",
"=G 	c #5A5955",
"-G 	c #61605B",
";G 	c #6E6E68",
">G 	c #807F7A",
",G 	c #908F8C",
"'G 	c #979695",
")G 	c #939295",
"!G 	c #95959A",
"~G 	c #96969C",
"{G 	c #8E8E95",
"]G 	c #434247",
"^G 	c #1F1E24",
"/G 	c #06070E",
"(G 	c #07090E",
"_G 	c #0A0D13",
":G 	c #0D1016",
"<G 	c #080D11",
"[G 	c #0C0F15",
"}G 	c #090C11",
"|G 	c #090910",
"1G 	c #0F0E14",
"2G 	c #0E0D14",
"3G 	c #121218",
"4G 	c #151A1B",
"5G 	c #15201A",
"6G 	c #121E14",
"7G 	c #0A1509",
"8G 	c #090D03",
"9G 	c #110A04",
"0G 	c #1C0E08",
"aG 	c #29130F",
"bG 	c #321613",
"cG 	c #361612",
"dG 	c #35110C",
"eG 	c #300B04",
"fG 	c #290601",
"gG 	c #270804",
"hG 	c #4A3D3C",
"iG 	c #625C5C",
"jG 	c #767678",
"kG 	c #828687",
"lG 	c #959594",
"mG 	c #B5ACA9",
"nG 	c #C6AFAB",
"oG 	c #C39D98",
"pG 	c #A46F69",
"qG 	c #8F3A32",
"rG 	c #9A382D",
"sG 	c #A13627",
"tG 	c #A43C2A",
"uG 	c #A54A39",
"vG 	c #8A4234",
"wG 	c #59342F",
"xG 	c #524B4C",
"yG 	c #696E71",
"zG 	c #899297",
"AG 	c #ADB7BC",
"BG 	c #CFD7DB",
"CG 	c #ECEFF3",
"DG 	c #FAF9FC",
"EG 	c #FDFBFD",
"FG 	c #FAF7FB",
"GG 	c #FBF8FC",
"HG 	c #FFFCFE",
"IG 	c #FDFCFD",
"JG 	c #FEFEFE",
"KG 	c #EEEEEE",
"LG 	c #B8B8B8",
"MG 	c #B0AA9F",
"NG 	c #D0C8BB",
"OG 	c #E2D8C9",
"PG 	c #ECDECF",
"QG 	c #EDDBCA",
"RG 	c #EDD8C4",
"SG 	c #F0D8C3",
"TG 	c #ECCEB9",
"UG 	c #E7C2AC",
"VG 	c #ECBCA6",
"WG 	c #E8B09B",
"XG 	c #DC9F8B",
"YG 	c #DD9F8B",
"ZG 	c #DEA190",
"`G 	c #DBA191",
" H 	c #D8A394",
".H 	c #CFA091",
"+H 	c #BB9284",
"@H 	c #C3A495",
"#H 	c #D5BEAF",
"$H 	c #D1C2B2",
"%H 	c #BBB2A3",
"&H 	c #949083",
"*H 	c #807F74",
"=H 	c #818179",
"-H 	c #91918B",
";H 	c #949590",
">H 	c #8E908E",
",H 	c #838686",
"'H 	c #6E7373",
")H 	c #4C5554",
"!H 	c #333E3E",
"~H 	c #202D2E",
"{H 	c #142224",
"]H 	c #0A161A",
"^H 	c #050D12",
"/H 	c #01030C",
"(H 	c #000109",
"_H 	c #000008",
":H 	c #00030B",
"<H 	c #01050D",
"[H 	c #040710",
"}H 	c #04070F",
"|H 	c #272B33",
"1H 	c #30343C",
"2H 	c #2D3038",
"3H 	c #21252D",
"4H 	c #0C151E",
"5H 	c #1A242C",
"6H 	c #1C252E",
"7H 	c #111A22",
"8H 	c #0F181F",
"9H 	c #0D161D",
"0H 	c #080F17",
"aH 	c #21272D",
"bH 	c #444A4F",
"cH 	c #6B7075",
"dH 	c #71767A",
"eH 	c #63676B",
"fH 	c #5F6265",
"gH 	c #626467",
"hH 	c #68696A",
"iH 	c #656667",
"jH 	c #5B5B5C",
"kH 	c #4A4A4A",
"lH 	c #444342",
"mH 	c #494845",
"nH 	c #4E4D4B",
"oH 	c #5A5856",
"pH 	c #696764",
"qH 	c #777574",
"rH 	c #7C7B7C",
"sH 	c #79787C",
"tH 	c #818187",
"uH 	c #898A90",
"vH 	c #85868E",
"wH 	c #696A71",
"xH 	c #292B30",
"yH 	c #10131A",
"zH 	c #080D12",
"AH 	c #060B10",
"BH 	c #070C11",
"CH 	c #090D13",
"DH 	c #070B11",
"EH 	c #06090F",
"FH 	c #0F0F17",
"GH 	c #13151B",
"HH 	c #171C1F",
"IH 	c #17201D",
"JH 	c #121E17",
"KH 	c #0B140C",
"LH 	c #0E0803",
"MH 	c #180C07",
"NH 	c #25120D",
"OH 	c #2F1611",
"PH 	c #341611",
"QH 	c #34130C",
"RH 	c #300D04",
"SH 	c #290701",
"TH 	c #260602",
"UH 	c #2B1410",
"VH 	c #3E2F2C",
"WH 	c #554D4B",
"XH 	c #6B6A6A",
"YH 	c #797B7A",
"ZH 	c #8A8A88",
"`H 	c #A69F9B",
" I 	c #BBA9A4",
".I 	c #C2A29D",
"+I 	c #A57872",
"@I 	c #8A423A",
"#I 	c #8D362B",
"$I 	c #983829",
"%I 	c #A1402F",
"&I 	c #A14938",
"*I 	c #894134",
"=I 	c #5C2C25",
"-I 	c #3D1D1B",
";I 	c #31272A",
">I 	c #46484D",
",I 	c #71797E",
"'I 	c #9BA3A9",
")I 	c #C3C7CC",
"!I 	c #DFE1E6",
"~I 	c #F1F2F6",
"{I 	c #FDFBFF",
"]I 	c #FEFBFE",
"^I 	c #FDFAFD",
"/I 	c #FEFBFD",
"(I 	c #FCF9FB",
"_I 	c #FBF9FA",
":I 	c #F6F6F6",
"<I 	c #B2B2B2",
"[I 	c #B4AEA2",
"}I 	c #D9D0C3",
"|I 	c #EBDFD0",
"1I 	c #F0E1D0",
"2I 	c #EAD6C4",
"3I 	c #E5CCB9",
"4I 	c #E3C6B1",
"5I 	c #E4C3AD",
"6I 	c #DFB8A2",
"7I 	c #DCAC96",
"8I 	c #E8AD98",
"9I 	c #E7A490",
"0I 	c #DA917E",
"aI 	c #D68E7C",
"bI 	c #D28C7B",
"cI 	c #C98776",
"dI 	c #BE8271",
"eI 	c #B17C6B",
"fI 	c #A37464",
"gI 	c #AD8979",
"hI 	c #BCA08F",
"iI 	c #B19E8C",
"jI 	c #988C7B",
"kI 	c #766F5E",
"lI 	c #5B5749",
"mI 	c #58574C",
"nI 	c #6F6E65",
"oI 	c #7A7B73",
"pI 	c #7B7C77",
"qI 	c #70726D",
"rI 	c #616662",
"sI 	c #515A56",
"tI 	c #414D49",
"uI 	c #2F3D3B",
"vI 	c #1C2A29",
"wI 	c #0E191B",
"xI 	c #070E12",
"yI 	c #05070F",
"zI 	c #03050D",
"AI 	c #03040C",
"BI 	c #03060E",
"CI 	c #060A11",
"DI 	c #080B12",
"EI 	c #090C13",
"FI 	c #000108",
"GI 	c #14171E",
"HI 	c #22252C",
"II 	c #32353C",
"JI 	c #33363D",
"KI 	c #2B2E35",
"LI 	c #1B1E26",
"MI 	c #111820",
"NI 	c #18222B",
"OI 	c #29353D",
"PI 	c #2A373F",
"QI 	c #1B272F",
"RI 	c #0E191F",
"SI 	c #081218",
"TI 	c #272F33",
"UI 	c #464E53",
"VI 	c #656C71",
"WI 	c #696F75",
"XI 	c #5D6266",
"YI 	c #5D6165",
"ZI 	c #606367",
"`I 	c #606265",
" J 	c #5A5A5E",
".J 	c #4F4E52",
"+J 	c #414143",
"@J 	c #3C3B3C",
"#J 	c #403E3F",
"$J 	c #464444",
"%J 	c #4F4D4D",
"&J 	c #5B5857",
"*J 	c #68676A",
"=J 	c #717379",
"-J 	c #7C7F86",
";J 	c #7E818A",
">J 	c #686A72",
",J 	c #31353B",
"'J 	c #12171E",
")J 	c #0E121A",
"!J 	c #060C13",
"~J 	c #040810",
"{J 	c #0A0E16",
"]J 	c #0F121A",
"^J 	c #1A1F23",
"/J 	c #172020",
"(J 	c #111B19",
"_J 	c #0B130F",
":J 	c #0C0603",
"<J 	c #140A06",
"[J 	c #20100A",
"}J 	c #2B150E",
"|J 	c #32170F",
"1J 	c #33150B",
"2J 	c #301005",
"3J 	c #2A0A02",
"4J 	c #270903",
"5J 	c #2A120D",
"6J 	c #34221E",
"7J 	c #493F3C",
"8J 	c #615F5D",
"9J 	c #71726F",
"0J 	c #80807D",
"aJ 	c #958F8C",
"bJ 	c #AC9D99",
"cJ 	c #B9A09B",
"dJ 	c #A37C77",
"eJ 	c #874D45",
"fJ 	c #7F372C",
"gJ 	c #943E2F",
"hJ 	c #A24737",
"iJ 	c #933D2D",
"jJ 	c #7F352A",
"kJ 	c #69312A",
"lJ 	c #512926",
"mJ 	c #402C2E",
"nJ 	c #3F393D",
"oJ 	c #404448",
"pJ 	c #51585D",
"qJ 	c #71787E",
"rJ 	c #A6ACB4",
"sJ 	c #D1D6DD",
"tJ 	c #EDEEF2",
"uJ 	c #F9F8FB",
"vJ 	c #FCFBFD",
"wJ 	c #F7F6FA",
"xJ 	c #F9F7F9",
"yJ 	c #FFFDFE",
"zJ 	c #FFFEFF",
"AJ 	c #F9F5F8",
"BJ 	c #F9F7F8",
"CJ 	c #FDFCFC",
"DJ 	c #ECECEC",
"EJ 	c #D1D1D1",
"FJ 	c #B2ACA0",
"GJ 	c #D4CCBE",
"HJ 	c #EFE3D3",
"IJ 	c #F2E3D1",
"JJ 	c #F1DDC9",
"KJ 	c #EFD5C1",
"LJ 	c #EECFBA",
"MJ 	c #EECAB4",
"NJ 	c #EEC5AF",
"OJ 	c #EEBFA8",
"PJ 	c #EDB5A0",
"QJ 	c #ECA994",
"RJ 	c #E69A87",
"SJ 	c #DD8C7A",
"TJ 	c #CF806E",
"UJ 	c #C17564",
"VJ 	c #B36C5B",
"WJ 	c #A46453",
"XJ 	c #9D6452",
"YJ 	c #A2715F",
"ZJ 	c #A9816D",
"`J 	c #A68874",
" K 	c #8E7865",
".K 	c #6F614F",
"+K 	c #504838",
"@K 	c #383424",
"#K 	c #383629",
"$K 	c #4D4C41",
"%K 	c #57574E",
"&K 	c #585952",
"*K 	c #50524B",
"=K 	c #494D46",
"-K 	c #414943",
";K 	c #35403A",
">K 	c #27342F",
",K 	c #1A2623",
"'K 	c #0F1818",
")K 	c #11131A",
"!K 	c #15161D",
"~K 	c #0C0F16",
"{K 	c #0A0C13",
"]K 	c #090B12",
"^K 	c #080A12",
"/K 	c #0D0F17",
"(K 	c #2A2C33",
"_K 	c #31333A",
":K 	c #303139",
"<K 	c #25292F",
"[K 	c #1D252C",
"}K 	c #202C33",
"|K 	c #2E3C43",
"1K 	c #2F3D44",
"2K 	c #202E35",
"3K 	c #122027",
"4K 	c #06141B",
"5K 	c #0B161C",
"6K 	c #3D464A",
"7K 	c #5C656B",
"8K 	c #6A7379",
"9K 	c #687075",
"0K 	c #5D6368",
"aK 	c #60656A",
"bK 	c #62656A",
"cK 	c #5B5D62",
"dK 	c #505156",
"eK 	c #434348",
"fK 	c #39393D",
"gK 	c #343337",
"hK 	c #363438",
"iK 	c #3D3B3E",
"jK 	c #464345",
"kK 	c #4E4A4C",
"lK 	c #555155",
"mK 	c #58565B",
"nK 	c #5A5A60",
"oK 	c #61636A",
"pK 	c #6A6D76",
"qK 	c #72757E",
"rK 	c #676B73",
"sK 	c #494E56",
"tK 	c #2A2F36",
"uK 	c #0C121A",
"vK 	c #0D131A",
"wK 	c #050B13",
"xK 	c #030911",
"yK 	c #080C14",
"zK 	c #0B0F17",
"AK 	c #070C14",
"BK 	c #11171F",
"CK 	c #10161E",
"DK 	c #171D24",
"EK 	c #1C242A",
"FK 	c #172023",
"GK 	c #0F1919",
"HK 	c #0A1110",
"IK 	c #080A08",
"JK 	c #0A0605",
"KK 	c #120805",
"LK 	c #1D0E08",
"MK 	c #27140C",
"NK 	c #2E170C",
"OK 	c #31160A",
"PK 	c #301206",
"QK 	c #2C0E03",
"RK 	c #2B0D04",
"SK 	c #2C120B",
"TK 	c #2F1913",
"UK 	c #3F3430",
"VK 	c #585451",
"WK 	c #696865",
"XK 	c #767672",
"YK 	c #84807C",
"ZK 	c #998E89",
"`K 	c #AA9690",
" L 	c #9F7F78",
".L 	c #895B54",
"+L 	c #753A30",
"@L 	c #7F3324",
"#L 	c #8D3A2B",
"$L 	c #8E3A2C",
"%L 	c #90453B",
"&L 	c #8B4B45",
"*L 	c #6A3734",
"=L 	c #492A2A",
"-L 	c #3E3133",
";L 	c #313033",
">L 	c #2B3237",
",L 	c #384148",
"'L 	c #646B73",
")L 	c #8F939C",
"!L 	c #B4B5BE",
"~L 	c #CFCED8",
"{L 	c #E4E3EB",
"]L 	c #F6F6FA",
"^L 	c #FAFBFD",
"/L 	c #FEFDFC",
"(L 	c #FFFEFC",
"_L 	c #FFFCFD",
":L 	c #FDFAFC",
"<L 	c #F8F8F8",
"[L 	c #959595",
"}L 	c #A8A195",
"|L 	c #D0C7BA",
"1L 	c #E8DCCD",
"2L 	c #F7E7D6",
"3L 	c #F1DDCA",
"4L 	c #EED4BF",
"5L 	c #F4D4BE",
"6L 	c #F5D1BA",
"7L 	c #F4CAB3",
"8L 	c #F0C2AA",
"9L 	c #F1BCA5",
"0L 	c #F0B49E",
"aL 	c #E49D89",
"bL 	c #DB8B78",
"cL 	c #D58170",
"dL 	c #C16F5E",
"eL 	c #AC5E4D",
"fL 	c #9E5544",
"gL 	c #93503E",
"hL 	c #935A48",
"iL 	c #A57460",
"jL 	c #A37A66",
"kL 	c #8F6F5B",
"lL 	c #6C5340",
"mL 	c #453421",
"nL 	c #291F0E",
"oL 	c #1C1704",
"pL 	c #232011",
"qL 	c #2F2D20",
"rL 	c #303024",
"sL 	c #2E3024",
"tL 	c #2C2F25",
"uL 	c #2B3027",
"vL 	c #2A3028",
"wL 	c #202921",
"xL 	c #18221C",
"yL 	c #151F1B",
"zL 	c #111817",
"AL 	c #202027",
"BL 	c #26282E",
"CL 	c #24262C",
"DL 	c #1F1F27",
"EL 	c #17181F",
"FL 	c #0F1218",
"GL 	c #0B0C13",
"HL 	c #181A20",
"IL 	c #1E2027",
"JL 	c #2A2B32",
"KL 	c #2F2F36",
"LL 	c #292D33",
"ML 	c #232B31",
"NL 	c #222F35",
"OL 	c #2C3B41",
"PL 	c #2C3B42",
"QL 	c #1E2D33",
"RL 	c #101F25",
"SL 	c #031219",
"TL 	c #101C21",
"UL 	c #485257",
"VL 	c #667177",
"WL 	c #6A7479",
"XL 	c #636B70",
"YL 	c #575E63",
"ZL 	c #585E62",
"`L 	c #575C60",
" M 	c #4D5055",
".M 	c #404247",
"+M 	c #343439",
"@M 	c #2D2C31",
"#M 	c #29272C",
"$M 	c #312F32",
"%M 	c #383538",
"&M 	c #3E3A3E",
"*M 	c #423F43",
"=M 	c #46444A",
"-M 	c #4B4B53",
";M 	c #4E5059",
">M 	c #535760",
",M 	c #5E636C",
"'M 	c #5F656E",
")M 	c #545B63",
"!M 	c #363C43",
"~M 	c #0C141C",
"{M 	c #060D16",
"]M 	c #050C14",
"^M 	c #050C15",
"/M 	c #040B14",
"(M 	c #060A14",
"_M 	c #0A0D17",
":M 	c #0E101A",
"<M 	c #0F131D",
"[M 	c #131922",
"}M 	c #141B23",
"|M 	c #121A22",
"1M 	c #1A222A",
"2M 	c #1F2830",
"3M 	c #161F25",
"4M 	c #0C1518",
"5M 	c #090F11",
"6M 	c #07090A",
"7M 	c #090506",
"8M 	c #100705",
"9M 	c #1A0C07",
"0M 	c #231209",
"aM 	c #2A160A",
"bM 	c #2F1709",
"cM 	c #311507",
"dM 	c #2F1205",
"eM 	c #2E1105",
"fM 	c #2D1209",
"gM 	c #2C130B",
"hM 	c #382A26",
"iM 	c #504944",
"jM 	c #615E5A",
"kM 	c #75736E",
"lM 	c #867F7A",
"mM 	c #978A83",
"nM 	c #9A827B",
"oM 	c #8D6B63",
"pM 	c #6F4239",
"qM 	c #6B2A1D",
"rM 	c #782E1F",
"sM 	c #87392B",
"tM 	c #964940",
"uM 	c #97514B",
"vM 	c #743936",
"wM 	c #4E2524",
"xM 	c #402D2D",
"yM 	c #3B3739",
"zM 	c #363B3F",
"AM 	c #2D363E",
"BM 	c #25313C",
"CM 	c #3B4251",
"DM 	c #67697A",
"EM 	c #9292A4",
"FM 	c #BABAC8",
"GM 	c #DBDEE3",
"HM 	c #EFF3F4",
"IM 	c #F7FBFB",
"JM 	c #FCFEFD",
"KM 	c #FFFFFC",
"LM 	c #FEFEFA",
"MM 	c #FEFCFA",
"NM 	c #FEFBFC",
"OM 	c #FBFBFB",
"PM 	c #F9F9F9",
"QM 	c #E3E3E3",
"RM 	c #B1B1B1",
"SM 	c #CEC5B8",
"TM 	c #E7DBCC",
"UM 	c #F1E2D1",
"VM 	c #ECD3BF",
"WM 	c #EDCFB8",
"XM 	c #F4D0B9",
"YM 	c #F2C9B1",
"ZM 	c #EBBDA4",
"`M 	c #E1AE95",
" N 	c #DDA48B",
".N 	c #D99982",
"+N 	c #CB826D",
"@N 	c #BB6757",
"#N 	c #A95747",
"$N 	c #974938",
"%N 	c #8E4635",
"&N 	c #8E4D3C",
"*N 	c #955C4B",
"=N 	c #9F6E5C",
"-N 	c #916856",
";N 	c #6F4F3C",
">N 	c #4F3724",
",N 	c #301E0D",
"'N 	c #1A0E03",
")N 	c #191304",
"!N 	c #1F1B09",
"~N 	c #1E1C0E",
"{N 	c #1A190D",
"]N 	c #16180D",
"^N 	c #191B11",
"/N 	c #1A1E14",
"(N 	c #181D15",
"_N 	c #10160F",
":N 	c #0F1510",
"<N 	c #161C19",
"[N 	c #191C1D",
"}N 	c #1D1E22",
"|N 	c #25262B",
"1N 	c #2D2D33",
"2N 	c #333339",
"3N 	c #2E2E34",
"4N 	c #25242A",
"5N 	c #1A1A20",
"6N 	c #27282D",
"7N 	c #1D1D22",
"8N 	c #121117",
"9N 	c #17181D",
"0N 	c #26262C",
"aN 	c #26292F",
"bN 	c #22292F",
"cN 	c #1E2A30",
"dN 	c #243439",
"eN 	c #233338",
"fN 	c #15262B",
"gN 	c #0D1D22",
"hN 	c #0A191E",
"iN 	c #132126",
"jN 	c #455055",
"kN 	c #5F6B71",
"lN 	c #5D676C",
"mN 	c #525A5F",
"nN 	c #434A4F",
"oN 	c #3B4146",
"pN 	c #35393E",
"qN 	c #2B2E34",
"rN 	c #212328",
"sN 	c #131117",
"tN 	c #121015",
"uN 	c #19171B",
"vN 	c #1F1C20",
"wN 	c #231F24",
"xN 	c #252227",
"yN 	c #2B2A30",
"zN 	c #34363E",
"AN 	c #353942",
"BN 	c #373D46",
"CN 	c #434952",
"DN 	c #4E555E",
"EN 	c #505962",
"FN 	c #373F47",
"GN 	c #010711",
"HN 	c #040A14",
"IN 	c #060B15",
"JN 	c #070A15",
"KN 	c #080B16",
"LN 	c #0C0E1A",
"MN 	c #0F111C",
"NN 	c #11111D",
"ON 	c #0D0E1A",
"PN 	c #0D0F1B",
"QN 	c #161D26",
"RN 	c #161F28",
"SN 	c #141D26",
"TN 	c #1C262F",
"UN 	c #222C34",
"VN 	c #161F27",
"WN 	c #070D12",
"XN 	c #090507",
"YN 	c #0E0604",
"ZN 	c #160B05",
"`N 	c #1F1107",
" O 	c #271509",
".O 	c #2E1809",
"+O 	c #321809",
"@O 	c #321608",
"#O 	c #301407",
"$O 	c #2D1106",
"%O 	c #290F05",
"&O 	c #32221C",
"*O 	c #463E37",
"=O 	c #57534E",
"-O 	c #63625D",
";O 	c #696964",
">O 	c #75736D",
",O 	c #857E78",
"'O 	c #968680",
")O 	c #907973",
"!O 	c #6E4C45",
"~O 	c #673125",
"{O 	c #723021",
"]O 	c #7C3224",
"^O 	c #863930",
"/O 	c #883B37",
"(O 	c #6F2B28",
"_O 	c #521F1E",
":O 	c #422827",
"<O 	c #423B3C",
"[O 	c #43474A",
"}O 	c #3E4951",
"|O 	c #3B4855",
"1O 	c #394455",
"2O 	c #393E50",
"3O 	c #535465",
"4O 	c #797A89",
"5O 	c #A3A8B0",
"6O 	c #C8CED2",
"7O 	c #E5ECEC",
"8O 	c #F5F9F6",
"9O 	c #FDFEF9",
"0O 	c #FEFDFD",
"aO 	c #EAEAEA",
"bO 	c #CBCBCB",
"cO 	c #C9C0B3",
"dO 	c #E6DBCB",
"eO 	c #F3E5D3",
"fO 	c #F8E5D2",
"gO 	c #F6DECA",
"hO 	c #F3D6C0",
"iO 	c #F2CFB8",
"jO 	c #F1C8B0",
"kO 	c #EFC1A8",
"lO 	c #ECB89E",
"mO 	c #E6AE94",
"nO 	c #DDA087",
"oO 	c #CE8C74",
"pO 	c #BA705C",
"qO 	c #A95949",
"rO 	c #9E4D3F",
"sO 	c #904133",
"tO 	c #853929",
"uO 	c #813B2B",
"vO 	c #8E5242",
"wO 	c #96604F",
"xO 	c #8A5B4B",
"yO 	c #704A3B",
"zO 	c #4C3020",
"AO 	c #39210F",
"BO 	c #2B1706",
"CO 	c #1C0E02",
"DO 	c #191202",
"EO 	c #1A1604",
"FO 	c #171506",
"GO 	c #161508",
"HO 	c #15160B",
"IO 	c #14160B",
"JO 	c #161910",
"KO 	c #1B1F16",
"LO 	c #20231C",
"MO 	c #242721",
"NO 	c #272A27",
"OO 	c #2C2D2F",
"PO 	c #313136",
"QO 	c #34343A",
"RO 	c #36363B",
"SO 	c #36353B",
"TO 	c #323237",
"UO 	c #2B2B31",
"VO 	c #232228",
"WO 	c #37373C",
"XO 	c #28272D",
"YO 	c #15141B",
"ZO 	c #15141A",
"`O 	c #18171D",
" P 	c #1B1B21",
".P 	c #1D2025",
"+P 	c #1D2429",
"@P 	c #1D2A2F",
"#P 	c #233437",
"$P 	c #213235",
"%P 	c #112125",
"&P 	c #162428",
"*P 	c #1A292C",
"=P 	c #172529",
"-P 	c #354145",
";P 	c #485458",
">P 	c #434D52",
",P 	c #383F44",
"'P 	c #292F34",
")P 	c #1E2328",
"!P 	c #03030B",
"~P 	c #07070E",
"{P 	c #06040B",
"]P 	c #030007",
"^P 	c #09060D",
"/P 	c #0F0B11",
"(P 	c #110C13",
"_P 	c #120E16",
":P 	c #1E2129",
"<P 	c #1D222B",
"[P 	c #373F48",
"}P 	c #3E474F",
"|P 	c #323B43",
"1P 	c #1E272F",
"2P 	c #050C16",
"3P 	c #070B16",
"4P 	c #080A16",
"5P 	c #0A0B17",
"6P 	c #0F0F1B",
"7P 	c #12111E",
"8P 	c #12121E",
"9P 	c #0F111D",
"0P 	c #151924",
"aP 	c #181F29",
"bP 	c #162129",
"cP 	c #1E2A32",
"dP 	c #243038",
"eP 	c #090608",
"fP 	c #0C0604",
"gP 	c #130A04",
"hP 	c #1C1005",
"iP 	c #251508",
"jP 	c #2D190A",
"kP 	c #321B0B",
"lP 	c #341B0B",
"mP 	c #321708",
"nP 	c #2B0F03",
"oP 	c #260B02",
"pP 	c #2E1C15",
"qP 	c #40342D",
"rP 	c #504B44",
"sP 	c #5C5B55",
"tP 	c #62635C",
"uP 	c #696A63",
"vP 	c #77756F",
"wP 	c #948A85",
"xP 	c #948581",
"yP 	c #6E5650",
"zP 	c #5F342A",
"AP 	c #652B1E",
"BP 	c #722C1F",
"CP 	c #7E2F26",
"DP 	c #82302B",
"EP 	c #762A27",
"FP 	c #5F2321",
"GP 	c #432120",
"HP 	c #3C3233",
"IP 	c #3D3E42",
"JP 	c #38424A",
"KP 	c #34414F",
"LP 	c #2C3348",
"MP 	c #2D2F46",
"NP 	c #404253",
"OP 	c #656A73",
"PP 	c #8D9498",
"QP 	c #B4BDBC",
"RP 	c #D9DEDA",
"SP 	c #F2F4EE",
"TP 	c #FCFDF7",
"UP 	c #FBFBFC",
"VP 	c #A2A2A2",
"WP 	c #CFC5B6",
"XP 	c #F4E6D5",
"YP 	c #F8E7D4",
"ZP 	c #FAE3CF",
"`P 	c #FADEC9",
" Q 	c #F9D7C0",
".Q 	c #F3CCB4",
"+Q 	c #ECBFA6",
"@Q 	c #EBB89F",
"#Q 	c #ECB49B",
"$Q 	c #EAAF95",
"%Q 	c #DD9F86",
"&Q 	c #C6856E",
"*Q 	c #AD6653",
"=Q 	c #94493A",
"-Q 	c #813629",
";Q 	c #7B3225",
">Q 	c #7A3428",
",Q 	c #7A3B2E",
"'Q 	c #885143",
")Q 	c #8A594A",
"!Q 	c #693E30",
"~Q 	c #462215",
"{Q 	c #2E1207",
"]Q 	c #2D1708",
"^Q 	c #2D1A0A",
"/Q 	c #241707",
"(Q 	c #1C1303",
"_Q 	c #181304",
":Q 	c #1C190D",
"<Q 	c #1F1E13",
"[Q 	c #202015",
"}Q 	c #1D1D15",
"|Q 	c #21231C",
"1Q 	c #2A2C25",
"2Q 	c #2E302A",
"3Q 	c #2F312C",
"4Q 	c #2E302D",
"5Q 	c #333335",
"6Q 	c #38373C",
"7Q 	c #3A393E",
"8Q 	c #39383D",
"9Q 	c #343339",
"0Q 	c #2B2A2F",
"aQ 	c #46454A",
"bQ 	c #4A494E",
"cQ 	c #424146",
"dQ 	c #242328",
"eQ 	c #0F0F15",
"fQ 	c #101218",
"gQ 	c #161E21",
"hQ 	c #1D2A2D",
"iQ 	c #243537",
"jQ 	c #213233",
"kQ 	c #1A282B",
"lQ 	c #202E31",
"mQ 	c #172427",
"nQ 	c #1B282B",
"oQ 	c #222E31",
"pQ 	c #1F292D",
"qQ 	c #161E22",
"rQ 	c #02030A",
"sQ 	c #010108",
"tQ 	c #02020A",
"uQ 	c #08070F",
"vQ 	c #07060E",
"wQ 	c #05030A",
"xQ 	c #0C0810",
"yQ 	c #100C14",
"zQ 	c #110D14",
"AQ 	c #100D15",
"BQ 	c #0D0D15",
"CQ 	c #0B0D16",
"DQ 	c #080D17",
"EQ 	c #0B121B",
"FQ 	c #131B24",
"GQ 	c #1B232C",
"HQ 	c #212A32",
"IQ 	c #222B33",
"JQ 	c #0B121A",
"KQ 	c #040913",
"LQ 	c #060915",
"MQ 	c #090A15",
"NQ 	c #0E0D19",
"OQ 	c #12101D",
"PQ 	c #14111E",
"QQ 	c #11101C",
"RQ 	c #12131F",
"SQ 	c #171B26",
"TQ 	c #192029",
"UQ 	c #18212A",
"VQ 	c #141F27",
"WQ 	c #202C34",
"XQ 	c #121C24",
"YQ 	c #030814",
"ZQ 	c #060814",
"`Q 	c #080710",
" R 	c #0A070A",
".R 	c #0D0806",
"+R 	c #180D04",
"@R 	c #221406",
"#R 	c #2C1A0B",
"$R 	c #331E0E",
"%R 	c #361E0D",
"&R 	c #331909",
"*R 	c #2C1004",
"=R 	c #280C02",
"-R 	c #2C180F",
";R 	c #392B24",
">R 	c #49423B",
",R 	c #57554D",
"'R 	c #5F6059",
")R 	c #63675F",
"!R 	c #6D6F69",
"~R 	c #918884",
"{R 	c #72615D",
"]R 	c #5A3D36",
"^R 	c #562419",
"/R 	c #6A291D",
"(R 	c #792C24",
"_R 	c #812C28",
":R 	c #7D2D2A",
"<R 	c #6B2825",
"[R 	c #481F1B",
"}R 	c #372624",
"|R 	c #312E31",
"1R 	c #2B323B",
"2R 	c #25313F",
"3R 	c #263245",
"4R 	c #353A52",
"5R 	c #31354C",
"6R 	c #222537",
"7R 	c #212732",
"8R 	c #41494C",
"9R 	c #6E7675",
"0R 	c #A8AEA9",
"aR 	c #D4D7D1",
"bR 	c #EEEFE9",
"cR 	c #F9F9F6",
"dR 	c #FCFCFA",
"eR 	c #F9F9FA",
"fR 	c #EDEDED",
"gR 	c #747474",
"hR 	c #807767",
"iR 	c #CEC0B0",
"jR 	c #F6E5D3",
"kR 	c #F9E4CF",
"lR 	c #F6DCC6",
"mR 	c #F3D4BD",
"nR 	c #EFCAB2",
"oR 	c #EABFA7",
"pR 	c #E6B59D",
"qR 	c #E4B097",
"rR 	c #E1A990",
"sR 	c #D99D84",
"tR 	c #C98B73",
"uR 	c #B4735F",
"vR 	c #9B5848",
"wR 	c #813D30",
"xR 	c #6C2A1F",
"yR 	c #6E2F24",
"zR 	c #783C31",
"AR 	c #7D463B",
"BR 	c #724237",
"CR 	c #5D342A",
"DR 	c #431F16",
"ER 	c #300F05",
"FR 	c #2C1006",
"GR 	c #291206",
"HR 	c #29180C",
"IR 	c #2B1D11",
"JR 	c #21160B",
"KR 	c #1B150B",
"LR 	c #242017",
"MR 	c #26241B",
"NR 	c #25251D",
"OR 	c #272621",
"PR 	c #2F2F2A",
"QR 	c #373732",
"RR 	c #30302C",
"SR 	c #282825",
"TR 	c #232322",
"UR 	c #212022",
"VR 	c #222125",
"WR 	c #252429",
"XR 	c #535156",
"YR 	c #78767B",
"ZR 	c #77757A",
"`R 	c #3F3E41",
" S 	c #020007",
".S 	c #09080D",
"+S 	c #192527",
"@S 	c #1E2D2E",
"#S 	c #1D2C2D",
"$S 	c #142223",
"%S 	c #121F21",
"&S 	c #111E20",
"*S 	c #0D191B",
"=S 	c #0B1518",
"-S 	c #0A1416",
";S 	c #081215",
">S 	c #060F12",
",S 	c #030A0D",
"'S 	c #010408",
")S 	c #000005",
"!S 	c #010107",
"~S 	c #05050D",
"{S 	c #0A0710",
"]S 	c #110E16",
"^S 	c #141119",
"/S 	c #131019",
"(S 	c #0F0C15",
"_S 	c #03040D",
":S 	c #020A12",
"<S 	c #050E15",
"[S 	c #071018",
"}S 	c #151D24",
"|S 	c #141D24",
"1S 	c #0A1119",
"2S 	c #080E16",
"3S 	c #040510",
"4S 	c #0B0A15",
"5S 	c #14111C",
"6S 	c #16121E",
"7S 	c #16111D",
"8S 	c #15101C",
"9S 	c #14111D",
"0S 	c #191C26",
"aS 	c #171D26",
"bS 	c #121B22",
"cS 	c #09151B",
"dS 	c #0A151B",
"eS 	c #030613",
"fS 	c #070714",
"gS 	c #0A0812",
"hS 	c #140F0E",
"iS 	c #120C08",
"jS 	c #130902",
"kS 	c #1D1104",
"lS 	c #2B1C0D",
"mS 	c #352313",
"nS 	c #352010",
"oS 	c #331A0B",
"pS 	c #321509",
"qS 	c #2F1207",
"rS 	c #2D140A",
"sS 	c #2E1D16",
"tS 	c #3F362F",
"uS 	c #524E46",
"vS 	c #606159",
"wS 	c #656961",
"xS 	c #676C65",
"yS 	c #777975",
"zS 	c #807C79",
"AS 	c #7B706C",
"BS 	c #62504C",
"CS 	c #4E251C",
"DS 	c #63281E",
"ES 	c #742A22",
"FS 	c #7C2722",
"GS 	c #7C2925",
"HS 	c #6F2925",
"IS 	c #552621",
"JS 	c #3F2420",
"KS 	c #30282A",
"LS 	c #2D3039",
"MS 	c #293140",
"NS 	c #293346",
"OS 	c #32374F",
"PS 	c #32364D",
"QS 	c #2C3144",
"RS 	c #28303D",
"SS 	c #2B353B",
"TS 	c #3C4544",
"US 	c #5D635F",
"VS 	c #8D918B",
"WS 	c #C1C3BD",
"XS 	c #E7E8E4",
"YS 	c #FBFCFA",
"ZS 	c #C7C7C7",
"`S 	c #AAAAAA",
" T 	c #929292",
".T 	c #A79B8B",
"+T 	c #D7C7B6",
"@T 	c #F9E5D2",
"#T 	c #FAE0CC",
"$T 	c #F5D7C1",
"%T 	c #EECCB5",
"&T 	c #E7BFA8",
"*T 	c #E0B29B",
"=T 	c #DAA890",
"-T 	c #D59F87",
";T 	c #CE957D",
">T 	c #C1856E",
",T 	c #B0735D",
"'T 	c #9D5F4C",
")T 	c #894A3C",
"!T 	c #75372D",
"~T 	c #662D25",
"{T 	c #6A342B",
"]T 	c #703E33",
"^T 	c #704137",
"/T 	c #5A3027",
"(T 	c #381006",
"_T 	c #2A0501",
":T 	c #2A0D06",
"<T 	c #2E140B",
"[T 	c #271107",
"}T 	c #27160D",
"|T 	c #2C1E15",
"1T 	c #23170F",
"2T 	c #1F1812",
"3T 	c #2D2722",
"4T 	c #332F29",
"5T 	c #34322D",
"6T 	c #34322F",
"7T 	c #373633",
"8T 	c #393835",
"9T 	c #2F2E2C",
"0T 	c #21201F",
"aT 	c #1B1919",
"bT 	c #100E10",
"cT 	c #565559",
"dT 	c #97959A",
"eT 	c #9C9A9F",
"fT 	c #6C6A6D",
"gT 	c #3C3B3D",
"hT 	c #131216",
"iT 	c #030307",
"jT 	c #111B1C",
"kT 	c #152222",
"lT 	c #152322",
"mT 	c #121E1E",
"nT 	c #0C1818",
"oT 	c #071313",
"pT 	c #091314",
"qT 	c #010709",
"rT 	c #03080B",
"sT 	c #030408",
"tT 	c #05050C",
"uT 	c #06050C",
"vT 	c #08060E",
"wT 	c #0D0A12",
"xT 	c #120F18",
"yT 	c #15111B",
"zT 	c #13111A",
"AT 	c #0E0B14",
"BT 	c #080812",
"CT 	c #090C14",
"DT 	c #070E15",
"ET 	c #040B12",
"FT 	c #00070E",
"GT 	c #080F16",
"HT 	c #090B14",
"IT 	c #06050F",
"JT 	c #0D0914",
"KT 	c #150F1A",
"LT 	c #17101B",
"MT 	c #160E1A",
"NT 	c #140D18",
"OT 	c #120D18",
"PT 	c #13111B",
"QT 	c #14161E",
"RT 	c #10161D",
"ST 	c #091319",
"TT 	c #020E13",
"UT 	c #000B11",
"VT 	c #010A12",
"WT 	c #000612",
"XT 	c #010312",
"YT 	c #040412",
"ZT 	c #0C0913",
"`T 	c #1D181C",
" U 	c #2D2727",
".U 	c #28211F",
"+U 	c #191109",
"@U 	c #1C1204",
"#U 	c #26190A",
"$U 	c #2F1F0F",
"%U 	c #2F1B0C",
"&U 	c #301709",
"*U 	c #32150A",
"=U 	c #311309",
"-U 	c #2D1208",
";U 	c #27130B",
">U 	c #362B23",
",U 	c #4A443C",
"'U 	c #5C5D54",
")U 	c #626962",
"!U 	c #727270",
"~U 	c #7A7370",
"{U 	c #665855",
"]U 	c #4D2D26",
"^U 	c #5A271E",
"/U 	c #6A251D",
"(U 	c #75221D",
"_U 	c #7A2722",
":U 	c #712A24",
"<U 	c #5B2822",
"[U 	c #46251F",
"}U 	c #342526",
"|U 	c #2E2D36",
"1U 	c #2B3140",
"2U 	c #2C3447",
"3U 	c #30364C",
"4U 	c #30354B",
"5U 	c #2E3447",
"6U 	c #2F3844",
"7U 	c #2C383E",
"8U 	c #253131",
"9U 	c #12221D",
"0U 	c #4D524D",
"aU 	c #91948F",
"bU 	c #CECFCC",
"cU 	c #F5F5F3",
"dU 	c #C4C4C4",
"eU 	c #939393",
"fU 	c #CBBEAE",
"gU 	c #E5D4C3",
"hU 	c #F9E2D0",
"iU 	c #F8DCC8",
"jU 	c #F3D1BD",
"kU 	c #ECC6B1",
"lU 	c #E3B8A2",
"mU 	c #D7A891",
"nU 	c #CA9781",
"oU 	c #BE8872",
"pU 	c #B27A64",
"qU 	c #A46954",
"rU 	c #945945",
"sU 	c #834938",
"tU 	c #763D30",
"uU 	c #6D372E",
"vU 	c #693830",
"wU 	c #683A32",
"xU 	c #63382F",
"yU 	c #562F26",
"zU 	c #432018",
"AU 	c #300F06",
"BU 	c #2C0E06",
"CU 	c #2D120B",
"DU 	c #2F160F",
"EU 	c #27110A",
"FU 	c #26140F",
"GU 	c #2C1C17",
"HU 	c #241A18",
"IU 	c #362E2B",
"JU 	c #403A37",
"KU 	c #433F3D",
"LU 	c #3F3D3B",
"MU 	c #3A3838",
"NU 	c #343233",
"OU 	c #A7A5A9",
"PU 	c #B3B1B5",
"QU 	c #9D9B9E",
"RU 	c #737174",
"SU 	c #343235",
"TU 	c #141215",
"UU 	c #070D0D",
"VU 	c #091211",
"WU 	c #0B1513",
"XU 	c #0A1312",
"YU 	c #0A1311",
"ZU 	c #0D1514",
"`U 	c #091110",
" V 	c #040A0A",
".V 	c #04090B",
"+V 	c #060A0D",
"@V 	c #08070D",
"#V 	c #09070E",
"$V 	c #0C0911",
"%V 	c #100E16",
"&V 	c #110E17",
"*V 	c #0B0912",
"=V 	c #0A0911",
"-V 	c #12141B",
";V 	c #0F141A",
">V 	c #090F15",
",V 	c #060D13",
"'V 	c #080E14",
")V 	c #060B11",
"!V 	c #0B0B13",
"~V 	c #0B0811",
"{V 	c #0E0812",
"]V 	c #120A15",
"^V 	c #150B16",
"/V 	c #120813",
"(V 	c #0E0610",
"_V 	c #0B0610",
":V 	c #050A10",
"<V 	c #020B10",
"[V 	c #000D10",
"}V 	c #031116",
"|V 	c #06131B",
"1V 	c #030C18",
"2V 	c #030516",
"3V 	c #0C0B19",
"4V 	c #221E27",
"5V 	c #393337",
"6V 	c #4B4345",
"7V 	c #403837",
"8V 	c #231C14",
"9V 	c #1B1205",
"0V 	c #1D1103",
"aV 	c #221204",
"bV 	c #281406",
"cV 	c #2E1106",
"dV 	c #2F1107",
"eV 	c #2D1107",
"fV 	c #271108",
"gV 	c #2D2018",
"hV 	c #3F372F",
"iV 	c #53524A",
"jV 	c #5D6058",
"kV 	c #5F655F",
"lV 	c #606764",
"mV 	c #686B6A",
"nV 	c #726E6E",
"oV 	c #665B59",
"pV 	c #543A35",
"qV 	c #502620",
"rV 	c #5D1C15",
"sV 	c #6D1F18",
"tV 	c #772720",
"uV 	c #722A22",
"vV 	c #5E2720",
"wV 	c #4B251F",
"xV 	c #3A2424",
"yV 	c #2F2830",
"zV 	c #2C2F3C",
"AV 	c #2E3446",
"BV 	c #30354A",
"CV 	c #2D3247",
"DV 	c #292F41",
"EV 	c #2C3742",
"FV 	c #303D42",
"GV 	c #323E3F",
"HV 	c #2C3635",
"IV 	c #3A413E",
"JV 	c #646965",
"KV 	c #B3B4B3",
"LV 	c #E9E9E9",
"MV 	c #C5C5C5",
"NV 	c #8D8D8D",
"OV 	c #6C6C6C",
"PV 	c #E9DACB",
"QV 	c #F2DECE",
"RV 	c #F2D8C6",
"SV 	c #EFD0BD",
"TV 	c #ECC7B4",
"UV 	c #E7BEAA",
"VV 	c #DFB29D",
"WV 	c #D1A18C",
"XV 	c #BC8A76",
"YV 	c #A87360",
"ZV 	c #945F4B",
"`V 	c #834C3A",
" W 	c #733D2C",
".W 	c #663324",
"+W 	c #633227",
"@W 	c #653830",
"#W 	c #673E37",
"$W 	c #603A33",
"%W 	c #523028",
"&W 	c #3F1F18",
"*W 	c #30120A",
"=W 	c #280D05",
"-W 	c #2B110A",
";W 	c #2D130E",
">W 	c #2C140F",
",W 	c #27100C",
"'W 	c #291412",
")W 	c #2E1C1B",
"!W 	c #261615",
"~W 	c #291E1E",
"{W 	c #3D3333",
"]W 	c #4A4243",
"^W 	c #4E4849",
"/W 	c #454143",
"(W 	c #3C383B",
"_W 	c #302C2F",
":W 	c #969397",
"<W 	c #B7B4B7",
"[W 	c #D4D0D2",
"}W 	c #B0ADAE",
"|W 	c #5F5B5E",
"1W 	c #302E30",
"2W 	c #121112",
"3W 	c #040805",
"4W 	c #050A06",
"5W 	c #070C09",
"6W 	c #080D09",
"7W 	c #0A0F0B",
"8W 	c #0E1310",
"9W 	c #0C100E",
"0W 	c #060A08",
"aW 	c #070A0A",
"bW 	c #090B0D",
"cW 	c #0A0C0E",
"dW 	c #0B0B0E",
"eW 	c #0A0A0E",
"fW 	c #07060C",
"gW 	c #0C0B11",
"hW 	c #08060D",
"iW 	c #0A0810",
"jW 	c #13141A",
"kW 	c #040A0F",
"lW 	c #01090D",
"mW 	c #050C10",
"nW 	c #04080D",
"oW 	c #100A12",
"pW 	c #100711",
"qW 	c #10040F",
"rW 	c #150713",
"sW 	c #170914",
"tW 	c #150712",
"uW 	c #09020B",
"vW 	c #030208",
"wW 	c #010307",
"xW 	c #000508",
"yW 	c #021013",
"zW 	c #09111D",
"AW 	c #111222",
"BW 	c #23212F",
"CW 	c #454049",
"DW 	c #5E575C",
"EW 	c #6C6466",
"FW 	c #57504F",
"GW 	c #28211B",
"HW 	c #140B03",
"IW 	c #110500",
"JW 	c #1A0A02",
"KW 	c #2B170C",
"LW 	c #30180D",
"MW 	c #2C0F06",
"NW 	c #2E1007",
"OW 	c #2D1108",
"PW 	c #260E05",
"QW 	c #25140B",
"RW 	c #322922",
"SW 	c #49463E",
"TW 	c #56574F",
"UW 	c #5C605A",
"VW 	c #5A5F5E",
"WW 	c #5F6163",
"XW 	c #6A686A",
"YW 	c #695F5F",
"ZW 	c #5F4A48",
"`W 	c #4B2B27",
" X 	c #4F140C",
".X 	c #621A13",
"+X 	c #70251D",
"@X 	c #6F2820",
"#X 	c #61261F",
"$X 	c #51251F",
"%X 	c #412423",
"&X 	c #32242A",
"*X 	c #2E2B38",
"=X 	c #303242",
"-X 	c #303446",
";X 	c #2C3143",
">X 	c #272E3E",
",X 	c #2B3540",
"'X 	c #323D44",
")X 	c #374246",
"!X 	c #313B3D",
"~X 	c #2A3232",
"{X 	c #404543",
"]X 	c #E2E2E2",
"^X 	c #C2C2C2",
"/X 	c #A6A6A6",
"(X 	c #919191",
"_X 	c #838383",
":X 	c #B1A499",
"<X 	c #F5E5D7",
"[X 	c #F9E4D4",
"}X 	c #F0D3C2",
"|X 	c #EDCAB9",
"1X 	c #ECC4B3",
"2X 	c #EABEAD",
"3X 	c #E3B4A2",
"4X 	c #D4A391",
"5X 	c #BA8876",
"6X 	c #9D6B5A",
"7X 	c #824F3F",
"8X 	c #6F3A2B",
"9X 	c #5E2B1C",
"0X 	c #55271A",
"aX 	c #572E24",
"bX 	c #5D372F",
"cX 	c #5E3C36",
"dX 	c #52342D",
"eX 	c #40251F",
"fX 	c #2E140E",
"gX 	c #260C06",
"hX 	c #270F09",
"iX 	c #29100C",
"jX 	c #280E0B",
"kX 	c #290F0E",
"lX 	c #2D1516",
"mX 	c #311B1D",
"nX 	c #2A1718",
"oX 	c #2D1F21",
"pX 	c #403436",
"qX 	c #4B4244",
"rX 	c #4E4749",
"sX 	c #423D40",
"tX 	c #383337",
"uX 	c #B0ACAE",
"vX 	c #E2DEDF",
"wX 	c #CDC9CA",
"xX 	c #969294",
"yX 	c #646061",
"zX 	c #383434",
"AX 	c #201E1C",
"BX 	c #100E09",
"CX 	c #090903",
"DX 	c #080803",
"EX 	c #0A0A05",
"FX 	c #0E0E0A",
"GX 	c #0C0D09",
"HX 	c #080906",
"IX 	c #090907",
"JX 	c #090908",
"KX 	c #080908",
"LX 	c #0A0B0B",
"MX 	c #0B0B0D",
"NX 	c #0B0B0C",
"OX 	c #0A090C",
"PX 	c #07070A",
"QX 	c #07060B",
"RX 	c #06050B",
"SX 	c #0E0E13",
"TX 	c #080B0F",
"UX 	c #02090B",
"VX 	c #060C0F",
"WX 	c #03060A",
"XX 	c #05050A",
"YX 	c #0C060D",
"ZX 	c #120A12",
"`X 	c #12060F",
" Y 	c #10010A",
".Y 	c #15040E",
"+Y 	c #180611",
"@Y 	c #170610",
"#Y 	c #12030D",
"$Y 	c #0C0109",
"%Y 	c #050208",
"&Y 	c #03090B",
"*Y 	c #051111",
"=Y 	c #0B191A",
"-Y 	c #162126",
";Y 	c #252A35",
">Y 	c #333442",
",Y 	c #474451",
"'Y 	c #67626B",
")Y 	c #7A7379",
"!Y 	c #7D7476",
"~Y 	c #615959",
"{Y 	c #2C2520",
"]Y 	c #120903",
"^Y 	c #0B0100",
"/Y 	c #180903",
"(Y 	c #2E1B12",
"_Y 	c #331C13",
":Y 	c #2C1009",
"<Y 	c #2D0F08",
"[Y 	c #2D1009",
"}Y 	c #270D06",
"|Y 	c #210B03",
"1Y 	c #281D15",
"2Y 	c #3D3830",
"3Y 	c #4F4D46",
"4Y 	c #595A56",
"5Y 	c #565859",
"6Y 	c #595A5E",
"7Y 	c #646265",
"8Y 	c #6C6263",
"9Y 	c #665655",
"0Y 	c #4B3330",
"aY 	c #46120B",
"bY 	c #56150E",
"cY 	c #662017",
"dY 	c #6A251C",
"eY 	c #62261E",
"fY 	c #572520",
"gY 	c #482322",
"hY 	c #372126",
"iY 	c #312832",
"jY 	c #322F3C",
"kY 	c #303140",
"lY 	c #2C3140",
"mY 	c #29303E",
"nY 	c #2A333E",
"oY 	c #2F3941",
"pY 	c #343F44",
"qY 	c #313A3E",
"rY 	c #232B2F",
"sY 	c #292D2F",
"tY 	c #F1F0F1",
"uY 	c #FBFAFB",
"vY 	c #E7E7E7",
"wY 	c #E6E6E6",
"xY 	c #D6D6D6",
"yY 	c #BCBCBC",
"zY 	c #A5A5A5",
"AY 	c #999999",
"BY 	c #969696",
"CY 	c #848484",
"DY 	c #B0A196",
"EY 	c #F3E1D4",
"FY 	c #FCE4D5",
"GY 	c #F6D5C6",
"HY 	c #F2CDBE",
"IY 	c #F1C7B8",
"JY 	c #F1C2B3",
"KY 	c #EAB9AA",
"LY 	c #D8A899",
"MY 	c #BC8C7D",
"NY 	c #9D6D5F",
"OY 	c #7F4F41",
"PY 	c #6C3C2E",
"QY 	c #5E3023",
"RY 	c #562D21",
"SY 	c #553027",
"TY 	c #53332B",
"UY 	c #4E322B",
"VY 	c #402721",
"WY 	c #311A14",
"XY 	c #28110B",
"YY 	c #2B130F",
"ZY 	c #270E0A",
"`Y 	c #220805",
" Z 	c #220605",
".Z 	c #2B0F10",
"+Z 	c #321618",
"@Z 	c #331A1C",
"#Z 	c #2D1619",
"$Z 	c #301E20",
"%Z 	c #3E2F32",
"&Z 	c #44393C",
"*Z 	c #433A3D",
"=Z 	c #352E32",
"-Z 	c #292528",
";Z 	c #999697",
">Z 	c #CAC6C7",
",Z 	c #D2CECF",
"'Z 	c #C5C0C2",
")Z 	c #948F90",
"!Z 	c #615C5B",
"~Z 	c #3D3734",
"{Z 	c #231E19",
"]Z 	c #16100A",
"^Z 	c #110C05",
"/Z 	c #0E0902",
"(Z 	c #0D0802",
"_Z 	c #0F0A05",
":Z 	c #0E0A05",
"<Z 	c #0C0904",
"[Z 	c #0D0906",
"}Z 	c #0D0A07",
"|Z 	c #0B0A06",
"1Z 	c #0A0907",
"2Z 	c #0A0908",
"3Z 	c #0B0909",
"4Z 	c #090808",
"5Z 	c #070607",
"6Z 	c #060507",
"7Z 	c #070709",
"8Z 	c #0A090D",
"9Z 	c #060609",
"0Z 	c #040406",
"aZ 	c #040407",
"bZ 	c #08090B",
"cZ 	c #070A0B",
"dZ 	c #05090A",
"eZ 	c #080C0D",
"fZ 	c #080B0D",
"gZ 	c #040507",
"hZ 	c #050206",
"iZ 	c #0B0409",
"jZ 	c #14080F",
"kZ 	c #14060D",
"lZ 	c #120107",
"mZ 	c #16020A",
"nZ 	c #18030C",
"oZ 	c #17030C",
"pZ 	c #14030B",
"qZ 	c #12060C",
"rZ 	c #130D11",
"sZ 	c #151516",
"tZ 	c #181D1D",
"uZ 	c #1B2724",
"vZ 	c #222F2E",
"wZ 	c #2D393C",
"xZ 	c #404550",
"yZ 	c #525361",
"zZ 	c #666471",
"AZ 	c #827D87",
"BZ 	c #8D858C",
"CZ 	c #7F7679",
"DZ 	c #605857",
"EZ 	c #342D28",
"FZ 	c #1B130C",
"GZ 	c #120701",
"HZ 	c #1B0E06",
"IZ 	c #2D1B14",
"JZ 	c #331D16",
"KZ 	c #2E130E",
"LZ 	c #2E0F0C",
"MZ 	c #2D0F0B",
"NZ 	c #2A0E08",
"OZ 	c #230A03",
"PZ 	c #22140C",
"QZ 	c #322B23",
"RZ 	c #46423C",
"SZ 	c #555450",
"TZ 	c #555455",
"UZ 	c #57555A",
"VZ 	c #615C62",
"WZ 	c #6B6265",
"XZ 	c #6A5C5C",
"YZ 	c #503B39",
"ZZ 	c #441B16",
"`Z 	c #4B130B",
" ` 	c #59180F",
".` 	c #611F17",
"+` 	c #62241D",
"@` 	c #5B2520",
"#` 	c #4F2321",
"$` 	c #3E2024",
"%` 	c #35242B",
"&` 	c #312933",
"*` 	c #2E2D39",
"=` 	c #2D323E",
"-` 	c #2D3540",
";` 	c #29323C",
">` 	c #27323A",
",` 	c #2A353B",
"'` 	c #242C33",
")` 	c #282B30",
"!` 	c #C7C6C8",
"~` 	c #EBE9EA",
"{` 	c #FAF9FA",
"]` 	c #DCDCDC",
"^` 	c #D4D4D4",
"/` 	c #C6C6C6",
"(` 	c #B4B4B4",
"_` 	c #A4A4A4",
":` 	c #8A8A8A",
"<` 	c #C1ADA2",
"[` 	c #F3DCCF",
"}` 	c #FEE1D4",
"|` 	c #F9D5C8",
"1` 	c #F0C8BB",
"2` 	c #E9BDB0",
"3` 	c #E2B2A5",
"4` 	c #D6A699",
"5` 	c #C39386",
"6` 	c #A7786B",
"7` 	c #8A5C50",
"8` 	c #704338",
"9` 	c #61362B",
"0` 	c #583025",
"a` 	c #542F25",
"b` 	c #502F26",
"c` 	c #492C24",
"d` 	c #3E251E",
"e` 	c #311B15",
"f` 	c #28130D",
"g` 	c #29140D",
"h` 	c #2D1712",
"i` 	c #2E1612",
"j` 	c #260C08",
"k` 	c #200301",
"l` 	c #210303",
"m` 	c #2D0C0F",
"n` 	c #321216",
"o` 	c #321418",
"p` 	c #2E1217",
"q` 	c #301A1D",
"r` 	c #382729",
"s` 	c #382B2E",
"t` 	c #342B2D",
"u` 	c #292225",
"v` 	c #A39FA0",
"w` 	c #C9C4C6",
"x` 	c #D6D0D2",
"y` 	c #BBB5B4",
"z` 	c #928A88",
"A` 	c #5E5450",
"B` 	c #261B13",
"C` 	c #1F140C",
"D` 	c #1A0F06",
"E` 	c #170D05",
"F` 	c #170D06",
"G` 	c #170D07",
"H` 	c #150D07",
"I` 	c #140E08",
"J` 	c #130E08",
"K` 	c #100D08",
"L` 	c #0D0A06",
"M` 	c #0C0906",
"N` 	c #0E0B09",
"O` 	c #0D0B0A",
"P` 	c #0C0B0A",
"Q` 	c #0C0B0C",
"R` 	c #0E0F0F",
"S` 	c #111212",
"T` 	c #111214",
"U` 	c #101013",
"V` 	c #131415",
"W` 	c #121313",
"X` 	c #0B0B0A",
"Y` 	c #070606",
"Z` 	c #101010",
"`` 	c #0F100F",
"  .	c #090B0A",
". .	c #090C0B",
"+ .	c #060606",
"@ .	c #060203",
"# .	c #0D0305",
"$ .	c #17080D",
"% .	c #1A080D",
"& .	c #1A040A",
"* .	c #1B030A",
"= .	c #1A0209",
"- .	c #1A040C",
"; .	c #201115",
"> .	c #292022",
", .	c #312F2F",
"' .	c #393D3A",
") .	c #3E4944",
"! .	c #44524E",
"~ .	c #4D595B",
"{ .	c #596069",
"] .	c #686977",
"^ .	c #787583",
"/ .	c #8A838E",
"( .	c #8B838A",
"_ .	c #756C6F",
": .	c #5D5454",
"< .	c #453C3A",
"[ .	c #2D2521",
"} .	c #1D130D",
"| .	c #1E100B",
"1 .	c #261410",
"2 .	c #2D1714",
"3 .	c #311614",
"4 .	c #301210",
"5 .	c #2E100D",
"6 .	c #2E120C",
"7 .	c #280E07",
"8 .	c #221007",
"9 .	c #2B2018",
"0 .	c #3F3833",
"a .	c #514C49",
"b .	c #565154",
"c .	c #5A545B",
"d .	c #5F5960",
"e .	c #675F63",
"f .	c #685D5E",
"g .	c #584644",
"h .	c #492D28",
"i .	c #44160E",
"j .	c #4C1207",
"k .	c #581A11",
"l .	c #60221A",
"m .	c #5E231D",
"n .	c #552220",
"o .	c #462022",
"p .	c #3A2125",
"q .	c #31242A",
"r .	c #2C2830",
"s .	c #303940",
"t .	c #29323A",
"u .	c #222C35",
"v .	c #242D36",
"w .	c #282E38",
"x .	c #2B2E36",
"y .	c #7A7A7E",
"z .	c #B9B7BA",
"A .	c #E9E6E7",
"B .	c #FDFBFC",
"C .	c #F0EFF0",
"D .	c #E4E4E4",
"E .	c #DEDEDE",
"F .	c #C8C8C8",
"G .	c #AEAEAE",
"H .	c #A0A0A0",
"I .	c #C3AFA5",
"J .	c #DAC3B8",
"K .	c #F6DACF",
"L .	c #FEDDD2",
"M .	c #F9D2C7",
"N .	c #EABFB5",
"O .	c #D9ABA1",
"P .	c #C7988D",
"Q .	c #B4857A",
"R .	c #9E7066",
"S .	c #84584E",
"T .	c #6C4239",
"U .	c #5A3129",
"V .	c #532D25",
"W .	c #502E25",
"X .	c #4F2F27",
"Y .	c #492B23",
"Z .	c #3F241C",
"` .	c #311811",
" ..	c #28110A",
"...	c #26110A",
"+..	c #2B1710",
"@..	c #301813",
"#..	c #2F1612",
"$..	c #280B08",
"%..	c #230302",
"&..	c #260203",
"*..	c #2E080C",
"=..	c #310B10",
"-..	c #2F0B11",
";..	c #2D0C12",
">..	c #2D1317",
",..	c #301C1E",
"'..	c #2C1D1E",
")..	c #251A1B",
"!..	c #B2ACAE",
"~..	c #D0CACB",
"{..	c #CFC7C6",
"]..	c #B2A8A5",
"^..	c #7A6D67",
"/..	c #51423A",
"(..	c #36261D",
"_..	c #2E1E15",
":..	c #291910",
"<..	c #25160D",
"[..	c #24160D",
"}..	c #23160E",
"|..	c #21160F",
"1..	c #1E140D",
"2..	c #1A120B",
"3..	c #160F09",
"4..	c #120C07",
"5..	c #15110D",
"6..	c #151310",
"7..	c #151412",
"8..	c #171715",
"9..	c #1A1B1A",
"0..	c #1D1E1D",
"a..	c #1B1D1D",
"b..	c #191B1C",
"c..	c #181A1B",
"d..	c #1D1F1E",
"e..	c #20211F",
"f..	c #201F1C",
"g..	c #201D1B",
"h..	c #211E1C",
"i..	c #232320",
"j..	c #1E1E1B",
"k..	c #0F100D",
"l..	c #0A0B08",
"m..	c #090A07",
"n..	c #090705",
"o..	c #090302",
"p..	c #100304",
"q..	c #1A0A0C",
"r..	c #210C10",
"s..	c #250B11",
"t..	c #260B11",
"u..	c #270B12",
"v..	c #290F15",
"w..	c #2F181D",
"x..	c #423738",
"y..	c #4A4645",
"z..	c #4F534E",
"A..	c #515B55",
"B..	c #54615D",
"C..	c #596566",
"D..	c #60676F",
"E..	c #6E6F7C",
"F..	c #7E7A88",
"G..	c #89818D",
"H..	c #857B83",
"I..	c #6D6265",
"J..	c #5C5252",
"K..	c #504645",
"L..	c #372E2B",
"M..	c #1F1511",
"N..	c #1B0E0B",
"O..	c #1E0C0B",
"P..	c #281212",
"Q..	c #341919",
"R..	c #331515",
"S..	c #30110F",
"T..	c #32140F",
"U..	c #251007",
"V..	c #27170F",
"W..	c #392E2A",
"X..	c #4C4341",
"Y..	c #574D52",
"Z..	c #5D525B",
"`..	c #5E565E",
" +.	c #625A60",
".+.	c #645A5D",
"++.	c #5F514F",
"@+.	c #523D38",
"#+.	c #411E16",
"$+.	c #421004",
"%+.	c #4F140A",
"&+.	c #5D1D15",
"*+.	c #5E1F19",
"=+.	c #58201D",
"-+.	c #4D2121",
";+.	c #3F1F21",
">+.	c #311F22",
",+.	c #2A2427",
"'+.	c #2C3034",
")+.	c #30393D",
"!+.	c #283138",
"~+.	c #212A34",
"{+.	c #232A36",
"]+.	c #2A303D",
"^+.	c #2B303E",
"/+.	c #2D303C",
"(+.	c #69686E",
"_+.	c #A9A6AA",
":+.	c #E7E4E6",
"<+.	c #FAF8F9",
"[+.	c #D7D7D7",
"}+.	c #CDCDCD",
"|+.	c #979797",
"1+.	c #828282",
"2+.	c #E3CFC4",
"3+.	c #F4DDD2",
"4+.	c #FBDDD2",
"5+.	c #FDD9CF",
"6+.	c #F5CDC3",
"7+.	c #E0B4AB",
"8+.	c #C6978F",
"9+.	c #A97A72",
"0+.	c #8F6058",
"a+.	c #764941",
"b+.	c #5F362F",
"c+.	c #4F2821",
"d+.	c #47221C",
"e+.	c #472520",
"f+.	c #492B24",
"g+.	c #492D25",
"h+.	c #40251D",
"i+.	c #351B14",
"j+.	c #2B120B",
"k+.	c #270F08",
"l+.	c #28120B",
"m+.	c #2D1610",
"n+.	c #2E1510",
"o+.	c #2A0A07",
"p+.	c #2B0605",
"q+.	c #2D0406",
"r+.	c #300408",
"s+.	c #30030A",
"t+.	c #2E040B",
"u+.	c #2B060C",
"v+.	c #290B0F",
"w+.	c #281113",
"x+.	c #231213",
"y+.	c #A8A1A2",
"z+.	c #CDC3C3",
"A+.	c #C0B4B2",
"B+.	c #91817B",
"C+.	c #67544C",
"D+.	c #473227",
"E+.	c #3E291F",
"F+.	c #38241A",
"G+.	c #342117",
"H+.	c #322016",
"I+.	c #302017",
"J+.	c #2D1F17",
"K+.	c #271B13",
"L+.	c #20150E",
"M+.	c #1A110A",
"N+.	c #171009",
"O+.	c #19130D",
"P+.	c #1D1814",
"Q+.	c #1F1C18",
"R+.	c #201F1B",
"S+.	c #222220",
"T+.	c #272825",
"U+.	c #292B29",
"V+.	c #252927",
"W+.	c #212524",
"X+.	c #202423",
"Y+.	c #262826",
"Z+.	c #2E2E2C",
"`+.	c #363330",
" @.	c #393531",
".@.	c #393733",
"+@.	c #2E2E2A",
"@@.	c #161712",
"#@.	c #0A0B06",
"$@.	c #090804",
"%@.	c #0C0905",
"&@.	c #130505",
"*@.	c #1E0C0D",
"=@.	c #281013",
"-@.	c #301318",
";@.	c #35161B",
">@.	c #391A20",
",@.	c #3E2126",
"'@.	c #472D31",
")@.	c #513D3F",
"!@.	c #5A4D4E",
"~@.	c #5E5856",
"{@.	c #5C5D58",
"]@.	c #555E57",
"^@.	c #505D56",
"/@.	c #4F5A59",
"(@.	c #4F565C",
"_@.	c #61626E",
":@.	c #7A7784",
"<@.	c #867E89",
"[@.	c #82787F",
"}@.	c #5F5454",
"|@.	c #534947",
"1@.	c #372E2C",
"2@.	c #120704",
"3@.	c #120504",
"4@.	c #1A090A",
"5@.	c #291215",
"6@.	c #351A1D",
"7@.	c #341618",
"8@.	c #311211",
"9@.	c #341511",
"0@.	c #31140E",
"a@.	c #29120A",
"b@.	c #25130C",
"c@.	c #322421",
"d@.	c #453838",
"e@.	c #55474D",
"f@.	c #5D4F59",
"g@.	c #5E535C",
"h@.	c #5D555D",
"i@.	c #5E575B",
"j@.	c #635959",
"k@.	c #594A46",
"l@.	c #432920",
"m@.	c #3D1507",
"n@.	c #471005",
"o@.	c #57170E",
"p@.	c #5C1914",
"q@.	c #591C19",
"r@.	c #51201F",
"s@.	c #431E1E",
"t@.	c #331D1C",
"u@.	c #292220",
"v@.	c #282D2D",
"w@.	c #2C3537",
"x@.	c #273036",
"y@.	c #272E3D",
"z@.	c #2D3243",
"A@.	c #2B2D3C",
"B@.	c #56535C",
"C@.	c #98959A",
"D@.	c #E5E2E4",
"E@.	c #FBF9FB",
"F@.	c #F1EFF0",
"G@.	c #EBEAEB",
"H@.	c #D0D0D0",
"I@.	c #9B9B9B",
"J@.	c #888888",
"K@.	c #8B8B8B",
"L@.	c #9A9A9A",
"M@.	c #E4D0C6",
"N@.	c #FAE1D6",
"O@.	c #F5D6CC",
"P@.	c #F2CDC4",
"Q@.	c #EBC1B9",
"R@.	c #D5A7A0",
"S@.	c #B98882",
"T@.	c #996862",
"U@.	c #7C4B46",
"V@.	c #643530",
"W@.	c #522825",
"X@.	c #4A2623",
"Y@.	c #492A26",
"Z@.	c #4A2E2A",
"`@.	c #492F2A",
" #.	c #452B26",
".#.	c #391F19",
"+#.	c #2F130C",
"@#.	c #2A0F08",
"##.	c #2A1008",
"$#.	c #2B120A",
"%#.	c #2C130D",
"&#.	c #2B100B",
"*#.	c #2B0C07",
"=#.	c #2D0907",
"-#.	c #320908",
";#.	c #36070A",
">#.	c #350308",
",#.	c #350309",
"'#.	c #35050C",
")#.	c #2F0409",
"!#.	c #270408",
"~#.	c #22080A",
"{#.	c #B6ACAB",
"]#.	c #BBACA9",
"^#.	c #AB9790",
"/#.	c #836D64",
"(#.	c #594035",
"_#.	c #4E352A",
":#.	c #452D22",
"<#.	c #3F281D",
"[#.	c #39241A",
"}#.	c #362419",
"|#.	c #332218",
"1#.	c #2B1C13",
"2#.	c #22150C",
"3#.	c #1B1008",
"4#.	c #1D160F",
"5#.	c #231E17",
"6#.	c #26221C",
"7#.	c #282621",
"8#.	c #2A2A26",
"9#.	c #2E302B",
"0#.	c #30332F",
"a#.	c #2B2E2B",
"b#.	c #242826",
"c#.	c #202523",
"d#.	c #252926",
"e#.	c #333430",
"f#.	c #43403C",
"g#.	c #4A4440",
"h#.	c #4C4641",
"i#.	c #4C4944",
"j#.	c #3D3C37",
"k#.	c #1D1D17",
"l#.	c #0B0B04",
"m#.	c #0B0803",
"n#.	c #100C06",
"o#.	c #110906",
"p#.	c #160706",
"q#.	c #1F0C0C",
"r#.	c #290F12",
"s#.	c #321318",
"t#.	c #3A191E",
"u#.	c #432126",
"v#.	c #4B2B30",
"w#.	c #53373B",
"x#.	c #5B4546",
"y#.	c #605251",
"z#.	c #5E5754",
"A#.	c #575751",
"B#.	c #4B524A",
"C#.	c #414D46",
"D#.	c #3E4945",
"E#.	c #5E5E69",
"F#.	c #807C88",
"G#.	c #888089",
"H#.	c #80767C",
"I#.	c #6D6164",
"J#.	c #5D5152",
"K#.	c #4D4241",
"L#.	c #060000",
"M#.	c #0D0102",
"N#.	c #19080C",
"O#.	c #271116",
"P#.	c #32171C",
"Q#.	c #34161A",
"R#.	c #331415",
"S#.	c #341512",
"T#.	c #2C120C",
"U#.	c #2C1B17",
"V#.	c #3C2B2C",
"W#.	c #4F3E45",
"X#.	c #5B4A54",
"Y#.	c #5F515B",
"Z#.	c #5B525B",
"`#.	c #5A5559",
" $.	c #625C5B",
".$.	c #5B504B",
"+$.	c #48352B",
"@$.	c #3E1F12",
"#$.	c #420F03",
"$$.	c #501007",
"%$.	c #57120D",
"&$.	c #581614",
"*$.	c #521C1B",
"=$.	c #461C1B",
"-$.	c #381D1A",
";$.	c #2B221C",
">$.	c #262A26",
",$.	c #263030",
"'$.	c #252F34",
")$.	c #272E3A",
"!$.	c #2A3041",
"~$.	c #2E3347",
"{$.	c #2C3045",
"]$.	c #262839",
"^$.	c #44414B",
"/$.	c #8C888D",
"($.	c #E3E1E3",
"_$.	c #F8F6F8",
":$.	c #E8E7E8",
"<$.	c #E5E4E5",
"[$.	c #B7B7B7",
"}$.	c #A3A3A3",
"|$.	c #757575",
"1$.	c #7C7C7C",
"2$.	c #938479",
"3$.	c #DAC5BA",
"4$.	c #F1D7CC",
"5$.	c #E5C5BB",
"6$.	c #DDB6AE",
"7$.	c #D4A8A2",
"8$.	c #C1928C",
"9$.	c #A87873",
"0$.	c #8D5C57",
"a$.	c #764541",
"b$.	c #633531",
"c$.	c #582F2C",
"d$.	c #54312F",
"e$.	c #523531",
"f$.	c #4E3531",
"g$.	c #47302C",
"h$.	c #3E2723",
"i$.	c #331A15",
"j$.	c #2C1008",
"k$.	c #2B0F06",
"l$.	c #2C1007",
"m$.	c #2C1108",
"n$.	c #2B1008",
"o$.	c #2A0B05",
"p$.	c #2B0703",
"q$.	c #300805",
"r$.	c #370909",
"s$.	c #3C090C",
"t$.	c #3C060A",
"u$.	c #3F090F",
"v$.	c #421016",
"w$.	c #37090F",
"x$.	c #280104",
"y$.	c #1D0102",
"z$.	c #857B79",
"A$.	c #B3A19C",
"B$.	c #C5B0A8",
"C$.	c #9C857D",
"D$.	c #6A5044",
"E$.	c #5B4035",
"F$.	c #4E3329",
"G$.	c #442A1F",
"H$.	c #3B241A",
"I$.	c #372217",
"J$.	c #342016",
"K$.	c #211208",
"L$.	c #1A0D04",
"M$.	c #20170F",
"N$.	c #272018",
"O$.	c #2A251E",
"P$.	c #2C2923",
"Q$.	c #2E2E28",
"R$.	c #32332E",
"S$.	c #333530",
"T$.	c #2B2F2B",
"U$.	c #222723",
"V$.	c #1C221E",
"W$.	c #1F2521",
"X$.	c #31332F",
"Y$.	c #474440",
"Z$.	c #524C47",
"`$.	c #57514B",
" %.	c #58544F",
".%.	c #484541",
"+%.	c #22211B",
"@%.	c #0D0B04",
"#%.	c #0E0A04",
"$%.	c #150F0A",
"%%.	c #160C08",
"&%.	c #180706",
"*%.	c #1E0908",
"=%.	c #240A0C",
"-%.	c #2D0E12",
";%.	c #38161A",
">%.	c #432025",
",%.	c #4C2B30",
"'%.	c #533739",
")%.	c #584142",
"!%.	c #584948",
"~%.	c #524A46",
"{%.	c #47463E",
"]%.	c #393F37",
"^%.	c #2F3A31",
"/%.	c #313A36",
"(%.	c #3E4348",
"_%.	c #6A6972",
":%.	c #8F8B95",
"<%.	c #8C848D",
"[%.	c #7B7075",
"}%.	c #685C5F",
"|%.	c #564A4B",
"1%.	c #0D0203",
"2%.	c #17070C",
"3%.	c #220D13",
"4%.	c #2C1319",
"5%.	c #33151A",
"6%.	c #351618",
"7%.	c #331412",
"8%.	c #31130E",
"9%.	c #271009",
"0%.	c #27130E",
"a%.	c #321F1F",
"b%.	c #48333A",
"c%.	c #58444D",
"d%.	c #604F5A",
"e%.	c #5C515A",
"f%.	c #585358",
"g%.	c #5E5959",
"h%.	c #5A534E",
"i%.	c #4E4136",
"j%.	c #41291D",
"k%.	c #3F1204",
"l%.	c #480902",
"m%.	c #510B06",
"n%.	c #55110E",
"o%.	c #501715",
"p%.	c #481B19",
"q%.	c #3D1F1B",
"r%.	c #30241C",
"s%.	c #252720",
"t%.	c #222A28",
"u%.	c #252D32",
"v%.	c #282F3B",
"w%.	c #2B3041",
"x%.	c #2D3347",
"y%.	c #2A2F44",
"z%.	c #212336",
"A%.	c #383440",
"B%.	c #848085",
"C%.	c #DFDCDF",
"D%.	c #F4F1F3",
"E%.	c #E1DFE0",
"F%.	c #DDDCDC",
"G%.	c #D8D8D8",
"H%.	c #CCCBCC",
"I%.	c #A6A6A7",
"J%.	c #858585",
"K%.	c #6E6E6E",
"L%.	c #656565",
"M%.	c #616161",
"N%.	c #6F6F6F",
"O%.	c #878787",
"P%.	c #787777",
"Q%.	c #AB9A8C",
"R%.	c #D0B9AB",
"S%.	c #DEC2B4",
"T%.	c #CFADA0",
"U%.	c #BB9488",
"V%.	c #A67B72",
"W%.	c #986A62",
"X%.	c #885951",
"Y%.	c #77463F",
"Z%.	c #683831",
"`%.	c #5E312B",
" &.	c #59312D",
".&.	c #573531",
"+&.	c #513531",
"@&.	c #442D29",
"#&.	c #34211E",
"$&.	c #271512",
"%&.	c #2A1107",
"&&.	c #2A1004",
"*&.	c #2B1005",
"=&.	c #2B0F05",
"-&.	c #2C0D04",
";&.	c #2C0802",
">&.	c #2D0501",
",&.	c #320402",
"'&.	c #390506",
")&.	c #40070B",
"!&.	c #43090F",
"~&.	c #4A1419",
"{&.	c #501D22",
"]&.	c #401218",
"^&.	c #2A0105",
"/&.	c #C5B4AE",
"(&.	c #DFCCC5",
"_&.	c #B19D94",
":&.	c #786154",
"<&.	c #624B3F",
"[&.	c #4F382D",
"}&.	c #412A1F",
"|&.	c #361F16",
"1&.	c #311B12",
"2&.	c #2E1A11",
"3&.	c #26130A",
"4&.	c #1E0C04",
"5&.	c #180802",
"6&.	c #1A0C04",
"7&.	c #20140D",
"8&.	c #271D16",
"9&.	c #2A231C",
"0&.	c #2D2821",
"a&.	c #2F2C27",
"b&.	c #32312C",
"c&.	c #31332D",
"d&.	c #272B25",
"e&.	c #1C211C",
"f&.	c #141A15",
"g&.	c #171D17",
"h&.	c #292B26",
"i&.	c #3F3D39",
"j&.	c #56514D",
"k&.	c #5B5754",
"l&.	c #4C4946",
"m&.	c #26231F",
"n&.	c #1B130E",
"o&.	c #1A0E0A",
"p&.	c #190505",
"q&.	c #1C0404",
"r&.	c #1D0304",
"s&.	c #210507",
"t&.	c #2B0A0D",
"u&.	c #351316",
"v&.	c #3C1C1E",
"w&.	c #402425",
"x&.	c #422B2A",
"y&.	c #41312E",
"z&.	c #3C332E",
"A&.	c #36342C",
"B&.	c #32352D",
"C&.	c #313830",
"D&.	c #3D433F",
"E&.	c #585A5E",
"F&.	c #838188",
"G&.	c #A39FA7",
"H&.	c #8F888F",
"I&.	c #6C6166",
"J&.	c #574C4E",
"K&.	c #483C3C",
"L&.	c #120607",
"M&.	c #110406",
"N&.	c #19070A",
"O&.	c #250E13",
"P&.	c #311619",
"Q&.	c #351819",
"R&.	c #301311",
"S&.	c #2D110B",
"T&.	c #2C1109",
"U&.	c #280F08",
"V&.	c #250E08",
"W&.	c #2B1615",
"X&.	c #412A2E",
"Y&.	c #543E45",
"Z&.	c #614E57",
"`&.	c #5A5259",
" *.	c #595457",
".*.	c #59524F",
"+*.	c #554940",
"@*.	c #463228",
"#*.	c #3C170B",
"$*.	c #3F0702",
"%*.	c #490703",
"&*.	c #4E0E09",
"**.	c #4C1410",
"=*.	c #481C16",
"-*.	c #42231B",
";*.	c #35261C",
">*.	c #28261D",
",*.	c #212622",
"'*.	c #252B2F",
")*.	c #282D37",
"!*.	c #272D3B",
"~*.	c #2A3143",
"{*.	c #282E42",
"]*.	c #1E2132",
"^*.	c #35313E",
"/*.	c #7E7980",
"(*.	c #D6D1D5",
"_*.	c #ECE8EA",
":*.	c #DDDADB",
"<*.	c #D4D2D3",
"[*.	c #C2C1C3",
"}*.	c #B2B1B3",
"|*.	c #989698",
"1*.	c #686869",
"2*.	c #474748",
"3*.	c #484849",
"4*.	c #545455",
"5*.	c #666666",
"6*.	c #7C7B7B",
"7*.	c #A1A09E",
"8*.	c #82817F",
"9*.	c #BAB29C",
"0*.	c #C6B7A1",
"a*.	c #CCB8A3",
"b*.	c #D9BEA9",
"c*.	c #DCBDA8",
"d*.	c #CFAB96",
"e*.	c #BA937E",
"f*.	c #A67E69",
"g*.	c #A47B67",
"h*.	c #A17763",
"i*.	c #966B58",
"j*.	c #7F5443",
"k*.	c #663B2E",
"l*.	c #532D26",
"m*.	c #4C2B26",
"n*.	c #462C27",
"o*.	c #382520",
"p*.	c #261813",
"q*.	c #140702",
"r*.	c #1D0C03",
"s*.	c #251104",
"t*.	c #291304",
"u*.	c #2D1507",
"v*.	c #301408",
"w*.	c #310F05",
"x*.	c #310903",
"y*.	c #320401",
"z*.	c #360202",
"A*.	c #3D0305",
"B*.	c #43070C",
"C*.	c #480C12",
"D*.	c #4D151B",
"E*.	c #501C22",
"F*.	c #401318",
"G*.	c #D5C6BF",
"H*.	c #BAACA3",
"I*.	c #92857B",
"J*.	c #68584F",
"K*.	c #4F3E35",
"L*.	c #44332B",
"M*.	c #35221C",
"N*.	c #2C1811",
"O*.	c #29150E",
"P*.	c #24110B",
"Q*.	c #1D0A06",
"R*.	c #170501",
"S*.	c #1B0905",
"T*.	c #22120D",
"U*.	c #281915",
"V*.	c #2B1F1B",
"W*.	c #2D2420",
"X*.	c #2E2723",
"Y*.	c #2D2A25",
"Z*.	c #292924",
"`*.	c #20221C",
" =.	c #151A14",
".=.	c #111710",
"+=.	c #141A14",
"@=.	c #212520",
"#=.	c #31322F",
"$=.	c #3F3D3C",
"%=.	c #4A4746",
"&=.	c #534F4E",
"*=.	c #494544",
"==.	c #2D2927",
"-=.	c #1A1413",
";=.	c #150D0A",
">=.	c #1C110E",
",=.	c #1F0E0C",
"'=.	c #1F0707",
")=.	c #1D0202",
"!=.	c #1B0000",
"~=.	c #1C0101",
"{=.	c #200202",
"]=.	c #250405",
"^=.	c #2B0A0A",
"/=.	c #301211",
"(=.	c #311715",
"_=.	c #2F1B16",
":=.	c #2C2019",
"<=.	c #2E2820",
"[=.	c #35332A",
"}=.	c #3F3F37",
"|=.	c #52524E",
"1=.	c #726F71",
"2=.	c #928D92",
"3=.	c #A6A0A5",
"4=.	c #898186",
"5=.	c #5D5257",
"6=.	c #483D3E",
"7=.	c #3A2F2E",
"8=.	c #100403",
"9=.	c #140504",
"0=.	c #1E0A0A",
"a=.	c #2A1213",
"b=.	c #301716",
"c=.	c #2D140C",
"d=.	c #2B1209",
"e=.	c #2A1108",
"f=.	c #280F06",
"g=.	c #371F1F",
"h=.	c #4A3337",
"i=.	c #5C464D",
"j=.	c #5F4E57",
"k=.	c #5C505A",
"l=.	c #594F58",
"m=.	c #5C5256",
"n=.	c #5F5250",
"o=.	c #513F3A",
"p=.	c #432720",
"q=.	c #3C120C",
"r=.	c #400A03",
"s=.	c #440E05",
"t=.	c #431209",
"u=.	c #431B12",
"v=.	c #402218",
"w=.	c #352419",
"x=.	c #282217",
"y=.	c #1F201A",
"z=.	c #222727",
"A=.	c #242A30",
"B=.	c #232A34",
"C=.	c #252E3C",
"D=.	c #242C3C",
"E=.	c #1C2230",
"F=.	c #2B2936",
"G=.	c #716C74",
"H=.	c #C6C0C6",
"I=.	c #DED7DC",
"J=.	c #D4CED1",
"K=.	c #CBC6C8",
"L=.	c #C3BFC2",
"M=.	c #BCB8BC",
"N=.	c #A5A1A6",
"O=.	c #807D81",
"P=.	c #4C4A4D",
"Q=.	c #212124",
"R=.	c #2D2D2F",
"S=.	c #444444",
"T=.	c #5A5A5A",
"U=.	c #71706F",
"V=.	c #8E8C8A",
"W=.	c #9B9995",
"X=.	c #94928D",
"Y=.	c #888780",
"Z=.	c #999B8A",
"`=.	c #BDBBA5",
" -.	c #DBD0B8",
".-.	c #E9D6BC",
"+-.	c #E9CFB5",
"@-.	c #E9C9AF",
"#-.	c #E7C3A7",
"$-.	c #E0B99D",
"%-.	c #D3AB8F",
"&-.	c #C8A184",
"*-.	c #CBA287",
"=-.	c #CA9F84",
"--.	c #BF9279",
";-.	c #9E725B",
">-.	c #754A38",
",-.	c #4F2A1C",
"'-.	c #3A180E",
")-.	c #351A13",
"!-.	c #2F1E18",
"~-.	c #241913",
"{-.	c #150C04",
"]-.	c #140B01",
"^-.	c #1C1002",
"/-.	c #251504",
"(-.	c #2F190A",
"_-.	c #34180C",
":-.	c #341208",
"<-.	c #350B04",
"[-.	c #370502",
"}-.	c #3D0405",
"|-.	c #43080C",
"1-.	c #4A0E13",
"2-.	c #4E1419",
"3-.	c #4D151C",
"4-.	c #46131A",
"5-.	c #390C12",
"6-.	c #A6A19A",
"7-.	c #BEBAB1",
"8-.	c #B2AEA6",
"9-.	c #77706A",
"0-.	c #544A44",
"a-.	c #473C36",
"b-.	c #362823",
"c-.	c #2B1A15",
"d-.	c #271511",
"e-.	c #25110F",
"f-.	c #200B0A",
"g-.	c #180403",
"h-.	c #1D0808",
"i-.	c #24100F",
"j-.	c #291514",
"k-.	c #2C1C1A",
"l-.	c #2D201E",
"m-.	c #261F1C",
"n-.	c #1F1C17",
"o-.	c #171712",
"p-.	c #131610",
"q-.	c #151913",
"r-.	c #191F1A",
"s-.	c #1E2320",
"t-.	c #212525",
"u-.	c #2A2C2E",
"v-.	c #343437",
"w-.	c #3F3E40",
"x-.	c #3E3A3D",
"y-.	c #322C2E",
"z-.	c #221B1C",
"A-.	c #170C0C",
"B-.	c #1B0C0C",
"C-.	c #230E0E",
"D-.	c #270C0D",
"E-.	c #230405",
"F-.	c #210302",
"G-.	c #200302",
"H-.	c #1C0000",
"I-.	c #220303",
"J-.	c #2E100E",
"K-.	c #311613",
"L-.	c #2C1813",
"M-.	c #2B1D16",
"N-.	c #312820",
"O-.	c #4F4942",
"P-.	c #66605C",
"Q-.	c #857E7D",
"R-.	c #999092",
"S-.	c #9C9497",
"T-.	c #7E7478",
"U-.	c #544A4D",
"V-.	c #413738",
"W-.	c #140804",
"X-.	c #160702",
"Y-.	c #1E0C06",
"Z-.	c #26130D",
"`-.	c #2E1A12",
" ;.	c #2E1910",
".;.	c #2C160B",
"+;.	c #2C1509",
"@;.	c #2C1308",
"#;.	c #2B1108",
"$;.	c #2C110A",
"%;.	c #3C2322",
"&;.	c #523A3C",
"*;.	c #5D4850",
"=;.	c #5F4E5C",
"-;.	c #5C4D5B",
";;.	c #61535D",
">;.	c #5D4B4A",
",;.	c #4E3732",
"';.	c #3D1F18",
");.	c #381106",
"!;.	c #380F03",
"~;.	c #371104",
"{;.	c #3A190B",
"];.	c #3A1E11",
"^;.	c #321F12",
"/;.	c #271B10",
"(;.	c #1C1811",
"_;.	c #1C1F1C",
":;.	c #1E2526",
"<;.	c #1E282C",
"[;.	c #1E2933",
"};.	c #1B242E",
"|;.	c #141928",
"1;.	c #5C5861",
"2;.	c #B1AAB4",
"3;.	c #CAC2CB",
"4;.	c #C5BCC2",
"5;.	c #C0B7BC",
"6;.	c #BCB4B9",
"7;.	c #B5AEB4",
"8;.	c #928D93",
"9;.	c #5D595E",
"0;.	c #302D31",
"a;.	c #18181B",
"b;.	c #494848",
"c;.	c #646361",
"d;.	c #7D7A77",
"e;.	c #93908A",
"f;.	c #A4A199",
"g;.	c #99978E",
"h;.	c #B9B8AA",
"i;.	c #CECAB9",
"j;.	c #E3DAC5",
"k;.	c #F1E0C7",
"l;.	c #F5DCC1",
"m;.	c #F0D0B4",
"n;.	c #EBC5A8",
"o;.	c #E7BEA0",
"p;.	c #E7BC9E",
"q;.	c #DEB394",
"r;.	c #D2A888",
"s;.	c #CBA181",
"t;.	c #C5997A",
"u;.	c #BB8D71",
"v;.	c #A1735A",
"w;.	c #81543F",
"x;.	c #623727",
"y;.	c #461F12",
"z;.	c #32130A",
"A;.	c #291610",
"B;.	c #20140E",
"C;.	c #180F07",
"D;.	c #161002",
"E;.	c #191101",
"F;.	c #1E1202",
"G;.	c #231004",
"H;.	c #270D05",
"I;.	c #2A0804",
"J;.	c #2F0401",
"K;.	c #380303",
"L;.	c #450B0D",
"M;.	c #501419",
"N;.	c #581D23",
"O;.	c #5D232A",
"P;.	c #562026",
"Q;.	c #431219",
"R;.	c #360910",
"S;.	c #898A84",
"T;.	c #D1D1CA",
"U;.	c #D1D2CB",
"V;.	c #999792",
"W;.	c #64615C",
"X;.	c #39312D",
"Y;.	c #2E211E",
"Z;.	c #2B1817",
"`;.	c #240F10",
" >.	c #20080A",
".>.	c #20070A",
"+>.	c #220B0C",
"@>.	c #261011",
"#>.	c #2A1617",
"$>.	c #2B1B1B",
"%>.	c #291D1C",
"&>.	c #261C1A",
"*>.	c #211A17",
"=>.	c #1C1915",
"->.	c #1A1B15",
";>.	c #1D2019",
">>.	c #202520",
",>.	c #1F2523",
"'>.	c #191F20",
")>.	c #1C2025",
"!>.	c #25272C",
"~>.	c #302F34",
"{>.	c #322D32",
"]>.	c #2B2428",
"^>.	c #1D1518",
"/>.	c #130609",
"(>.	c #190709",
"_>.	c #260D0F",
":>.	c #2D1011",
"<>.	c #2C0D0E",
"[>.	c #280908",
"}>.	c #230503",
"|>.	c #1D0101",
"1>.	c #220402",
"2>.	c #2E110E",
"3>.	c #321814",
"4>.	c #2E1A14",
"5>.	c #2F2019",
"6>.	c #3A2E26",
"7>.	c #4B4038",
"8>.	c #5F554F",
"9>.	c #746B67",
"0>.	c #8D8382",
"a>.	c #9C9292",
"b>.	c #9D9395",
"c>.	c #7F7677",
"d>.	c #584E50",
"e>.	c #443A3B",
"f>.	c #130802",
"g>.	c #140800",
"h>.	c #180A02",
"i>.	c #211108",
"j>.	c #2B1A10",
"k>.	c #2F1C11",
"l>.	c #2F1A0F",
"m>.	c #2E170B",
"n>.	c #2D1408",
"o>.	c #2C1106",
"p>.	c #2D1004",
"q>.	c #391D17",
"r>.	c #4B312F",
"s>.	c #5A434B",
"t>.	c #614D5B",
"u>.	c #5C4B5B",
"v>.	c #60505D",
"w>.	c #65555D",
"x>.	c #604F51",
"y>.	c #53403E",
"z>.	c #3E2721",
"A>.	c #32160A",
"B>.	c #301003",
"C>.	c #351407",
"D>.	c #38180C",
"E>.	c #381C0F",
"F>.	c #341E12",
"G>.	c #2C1B11",
"H>.	c #20160F",
"I>.	c #1B1A16",
"J>.	c #191E1E",
"K>.	c #182223",
"L>.	c #192529",
"M>.	c #1A262C",
"N>.	c #19232C",
"O>.	c #0A1422",
"P>.	c #4E4B55",
"Q>.	c #9C96A1",
"R>.	c #B8B0BA",
"S>.	c #BAB0B7",
"T>.	c #B5ABB1",
"U>.	c #AEA4AA",
"V>.	c #A39BA2",
"W>.	c #7C777D",
"X>.	c #413C42",
"Y>.	c #1A171D",
"Z>.	c #05040C",
"`>.	c #1B1B1E",
" ,.	c #343433",
".,.	c #51504E",
"+,.	c #6E6C68",
"@,.	c #8C8982",
"#,.	c #A5A197",
"$,.	c #969389",
"%,.	c #D9D4C6",
"&,.	c #ECE4D3",
"*,.	c #F9EAD5",
"=,.	c #F9E0C8",
"-,.	c #F2D1B7",
";,.	c #E7BFA4",
">,.	c #DBAF94",
",,.	c #D6A68B",
"',.	c #D8A88C",
"),.	c #D1A285",
"!,.	c #C39777",
"~,.	c #B48869",
"{,.	c #AA7D5F",
"],.	c #A37358",
"^,.	c #95644C",
"/,.	c #84523F",
"(,.	c #724032",
"_,.	c #572A20",
":,.	c #38120B",
"<,.	c #280D09",
"[,.	c #1F0D09",
"},.	c #1B0F08",
"|,.	c #181103",
"1,.	c #171000",
"2,.	c #170C00",
"3,.	c #180600",
"4,.	c #1D0300",
"5,.	c #260502",
"6,.	c #340A07",
"7,.	c #431311",
"8,.	c #521C1C",
"9,.	c #5B2125",
"0,.	c #5F252B",
"a,.	c #60272E",
"b,.	c #572329",
"c,.	c #401319",
"d,.	c #D6D8D2",
"e,.	c #DBDDD7",
"f,.	c #B6B5B0",
"g,.	c #433E3B",
"h,.	c #352A28",
"i,.	c #312121",
"j,.	c #2D1B1B",
"k,.	c #230E0F",
"l,.	c #1F0609",
"m,.	c #22080B",
"n,.	c #200509",
"o,.	c #1F0508",
"p,.	c #220A0D",
"q,.	c #251112",
"r,.	c #271716",
"s,.	c #271D1A",
"t,.	c #261E1B",
"u,.	c #23241E",
"v,.	c #252822",
"w,.	c #272C27",
"x,.	c #242A28",
"y,.	c #192022",
"z,.	c #1D2026",
"A,.	c #26242B",
"B,.	c #282329",
"C,.	c #241C21",
"D,.	c #190F13",
"E,.	c #100306",
"F,.	c #170406",
"G,.	c #260C0F",
"H,.	c #311315",
"I,.	c #341516",
"J,.	c #2E1010",
"K,.	c #240705",
"L,.	c #1F0302",
"M,.	c #260805",
"N,.	c #311511",
"O,.	c #341B17",
"P,.	c #311E19",
"Q,.	c #352620",
"R,.	c #43362F",
"S,.	c #584B44",
"T,.	c #6D615C",
"U,.	c #807673",
"V,.	c #928887",
"W,.	c #9D9393",
"X,.	c #9C9394",
"Y,.	c #7F7577",
"Z,.	c #594F50",
"`,.	c #433A3B",
" '.	c #110800",
".'.	c #130900",
"+'.	c #150A01",
"@'.	c #1D0F05",
"#'.	c #27170D",
"$'.	c #2F1C12",
"%'.	c #321E13",
"&'.	c #301A0E",
"*'.	c #2D1508",
"='.	c #2C1205",
"-'.	c #311408",
";'.	c #391C13",
">'.	c #432825",
",'.	c #533C43",
"''.	c #5D4956",
")'.	c #5D4E5B",
"!'.	c #605159",
"~'.	c #605154",
"{'.	c #574846",
"]'.	c #44322C",
"^'.	c #331F15",
"/'.	c #2D1205",
"('.	c #341609",
"_'.	c #37170C",
":'.	c #37190F",
"<'.	c #381E15",
"['.	c #311C14",
"}'.	c #241610",
"|'.	c #1C1613",
"1'.	c #171817",
"2'.	c #131A1B",
"3'.	c #141E21",
"4'.	c #172126",
"5'.	c #182028",
"6'.	c #091420",
"7'.	c #414049",
"8'.	c #85818C",
"9'.	c #A49DA7",
"0'.	c #AEA4AC",
"a'.	c #A89EA4",
"b'.	c #9C9298",
"c'.	c #8A8289",
"d'.	c #635E64",
"e'.	c #28242A",
"f'.	c #0E0E15",
"g'.	c #16151C",
"h'.	c #1D1E1E",
"i'.	c #3B3A38",
"j'.	c #5E5C58",
"k'.	c #827F78",
"l'.	c #9F9C92",
"m'.	c #939085",
"n'.	c #686558",
"o'.	c #A89B93",
"p'.	c #ECE0D4",
"q'.	c #FCECDD",
"r'.	c #FCE4D2",
"s'.	c #F3CFBB",
"t'.	c #E4B7A1",
"u'.	c #D19E88",
"v'.	c #BD8771",
"w'.	c #AF7761",
"x'.	c #AB735D",
"y'.	c #A46F58",
"z'.	c #99674E",
"A'.	c #895840",
"B'.	c #7F4D35",
"C'.	c #7C4833",
"D'.	c #7C4532",
"E'.	c #7D4435",
"F'.	c #7B4238",
"G'.	c #64302A",
"H'.	c #431512",
"I'.	c #2E0808",
"J'.	c #220706",
"K'.	c #1E0B07",
"L'.	c #170B02",
"M'.	c #130A00",
"N'.	c #150900",
"O'.	c #1B0801",
"P'.	c #250C03",
"Q'.	c #33130B",
"R'.	c #461E18",
"S'.	c #562623",
"T'.	c #612C2C",
"U'.	c #622C2E",
"V'.	c #5D262B",
"W'.	c #552126",
"X'.	c #4C1B20",
"Y'.	c #C2C5BF",
"Z'.	c #CED0C9",
"`'.	c #C7C6C1",
" ).	c #9E9C98",
".).	c #66605D",
"+).	c #4D4240",
"@).	c #3B2C2B",
"#).	c #2E1C1C",
"$).	c #241011",
"%).	c #1F070A",
"&).	c #1D0407",
"*).	c #1B0205",
"=).	c #1D0608",
"-).	c #200C0D",
";).	c #231212",
">).	c #251817",
",).	c #271D1B",
"').	c #29221F",
")).	c #2A2723",
"!).	c #2C2C26",
"~).	c #2D3029",
"{).	c #2D322D",
"]).	c #2A302D",
"^).	c #202728",
"/).	c #24232A",
"().	c #272229",
"_).	c #261E23",
":).	c #1C1317",
"<).	c #13060A",
"[).	c #160507",
"}).	c #250C0F",
"|).	c #311417",
"1).	c #381A1B",
"2).	c #321514",
"3).	c #250906",
"4).	c #210704",
"5).	c #240805",
"6).	c #2B0E0C",
"7).	c #341A16",
"8).	c #37201C",
"9).	c #35221E",
"0).	c #3B2D27",
"a).	c #4B3E38",
"b).	c #61544E",
"c).	c #766A66",
"d).	c #887E7C",
"e).	c #978D8D",
"f).	c #9C9294",
"g).	c #958C8E",
"h).	c #766D70",
"i).	c #504749",
"j).	c #3A3133",
"k).	c #120800",
"l).	c #140900",
"m).	c #1A0C03",
"n).	c #231309",
"o).	c #2E1C12",
"p).	c #342116",
"q).	c #321E11",
"r).	c #2F180B",
"s).	c #2D1407",
"t).	c #33170B",
"u).	c #371910",
"v).	c #473136",
"w).	c #55424C",
"x).	c #5C4D59",
"y).	c #5D505A",
"z).	c #5B5054",
"A).	c #5E5353",
"B).	c #5B4E4B",
"C).	c #504039",
"D).	c #3E2C23",
"E).	c #2F170D",
"F).	c #33140B",
"G).	c #361610",
"H).	c #3A1D17",
"I).	c #351B17",
"J).	c #281512",
"K).	c #1F1312",
"L).	c #171212",
"M).	c #101113",
"N).	c #101619",
"O).	c #33333C",
"P).	c #6C6A74",
"Q).	c #8D8992",
"R).	c #9E979E",
"S).	c #9A9197",
"T).	c #888085",
"U).	c #6A646A",
"V).	c #454146",
"W).	c #151319",
"X).	c #0A0912",
"Y).	c #13131B",
"Z).	c #17171F",
"`).	c #252523",
" !.	c #4A4844",
".!.	c #73706A",
"+!.	c #96938B",
"@!.	c #949187",
"#!.	c #817E72",
"$!.	c #CAADA8",
"%!.	c #EED4CA",
"&!.	c #FADDCF",
"*!.	c #F9D4C4",
"=!.	c #EFC0AF",
"-!.	c #E0A997",
";!.	c #CC907E",
">!.	c #B37362",
",!.	c #995947",
"'!.	c #874938",
")!.	c #7A412F",
"!!.	c #703B28",
"~!.	c #642F1B",
"{!.	c #5B2511",
"]!.	c #5A2213",
"^!.	c #62291B",
"/!.	c #6F3329",
"(!.	c #783B35",
"_!.	c #6C332F",
":!.	c #552121",
"<!.	c #3A0E11",
"[!.	c #260305",
"}!.	c #1E0503",
"|!.	c #170701",
"1!.	c #150B00",
"2!.	c #1B1002",
"3!.	c #271608",
"4!.	c #371F14",
"5!.	c #472920",
"6!.	c #58322C",
"7!.	c #633733",
"8!.	c #653534",
"9!.	c #5E2D2E",
"0!.	c #512023",
"a!.	c #47181C",
"b!.	c #A9ACA5",
"c!.	c #B9BBB4",
"d!.	c #C4C3BE",
"e!.	c #AFADA8",
"f!.	c #8B8682",
"g!.	c #695F5D",
"h!.	c #362525",
"i!.	c #2C191A",
"j!.	c #230F11",
"k!.	c #190305",
"l!.	c #170103",
"m!.	c #190205",
"n!.	c #1A0507",
"o!.	c #1C090A",
"p!.	c #1F0F0F",
"q!.	c #221615",
"r!.	c #271E1B",
"s!.	c #2C2622",
"t!.	c #2F2D28",
"u!.	c #31322C",
"v!.	c #31342D",
"w!.	c #2F342F",
"x!.	c #2D3330",
"y!.	c #2C3233",
"z!.	c #292E32",
"A!.	c #2E2C33",
"B!.	c #322D33",
"C!.	c #322C30",
"D!.	c #292124",
"E!.	c #1D1316",
"F!.	c #190A0C",
"G!.	c #220B0D",
"H!.	c #2D1215",
"I!.	c #36191A",
"J!.	c #2F1414",
"K!.	c #220806",
"L!.	c #220905",
"M!.	c #270D09",
"N!.	c #2F1311",
"O!.	c #371E1B",
"P!.	c #392320",
"Q!.	c #372521",
"R!.	c #3E302C",
"S!.	c #4D413D",
"T!.	c #615551",
"U!.	c #746966",
"V!.	c #93898A",
"W!.	c #938A8C",
"X!.	c #847B7E",
"Y!.	c #645C5F",
"Z!.	c #3F3739",
"`!.	c #2B2426",
" ~.	c #100600",
".~.	c #130801",
"+~.	c #180B02",
"@~.	c #1E0F05",
"#~.	c #342217",
"$~.	c #362115",
"%~.	c #321C10",
"&~.	c #2E1509",
"*~.	c #33170D",
"=~.	c #2F1510",
"-~.	c #372226",
";~.	c #49383F",
">~.	c #5B4E56",
",~.	c #5F5359",
"'~.	c #5A5152",
")~.	c #5B5250",
"!~.	c #5D534E",
"~~.	c #5C4F48",
"{~.	c #4B3C35",
"]~.	c #37241B",
"^~.	c #2F150D",
"/~.	c #2E0F09",
"(~.	c #33130F",
"_~.	c #371915",
":~.	c #351916",
"<~.	c #2D1514",
"[~.	c #241313",
"}~.	c #1B1011",
"|~.	c #101014",
"1~.	c #12161B",
"2~.	c #151B21",
"3~.	c #0C131B",
"4~.	c #292A32",
"5~.	c #585961",
"6~.	c #7A7880",
"7~.	c #8E8A90",
"8~.	c #898389",
"9~.	c #746D73",
"0~.	c #4D484E",
"a~.	c #28262B",
"b~.	c #14151C",
"c~.	c #05060B",
"d~.	c #151515",
"e~.	c #363431",
"f~.	c #615E59",
"g~.	c #89867E",
"h~.	c #97938A",
"i~.	c #979389",
"j~.	c #C6AAA8",
"k~.	c #E1C3BF",
"l~.	c #EBC6BD",
"m~.	c #EEC3B6",
"n~.	c #ECBBAD",
"o~.	c #E7AE9F",
"p~.	c #DE9F90",
"q~.	c #D08D7E",
"r~.	c #B77365",
"s~.	c #975346",
"t~.	c #753429",
"u~.	c #602215",
"v~.	c #582013",
"w~.	c #551E11",
"x~.	c #4D170B",
"y~.	c #450C04",
"z~.	c #4F1309",
"A~.	c #60231C",
"B~.	c #6F312D",
"C~.	c #703433",
"D~.	c #642C2F",
"E~.	c #45161B",
"F~.	c #2B0107",
"G~.	c #1F0201",
"H~.	c #1C0902",
"I~.	c #1D1204",
"J~.	c #231908",
"K~.	c #301F10",
"L~.	c #3F281C",
"M~.	c #4E3228",
"N~.	c #5C3832",
"O~.	c #623A37",
"P~.	c #603534",
"Q~.	c #552929",
"R~.	c #431719",
"S~.	c #9A9D96",
"T~.	c #A9AAA4",
"U~.	c #B0ADA9",
"V~.	c #9C9693",
"W~.	c #7A716F",
"X~.	c #5B4F4E",
"Y~.	c #453737",
"Z~.	c #392728",
"`~.	c #2B1819",
" {.	c #1A0708",
".{.	c #170304",
"+{.	c #1B0708",
"@{.	c #1C0A0B",
"#{.	c #1D0F0E",
"${.	c #211514",
"%{.	c #2C2723",
"&{.	c #312F2A",
"*{.	c #33332E",
"={.	c #32342E",
"-{.	c #2E322D",
";{.	c #2E3331",
">{.	c #33383A",
",{.	c #32363A",
"'{.	c #313338",
"){.	c #38363D",
"!{.	c #3E3A40",
"~{.	c #403A3E",
"{{.	c #372F33",
"]{.	c #2A2023",
"^{.	c #1E1212",
"/{.	c #1F0A0B",
"({.	c #270C0F",
"_{.	c #2E1315",
":{.	c #290F0F",
"<{.	c #1E0604",
"[{.	c #29110D",
"}{.	c #321815",
"|{.	c #39211F",
"1{.	c #3B2523",
"2{.	c #372723",
"3{.	c #3D312D",
"4{.	c #4B403D",
"5{.	c #5C514D",
"6{.	c #6B605D",
"7{.	c #786E6D",
"8{.	c #847B7D",
"9{.	c #80787B",
"0{.	c #6B6366",
"a{.	c #4D4548",
"b{.	c #2C2326",
"c{.	c #1B1417",
"d{.	c #130A02",
"e{.	c #160B02",
"f{.	c #190C03",
"g{.	c #26160D",
"h{.	c #311F15",
"i{.	c #372318",
"j{.	c #351F15",
"k{.	c #31160B",
"l{.	c #2F140A",
"m{.	c #291314",
"n{.	c #3B2C2F",
"o{.	c #564A4D",
"p{.	c #5E5455",
"q{.	c #5C5453",
"r{.	c #5A534F",
"s{.	c #5E5650",
"t{.	c #635953",
"u{.	c #574B45",
"v{.	c #44342E",
"w{.	c #311C18",
"x{.	c #2B0E0B",
"y{.	c #2F100E",
"z{.	c #321311",
"A{.	c #331414",
"B{.	c #311416",
"C{.	c #2B1416",
"D{.	c #231214",
"E{.	c #1A0E11",
"F{.	c #140D11",
"G{.	c #15181E",
"H{.	c #0E1219",
"I{.	c #23252B",
"J{.	c #4B4E54",
"K{.	c #6B6B71",
"L{.	c #7E7C81",
"M{.	c #757277",
"N{.	c #323035",
"O{.	c #12131A",
"P{.	c #141720",
"Q{.	c #0E1118",
"R{.	c #232220",
"S{.	c #4D4B46",
"T{.	c #77746E",
"U{.	c #96928A",
"V{.	c #A39F96",
"W{.	c #A8837F",
"X{.	c #D9C3BE",
"Y{.	c #F4DED7",
"Z{.	c #EDC5BB",
"`{.	c #DFAB9F",
" ].	c #D29A8D",
".].	c #D29285",
"+].	c #D59083",
"@].	c #D48C80",
"#].	c #C0786E",
"$].	c #A05B53",
"%].	c #7B3931",
"&].	c #672920",
"*].	c #652D24",
"=].	c #652F25",
"-].	c #59251C",
";].	c #470F06",
">].	c #4B1008",
",].	c #581C17",
"'].	c #652826",
")].	c #703436",
"!].	c #6C3438",
"~].	c #4E1B22",
"{].	c #32020C",
"]].	c #250404",
"^].	c #251209",
"/].	c #281B0E",
"(].	c #2A2010",
"_].	c #322314",
":].	c #3B2619",
"<].	c #43281E",
"[].	c #492923",
"}].	c #4B2825",
"|].	c #492322",
"1].	c #431C1C",
"2].	c #AAABA6",
"3].	c #ACADA8",
"4].	c #A4A39E",
"5].	c #9C9996",
"6].	c #918B89",
"7].	c #7E7574",
"8].	c #6B605F",
"9].	c #594B4B",
"0].	c #463536",
"a].	c #332022",
"b].	c #220F11",
"c].	c #1D080A",
"d].	c #1D090B",
"e].	c #1E0B0C",
"f].	c #1D0D0E",
"g].	c #1D1010",
"h].	c #201514",
"i].	c #241D1B",
"j].	c #2A2622",
"k].	c #2F2D29",
"l].	c #31312C",
"m].	c #2A2D28",
"n].	c #292E2C",
"o].	c #313638",
"p].	c #34363B",
"q].	c #3E3C43",
"r].	c #474349",
"s].	c #4C464A",
"t].	c #443C3F",
"u].	c #352C2E",
"v].	c #241819",
"w].	c #1D090A",
"x].	c #1F0608",
"y].	c #240A0B",
"z].	c #200607",
"A].	c #190302",
"B].	c #1F0B07",
"C].	c #291310",
"D].	c #321A18",
"E].	c #392221",
"F].	c #3A2624",
"G].	c #352623",
"H].	c #3B302D",
"I].	c #453B39",
"J].	c #504644",
"K].	c #59504D",
"L].	c #605756",
"M].	c #665E60",
"N].	c #60585C",
"O].	c #4D4649",
"P].	c #362F33",
"Q].	c #20191D",
"R].	c #151012",
"S].	c #160D05",
"T].	c #160C04",
"U].	c #150802",
"V].	c #1F1007",
"W].	c #2C1A11",
"X].	c #37231A",
"Y].	c #372218",
"Z].	c #30190F",
"`].	c #2E150B",
" ^.	c #270E06",
".^.	c #230D09",
"+^.	c #2F2120",
"@^.	c #483D3B",
"#^.	c #584F4D",
"$^.	c #5F5956",
"%^.	c #5C5852",
"&^.	c #5E5953",
"*^.	c #635C58",
"=^.	c #5F5651",
"-^.	c #524642",
";^.	c #3C2A28",
">^.	c #2D1413",
",^.	c #2B0C0C",
"'^.	c #2D0C0E",
")^.	c #310F12",
"!^.	c #341317",
"~^.	c #321719",
"{^.	c #2C1619",
"]^.	c #231115",
"^^.	c #150F13",
"/^.	c #101117",
"(^.	c #212428",
"_^.	c #45494D",
":^.	c #5E6065",
"<^.	c #5A595E",
"[^.	c #3E3C41",
"}^.	c #171C22",
"|^.	c #161B23",
"1^.	c #0F151D",
"2^.	c #090F16",
"3^.	c #13181E",
"4^.	c #13171D",
"5^.	c #0B0F11",
"6^.	c #141514",
"7^.	c #383733",
"8^.	c #8E8A84",
"9^.	c #A39F98",
"0^.	c #807B76",
"a^.	c #C49A94",
"b^.	c #E2C2BB",
"c^.	c #F6D7CF",
"d^.	c #EDBFB4",
"e^.	c #D49C90",
"f^.	c #B5796C",
"g^.	c #B26F63",
"h^.	c #BB746A",
"i^.	c #C57B72",
"j^.	c #B97069",
"k^.	c #A05B55",
"l^.	c #80413B",
"m^.	c #723832",
"n^.	c #703C35",
"o^.	c #6C3932",
"p^.	c #44120A",
"q^.	c #440E07",
"r^.	c #4D1612",
"s^.	c #561E1D",
"t^.	c #662E31",
"u^.	c #693237",
"v^.	c #4F1C24",
"w^.	c #390813",
"x^.	c #2D090C",
"y^.	c #29130D",
"z^.	c #281A0E",
"A^.	c #291F10",
"B^.	c #2F2112",
"C^.	c #352215",
"D^.	c #3A2117",
"E^.	c #3C1E17",
"F^.	c #ADAEA9",
"G^.	c #A7A7A3",
"H^.	c #93928E",
"I^.	c #8E8A87",
"J^.	c #8B8583",
"K^.	c #827979",
"L^.	c #746969",
"M^.	c #615454",
"N^.	c #4B3B3D",
"O^.	c #362527",
"P^.	c #281718",
"Q^.	c #200E10",
"R^.	c #1E0C0F",
"S^.	c #1F1011",
"T^.	c #1F1414",
"U^.	c #221B19",
"V^.	c #272220",
"W^.	c #2C2A26",
"X^.	c #2E2D29",
"Y^.	c #2B2C28",
"Z^.	c #252724",
"`^.	c #232726",
" /.	c #2B2F33",
"./.	c #3C3940",
"+/.	c #474247",
"@/.	c #453E41",
"#/.	c #382F31",
"$/.	c #261A1B",
"%/.	c #1A0204",
"&/.	c #1C0304",
"*/.	c #190202",
"=/.	c #160202",
"-/.	c #1D0A08",
";/.	c #271311",
">/.	c #301A19",
",/.	c #362120",
"'/.	c #362423",
")/.	c #312421",
"!/.	c #362D2A",
"~/.	c #3E3633",
"{/.	c #433B39",
"]/.	c #463E3D",
"^/.	c #463F3F",
"//.	c #463E41",
"(/.	c #3F373C",
"_/.	c #302A2F",
":/.	c #262126",
"</.	c #211C20",
"[/.	c #1A171A",
"}/.	c #110601",
"|/.	c #180A03",
"1/.	c #25150B",
"2/.	c #332118",
"3/.	c #362219",
"4/.	c #301B11",
"5/.	c #2C140B",
"6/.	c #240E07",
"7/.	c #281812",
"8/.	c #372C27",
"9/.	c #4E4641",
"0/.	c #5F5953",
"a/.	c #5F5D56",
"b/.	c #5E5C55",
"c/.	c #5D5B56",
"d/.	c #5D5452",
"e/.	c #4B3C3D",
"f/.	c #382426",
"g/.	c #2A0E10",
"h/.	c #29080C",
"i/.	c #2F0C10",
"j/.	c #351216",
"k/.	c #36171B",
"l/.	c #33181C",
"m/.	c #2C1518",
"n/.	c #190F11",
"o/.	c #181317",
"p/.	c #121115",
"q/.	c #1F2225",
"r/.	c #3F4346",
"s/.	c #515457",
"t/.	c #56565A",
"u/.	c #414044",
"v/.	c #11161B",
"w/.	c #171D23",
"x/.	c #10181F",
"y/.	c #12181D",
"z/.	c #262522",
"A/.	c #4A4744",
"B/.	c #817C78",
"C/.	c #9B9490",
"D/.	c #7C7672",
"E/.	c #DEB3A9",
"F/.	c #E6BBAF",
"G/.	c #EDBEB2",
"H/.	c #E9B4A7",
"I/.	c #CC9588",
"J/.	c #9F6254",
"K/.	c #8E4A3F",
"L/.	c #964F47",
"M/.	c #A75E58",
"N/.	c #A45E58",
"O/.	c #965450",
"P/.	c #804440",
"Q/.	c #74403B",
"R/.	c #6F403B",
"S/.	c #653A34",
"T/.	c #522B25",
"U/.	c #3A100A",
"V/.	c #380A04",
"W/.	c #3E0E0A",
"X/.	c #441313",
"Y/.	c #562428",
"Z/.	c #5C292F",
"`/.	c #4C1B24",
" (.	c #3E0F1A",
".(.	c #330D13",
"+(.	c #29100E",
"@(.	c #22140A",
"#(.	c #201809",
"$(.	c #989895",
"%(.	c #848381",
"&(.	c #878481",
"*(.	c #8C8684",
"=(.	c #857C7C",
"-(.	c #756B6C",
";(.	c #605454",
">(.	c #493C3D",
",(.	c #37272A",
"'(.	c #2B1B1D",
")(.	c #211114",
"!(.	c #1E0E10",
"~(.	c #201012",
"{(.	c #201214",
"](.	c #1F1315",
"^(.	c #1E1414",
"/(.	c #201817",
"((.	c #231E1D",
"_(.	c #282523",
":(.	c #292825",
"<(.	c #272724",
"[(.	c #212220",
"}(.	c #1C1E1E",
"|(.	c #1C2022",
"1(.	c #1F2226",
"2(.	c #28282D",
"3(.	c #343136",
"4(.	c #3F393F",
"5(.	c #443E42",
"6(.	c #3E383B",
"7(.	c #332C2E",
"8(.	c #241A1A",
"9(.	c #160101",
"0(.	c #130202",
"a(.	c #1B0A08",
"b(.	c #241110",
"c(.	c #2B1716",
"d(.	c #2F1C1C",
"e(.	c #2F1F1E",
"f(.	c #2A1F1E",
"g(.	c #302927",
"h(.	c #36302E",
"i(.	c #363130",
"j(.	c #342E2E",
"k(.	c #2E282A",
"l(.	c #262024",
"m(.	c #1E181E",
"n(.	c #1B161C",
"o(.	c #241F25",
"p(.	c #29252A",
"q(.	c #252226",
"r(.	c #110902",
"s(.	c #0E0400",
"t(.	c #120600",
"u(.	c #1E0F06",
"v(.	c #2D1C14",
"w(.	c #321F17",
"x(.	c #301B13",
"y(.	c #2B150D",
"z(.	c #2A110A",
"A(.	c #2C130C",
"B(.	c #2A130A",
"C(.	c #27130A",
"D(.	c #281911",
"E(.	c #423A33",
"F(.	c #59534B",
"G(.	c #605E56",
"H(.	c #5D5E57",
"I(.	c #575752",
"J(.	c #5F5D5B",
"K(.	c #625D5C",
"L(.	c #584D4F",
"M(.	c #463639",
"N(.	c #301A1E",
"O(.	c #290D11",
"P(.	c #2D0B10",
"Q(.	c #331014",
"R(.	c #361519",
"S(.	c #32171A",
"T(.	c #281214",
"U(.	c #1E0F10",
"V(.	c #1A1214",
"W(.	c #141012",
"X(.	c #1D1E20",
"Y(.	c #373B3D",
"Z(.	c #434548",
"`(.	c #414244",
" _.	c #2B2B2D",
"._.	c #090A0F",
"+_.	c #080C10",
"@_.	c #10161B",
"#_.	c #12191F",
"$_.	c #030C14",
"%_.	c #0D1318",
"&_.	c #0C0E10",
"*_.	c #171615",
"=_.	c #34312F",
"-_.	c #706967",
";_.	c #8C8582",
">_.	c #7E7774",
",_.	c #F4CDBD",
"'_.	c #E9C0B0",
")_.	c #DEAFA0",
"!_.	c #DAA797",
"~_.	c #C58F7E",
"{_.	c #A06556",
"]_.	c #844538",
"^_.	c #7C382F",
"/_.	c #87443D",
"(_.	c #8A4C47",
"__.	c #854B47",
":_.	c #73403D",
"<_.	c #623633",
"[_.	c #532E2A",
"}_.	c #472622",
"|_.	c #391A15",
"1_.	c #2A0A04",
"2_.	c #280501",
"3_.	c #2D0704",
"4_.	c #350D0C",
"5_.	c #441A1D",
"6_.	c #4C2025",
"7_.	c #481C25",
"8_.	c #3F161F",
"9_.	c #331016",
"0_.	c #7F7F7D",
"a_.	c #787676",
"b_.	c #858281",
"c_.	c #8E8988",
"d_.	c #837B7C",
"e_.	c #6F6667",
"f_.	c #574C4D",
"g_.	c #44383A",
"h_.	c #35272B",
"i_.	c #2A1B1E",
"j_.	c #1F1013",
"k_.	c #1A0C0F",
"l_.	c #1E1012",
"m_.	c #1E1316",
"n_.	c #1D1314",
"o_.	c #1D1516",
"p_.	c #1F1B1B",
"q_.	c #23211F",
"r_.	c #252422",
"s_.	c #1E1F1E",
"t_.	c #181A1A",
"u_.	c #16191B",
"v_.	c #222127",
"w_.	c #2C282E",
"x_.	c #332E33",
"y_.	c #363034",
"z_.	c #322C2F",
"A_.	c #2A2425",
"B_.	c #1F1616",
"C_.	c #190A0A",
"D_.	c #180505",
"E_.	c #1A0506",
"F_.	c #160404",
"G_.	c #120302",
"H_.	c #180A08",
"I_.	c #1E100E",
"J_.	c #231312",
"K_.	c #261616",
"L_.	c #251818",
"M_.	c #2B2624",
"N_.	c #322D2C",
"O_.	c #302C2C",
"P_.	c #292526",
"Q_.	c #1E1B1D",
"R_.	c #141016",
"S_.	c #0D0910",
"T_.	c #120F15",
"U_.	c #27242A",
"V_.	c #312E34",
"W_.	c #2D2B30",
"X_.	c #0D0400",
"Y_.	c #100500",
"Z_.	c #25140D",
"`_.	c #2C1A13",
" :.	c #2E1B14",
".:.	c #2D1710",
"+:.	c #2D150E",
"@:.	c #311910",
"#:.	c #31180E",
"$:.	c #231106",
"%:.	c #352C23",
"&:.	c #4B453C",
"*:.	c #5A5850",
"=:.	c #5B5D56",
"-:.	c #545753",
";:.	c #595C5B",
">:.	c #5F5F60",
",:.	c #5F595C",
"':.	c #52474B",
"):.	c #3E2D32",
"!:.	c #30191E",
"~:.	c #2D0D13",
"{:.	c #300E13",
"]:.	c #320F14",
"^:.	c #331316",
"/:.	c #341619",
"(:.	c #2D1315",
"_:.	c #240F11",
"::.	c #1E1011",
"<:.	c #160D0E",
"[:.	c #181618",
"}:.	c #2C2D30",
"|:.	c #333436",
"1:.	c #2E2F30",
"2:.	c #1B1C1D",
"3:.	c #030709",
"4:.	c #030D15",
"5:.	c #070F15",
"6:.	c #090F14",
"7:.	c #0F0D0F",
"8:.	c #231F1F",
"9:.	c #5C5654",
"0:.	c #7D7573",
"a:.	c #89817F",
"b:.	c #8A8280",
"c:.	c #FEDCC8",
"d:.	c #EDC8B5",
"e:.	c #D3AA97",
"f:.	c #C19380",
"g:.	c #B68270",
"h:.	c #A97262",
"i:.	c #864E40",
"j:.	c #692A1F",
"k:.	c #662B23",
"l:.	c #6D3833",
"m:.	c #6D3C39",
"n:.	c #5C322F",
"o:.	c #472523",
"p:.	c #321714",
"q:.	c #250E0A",
"r:.	c #200C07",
"s:.	c #210E08",
"t:.	c #1D0703",
"u:.	c #210603",
"v:.	c #361616",
"w:.	c #3F1C1F",
"x:.	c #452027",
"y:.	c #3E1C23",
"z:.	c #2C0E13",
"A:.	c #6D6C6C",
"B:.	c #6F6D6E",
"C:.	c #7C7979",
"D:.	c #827D7E",
"E:.	c #797274",
"F:.	c #675F61",
"G:.	c #403538",
"H:.	c #34272B",
"I:.	c #291C20",
"J:.	c #1D0F13",
"K:.	c #16090D",
"L:.	c #1B0F12",
"M:.	c #1D1317",
"N:.	c #1B1214",
"O:.	c #1A1415",
"P:.	c #1C1819",
"Q:.	c #201E1E",
"R:.	c #222121",
"S:.	c #212121",
"T:.	c #1C1D21",
"U:.	c #212126",
"V:.	c #262328",
"W:.	c #292328",
"X:.	c #292326",
"Y:.	c #252022",
"Z:.	c #201A1B",
"`:.	c #1A1211",
" <.	c #180B0B",
".<.	c #1A0909",
"+<.	c #1D0B0B",
"@<.	c #180808",
"#<.	c #120604",
"$<.	c #160C09",
"%<.	c #1A0E0D",
"&<.	c #1C0E0E",
"*<.	c #1D0F0F",
"=<.	c #1C1112",
"-<.	c #282424",
";<.	c #2F2C2D",
"><.	c #2D2A2C",
",<.	c #242124",
"'<.	c #171519",
")<.	c #121118",
"!<.	c #141219",
"~<.	c #29272E",
"{<.	c #323037",
"]<.	c #2A292F",
"^<.	c #0D0401",
"/<.	c #130601",
"(<.	c #1C0D06",
"_<.	c #26150E",
":<.	c #2E1913",
"<<.	c #301913",
"[<.	c #351D14",
"}<.	c #351C10",
"|<.	c #311709",
"1<.	c #271003",
"2<.	c #2B1E12",
"3<.	c #3C352B",
"4<.	c #514F46",
"5<.	c #595A53",
"6<.	c #575B57",
"7<.	c #565C5A",
"8<.	c #5A5D5E",
"9<.	c #605E61",
"0<.	c #5C555A",
"a<.	c #4E4348",
"b<.	c #39272D",
"c<.	c #2C0E14",
"d<.	c #2C0C11",
"e<.	c #2C090E",
"f<.	c #341316",
"g<.	c #301214",
"h<.	c #291011",
"i<.	c #220F0F",
"j<.	c #170909",
"k<.	c #120C0E",
"l<.	c #211F20",
"m<.	c #252324",
"n<.	c #1F1F1E",
"o<.	c #181919",
"p<.	c #111415",
"q<.	c #050E16",
"r<.	c #0B131A",
"s<.	c #081016",
"t<.	c #080E13",
"u<.	c #0C0E13",
"v<.	c #171313",
"w<.	c #4A4342",
"x<.	c #746B6A",
"y<.	c #988F8E",
"z<.	c #9E9595",
"A<.	c #FBDEC7",
"B<.	c #ECCDB6",
"C<.	c #A47A67",
"D<.	c #AC7867",
"E<.	c #895547",
"F<.	c #5E261B",
"G<.	c #4B1710",
"H<.	c #4F221E",
"I<.	c #502623",
"J<.	c #381715",
"K<.	c #250A09",
"L<.	c #1A0504",
"M<.	c #190D09",
"N<.	c #221610",
"O<.	c #1B0E07",
"P<.	c #1C0A05",
"Q<.	c #29140F",
"R<.	c #2F1615",
"S<.	c #371B1D",
"T<.	c #412328",
"U<.	c #3A1E23",
"V<.	c #21070B",
"W<.	c #6A696A",
"X<.	c #6D6B6C",
"Y<.	c #6A6768",
"Z<.	c #676364",
"`<.	c #686264",
" [.	c #5F575A",
".[.	c #4E4548",
"+[.	c #3F3639",
"@[.	c #34292D",
"#[.	c #2B2024",
"$[.	c #1C1115",
"%[.	c #12070B",
"&[.	c #180D11",
"*[.	c #1C1215",
"=[.	c #1C1417",
"-[.	c #191214",
";[.	c #181214",
">[.	c #191617",
",[.	c #1D1B1C",
"'[.	c #202020",
")[.	c #1C1C1D",
"![.	c #191A1C",
"~[.	c #1C1D20",
"{[.	c #202025",
"][.	c #232227",
"^[.	c #242025",
"/[.	c #231D21",
"([.	c #1F191B",
"_[.	c #1A1517",
":[.	c #161213",
"<[.	c #140E0E",
"[[.	c #1B0D0C",
"}[.	c #1E100F",
"|[.	c #130B08",
"1[.	c #160E0C",
"2[.	c #170E0D",
"3[.	c #170B0B",
"4[.	c #160A0B",
"5[.	c #150C0D",
"6[.	c #171314",
"7[.	c #252425",
"8[.	c #2B2A2E",
"9[.	c #1B1A22",
"0[.	c #1A1A22",
"a[.	c #17161E",
"b[.	c #2B2B33",
"c[.	c #37383F",
"d[.	c #3A3B41",
"e[.	c #0F0501",
"f[.	c #150702",
"g[.	c #20110A",
"h[.	c #2B1A14",
"i[.	c #2F1C17",
"j[.	c #331D18",
"k[.	c #371F18",
"l[.	c #371D12",
"m[.	c #341808",
"n[.	c #2D1202",
"o[.	c #281304",
"p[.	c #2F251B",
"q[.	c #464239",
"r[.	c #55554E",
"s[.	c #5C605C",
"t[.	c #575E5C",
"u[.	c #555C5C",
"v[.	c #5C5E62",
"w[.	c #605E63",
"x[.	c #5B545A",
"y[.	c #44383D",
"z[.	c #301B1F",
"A[.	c #2A0E12",
"B[.	c #250408",
"C[.	c #2A070A",
"D[.	c #321112",
"E[.	c #321213",
"F[.	c #2D1111",
"G[.	c #260F0E",
"H[.	c #1C0909",
"I[.	c #130707",
"J[.	c #1A1213",
"K[.	c #1B1515",
"L[.	c #171514",
"M[.	c #1C1D1C",
"N[.	c #0B1219",
"O[.	c #0D1219",
"P[.	c #0B0F15",
"Q[.	c #0C0D12",
"R[.	c #131215",
"S[.	c #131013",
"T[.	c #120D0E",
"U[.	c #3C3433",
"V[.	c #A29899",
"W[.	c #A89F9F",
"X[.	c #E4CAB2",
"Y[.	c #DCC0A8",
"Z[.	c #C8A891",
"`[.	c #A07A65",
" }.	c #8D5F4C",
".}.	c #8C5D4D",
"+}.	c #7A493B",
"@}.	c #612F24",
"#}.	c #43150E",
"$}.	c #3C1310",
"%}.	c #381513",
"&}.	c #200604",
"*}.	c #100100",
"=}.	c #0E0302",
"-}.	c #0A0402",
";}.	c #100B06",
">}.	c #120B04",
",}.	c #1C0D07",
"'}.	c #1F0D0A",
")}.	c #250F11",
"!}.	c #2D1519",
"~}.	c #2A1217",
"{}.	c #676668",
"]}.	c #727072",
"^}.	c #626062",
"/}.	c #534F52",
"(}.	c #5A5558",
"_}.	c #534D50",
":}.	c #433C40",
"<}.	c #3E363A",
"[}.	c #383034",
"}}.	c #30262B",
"|}.	c #20171B",
"1}.	c #130A0E",
"2}.	c #170F13",
"3}.	c #1D1619",
"4}.	c #191316",
"5}.	c #141013",
"6}.	c #120F11",
"7}.	c #161416",
"8}.	c #191819",
"9}.	c #1A191B",
"0}.	c #151517",
"a}.	c #121315",
"b}.	c #18181C",
"c}.	c #19181C",
"d}.	c #1A171B",
"e}.	c #1A1518",
"f}.	c #171214",
"g}.	c #120F10",
"h}.	c #130909",
"i}.	c #16110E",
"j}.	c #181511",
"k}.	c #181311",
"l}.	c #0F0607",
"m}.	c #0C0607",
"n}.	c #110E11",
"o}.	c #222225",
"p}.	c #2B2B2F",
"q}.	c #26262B",
"r}.	c #363740",
"s}.	c #52535D",
"t}.	c #6A6C74",
"u}.	c #6D6F77",
"v}.	c #0F0301",
"w}.	c #190A06",
"x}.	c #251511",
"y}.	c #301F1B",
"z}.	c #37221E",
"A}.	c #38201A",
"B}.	c #351A10",
"C}.	c #301104",
"D}.	c #2B0D01",
"E}.	c #250B00",
"F}.	c #26180E",
"G}.	c #383128",
"H}.	c #4C4A44",
"I}.	c #5B5E5B",
"J}.	c #5F6664",
"K}.	c #5E6666",
"L}.	c #5B6265",
"M}.	c #5C5F63",
"N}.	c #5C5A5F",
"O}.	c #564E52",
"P}.	c #46393C",
"Q}.	c #2D191B",
"R}.	c #220406",
"S}.	c #280708",
"T}.	c #331211",
"U}.	c #341312",
"V}.	c #321212",
"W}.	c #2E1212",
"X}.	c #2A1212",
"Y}.	c #251111",
"Z}.	c #1E0E0E",
"`}.	c #130E0C",
" |.	c #171614",
".|.	c #161717",
"+|.	c #0A0E11",
"@|.	c #0C1117",
"#|.	c #0E1218",
"$|.	c #0F0F14",
"%|.	c #161316",
"&|.	c #140D0E",
"*|.	c #281F1E",
"=|.	c #5D5555",
"-|.	c #9A9091",
";|.	c #9F9697",
">|.	c #D4BCA5",
",|.	c #C9AF98",
"'|.	c #B59780",
")|.	c #9B7661",
"!|.	c #7E5541",
"~|.	c #683A29",
"{|.	c #68382A",
"]|.	c #623429",
"^|.	c #4C231C",
"/|.	c #381511",
"(|.	c #260A08",
"_|.	c #170404",
":|.	c #0F0504",
"<|.	c #0D0705",
"[|.	c #0A0805",
"}|.	c #080901",
"||.	c #090800",
"1|.	c #0A0600",
"2|.	c #0C0500",
"3|.	c #0E0300",
"4|.	c #100201",
"5|.	c #120103",
"6|.	c #130003",
"7|.	c #7B797C",
"8|.	c #666466",
"9|.	c #4A484B",
"0|.	c #4D494C",
"a|.	c #454043",
"b|.	c #383236",
"c|.	c #3E383C",
"d|.	c #3D363A",
"e|.	c #31292E",
"f|.	c #20181D",
"g|.	c #11090E",
"h|.	c #130C11",
"i|.	c #181216",
"j|.	c #1A1418",
"k|.	c #171216",
"l|.	c #0E0B0E",
"m|.	c #131114",
"n|.	c #19171A",
"o|.	c #1B1B1D",
"p|.	c #161618",
"q|.	c #121214",
"r|.	c #151418",
"s|.	c #141318",
"t|.	c #141216",
"u|.	c #181418",
"v|.	c #1A1619",
"w|.	c #1A1718",
"x|.	c #161414",
"y|.	c #131211",
"z|.	c #13110F",
"A|.	c #17100F",
"B|.	c #19100F",
"C|.	c #19100E",
"D|.	c #171410",
"E|.	c #181613",
"F|.	c #140D0D",
"G|.	c #050204",
"H|.	c #202125",
"I|.	c #282A2F",
"J|.	c #191A20",
"K|.	c #1B1C27",
"L|.	c #272932",
"M|.	c #454853",
"N|.	c #686B76",
"O|.	c #8A8E97",
"P|.	c #9498A0",
"Q|.	c #8E939A",
"R|.	c #0B0101",
"S|.	c #110403",
"T|.	c #1D0E0B",
"U|.	c #2B1B1A",
"V|.	c #361E18",
"W|.	c #32160D",
"X|.	c #2E0C00",
"Y|.	c #2D0B00",
"Z|.	c #280A00",
"`|.	c #251106",
" 1.	c #2C2017",
".1.	c #3F3B36",
"+1.	c #545552",
"@1.	c #606564",
"#1.	c #636B6B",
"$1.	c #5D6768",
"%1.	c #596163",
"&1.	c #595D5F",
"*1.	c #5F5B5D",
"=1.	c #544B4D",
"-1.	c #382A2B",
";1.	c #281313",
">1.	c #280A09",
",1.	c #31100F",
"'1.	c #341211",
")1.	c #351313",
"!1.	c #341414",
"~1.	c #311515",
"{1.	c #2C1414",
"]1.	c #210D0D",
"^1.	c #180908",
"/1.	c #160B09",
"(1.	c #110E0D",
"_1.	c #100E0F",
":1.	c #0F0F11",
"<1.	c #0E1014",
"[1.	c #0E1015",
"}1.	c #161215",
"|1.	c #181213",
"11.	c #170E0F",
"21.	c #160707",
"31.	c #4F4747",
"41.	c #8F8586",
"51.	c #948A8B",
"61.	c #D7C2AD",
"71.	c #B9A38E",
"81.	c #8F735F",
"91.	c #835F4C",
"01.	c #744C3A",
"a1.	c #623526",
"b1.	c #5B2E21",
"c1.	c #5A2F26",
"d1.	c #573029",
"e1.	c #3E1F1B",
"f1.	c #1C0504",
"g1.	c #170708",
"h1.	c #130809",
"i1.	c #0C0707",
"j1.	c #090806",
"k1.	c #070804",
"l1.	c #060801",
"m1.	c #070700",
"n1.	c #090600",
"o1.	c #0B0400",
"p1.	c #0C0200",
"q1.	c #0E0101",
"r1.	c #888689",
"s1.	c #727073",
"t1.	c #514F52",
"u1.	c #413E41",
"v1.	c #333033",
"w1.	c #2F2B2E",
"x1.	c #3E393D",
"y1.	c #2C272B",
"z1.	c #191317",
"A1.	c #070206",
"B1.	c #0A0408",
"C1.	c #0F090E",
"D1.	c #120D11",
"E1.	c #0F0D10",
"F1.	c #110F12",
"G1.	c #1A181B",
"H1.	c #222124",
"I1.	c #262628",
"J1.	c #1D1D1F",
"K1.	c #1D1C20",
"L1.	c #1F1D20",
"M1.	c #242024",
"N1.	c #272225",
"O1.	c #262324",
"P1.	c #232120",
"Q1.	c #20201E",
"R1.	c #21201E",
"S1.	c #231E1C",
"T1.	c #231B19",
"U1.	c #1D1715",
"V1.	c #171411",
"W1.	c #141410",
"X1.	c #161713",
"Y1.	c #151513",
"Z1.	c #100D0D",
"`1.	c #070406",
" 2.	c #030205",
".2.	c #1E2126",
"+2.	c #252A2F",
"@2.	c #181A22",
"#2.	c #13151E",
"$2.	c #151723",
"%2.	c #2A2C38",
"&2.	c #7A7F8A",
"*2.	c #A3AAB3",
"=2.	c #B9C0C9",
"-2.	c #BBC2C9",
";2.	c #8C9298",
">2.	c #0E0201",
",2.	c #130504",
"'2.	c #1D0E0D",
")2.	c #2E1712",
"!2.	c #32140A",
"~2.	c #331001",
"{2.	c #341000",
"]2.	c #301002",
"^2.	c #2B1306",
"/2.	c #2A1A10",
"(2.	c #342B26",
"_2.	c #43413E",
":2.	c #555857",
"<2.	c #5F6667",
"[2.	c #616B6B",
"}2.	c #5C6666",
"|2.	c #585F5F",
"12.	c #5F5F5F",
"22.	c #595454",
"32.	c #483D3D",
"42.	c #372626",
"52.	c #2B1211",
"62.	c #2A0C0B",
"72.	c #300F0E",
"82.	c #351312",
"92.	c #301010",
"02.	c #280C0C",
"a2.	c #210808",
"b2.	c #1D0908",
"c2.	c #1B0C0A",
"d2.	c #190E0B",
"e2.	c #160E0D",
"f2.	c #150F0F",
"g2.	c #130F10",
"h2.	c #101012",
"i2.	c #150E11",
"j2.	c #160E0E",
"k2.	c #170D0D",
"l2.	c #170807",
"m2.	c #4C4343",
"n2.	c #897E7E",
"o2.	c #8D8283",
"p2.	c #675C5F",
"q2.	c #C7B2A0",
"r2.	c #A89281",
"s2.	c #7B5F4E",
"t2.	c #6C4939",
"u2.	c #653C2E",
"v2.	c #5E3225",
"w2.	c #52271C",
"x2.	c #4E261E",
"y2.	c #512C26",
"z2.	c #3B1E1A",
"A2.	c #1C0606",
"B2.	c #190A0B",
"C2.	c #14090B",
"D2.	c #0C0608",
"E2.	c #090606",
"F2.	c #080705",
"G2.	c #060702",
"H2.	c #060701",
"I2.	c #070600",
"J2.	c #080500",
"K2.	c #090400",
"L2.	c #0B0300",
"M2.	c #868488",
"N2.	c #9E9DA1",
"O2.	c #858387",
"P2.	c #5A595D",
"Q2.	c #403E42",
"R2.	c #2B292D",
"S2.	c #242125",
"T2.	c #302D30",
"U2.	c #030004",
"V2.	c #030104",
"W2.	c #070308",
"X2.	c #0A070B",
"Y2.	c #0B090D",
"Z2.	c #1F1E22",
"`2.	c #29282C",
" 3.	c #2F2E32",
".3.	c #2C2B2E",
"+3.	c #242226",
"@3.	c #252427",
"#3.	c #29272A",
"$3.	c #2F2A2E",
"%3.	c #312C2F",
"&3.	c #302C2D",
"*3.	c #2D2B2B",
"=3.	c #2D2D2B",
"-3.	c #2F2F2D",
";3.	c #2F2C2A",
">3.	c #2A2524",
",3.	c #201C1A",
"'3.	c #151511",
")3.	c #10120E",
"!3.	c #111411",
"~3.	c #0D0C0D",
"{3.	c #050407",
"]3.	c #0A0D12",
"^3.	c #1B2026",
"/3.	c #23282F",
"(3.	c #181B25",
"_3.	c #161924",
":3.	c #1C1F2C",
"<3.	c #363946",
"[3.	c #515663",
"}3.	c #898F9B",
"|3.	c #B5BCC7",
"13.	c #CAD2DC",
"23.	c #C8D0D9",
"33.	c #949CA4",
"43.	c #110504",
"53.	c #150707",
"63.	c #1C0B09",
"73.	c #26100A",
"83.	c #391608",
"93.	c #391504",
"03.	c #361405",
"a3.	c #311409",
"b3.	c #2B150C",
"c3.	c #2A1D17",
"d3.	c #332D2B",
"e3.	c #464746",
"f3.	c #575B5A",
"g3.	c #616868",
"h3.	c #5F6867",
"i3.	c #5B6361",
"j3.	c #5E605F",
"k3.	c #5D5A59",
"l3.	c #554E4D",
"m3.	c #473A38",
"n3.	c #372422",
"o3.	c #2B1210",
"p3.	c #2B0D0B",
"q3.	c #310F0E",
"r3.	c #2D0D0C",
"s3.	c #280A08",
"t3.	c #260908",
"u3.	c #240B09",
"v3.	c #220E0A",
"w3.	c #1F0F0B",
"x3.	c #1D0F0C",
"y3.	c #1B0F0E",
"z3.	c #190F0F",
"A3.	c #150F11",
"B3.	c #130F12",
"C3.	c #120E12",
"D3.	c #130E11",
"E3.	c #140D0F",
"F3.	c #140B0C",
"G3.	c #140A0A",
"H3.	c #170D0C",
"I3.	c #190A09",
"J3.	c #473D3D",
"K3.	c #7F7473",
"L3.	c #877C7C",
"M3.	c #74696B",
"N3.	c #AB9688",
"O3.	c #998174",
"P3.	c #7C6155",
"Q3.	c #5E3D32",
"R3.	c #542A1F",
"S3.	c #592E24",
"T3.	c #4A2118",
"U3.	c #401913",
"V3.	c #401E1A",
"W3.	c #1F0A0A",
"X3.	c #19090C",
"Y3.	c #13070A",
"Z3.	c #0D0407",
"`3.	c #0A0406",
" 4.	c #090504",
".4.	c #070502",
"+4.	c #070501",
"@4.	c #070400",
"#4.	c #080300",
"$4.	c #090300",
"%4.	c #9B9A9F",
"&4.	c #BCBBBF",
"*4.	c #9F9EA3",
"=4.	c #6C6B70",
"-4.	c #4E4D52",
";4.	c #353338",
">4.	c #232126",
",4.	c #242227",
"'4.	c #26252A",
")4.	c #06050A",
"!4.	c #030206",
"~4.	c #050308",
"{4.	c #2C2B30",
"]4.	c #333136",
"^4.	c #302E33",
"/4.	c #2A292D",
"(4.	c #282629",
"_4.	c #2A282B",
":4.	c #2F2C2F",
"<4.	c #343033",
"[4.	c #353033",
"}4.	c #332F30",
"|4.	c #31302F",
"14.	c #333331",
"24.	c #373835",
"34.	c #363432",
"44.	c #2E2B2A",
"54.	c #1F1E1C",
"64.	c #121311",
"74.	c #0B100C",
"84.	c #0B110F",
"94.	c #0B100F",
"04.	c #090A0C",
"a4.	c #040508",
"b4.	c #02050A",
"c4.	c #181F26",
"d4.	c #20272F",
"e4.	c #1D222C",
"f4.	c #191D29",
"g4.	c #1A1F2B",
"h4.	c #252937",
"i4.	c #3D4250",
"j4.	c #585E6C",
"k4.	c #707685",
"l4.	c #959BA8",
"m4.	c #BDC5D0",
"n4.	c #CDD5E0",
"o4.	c #C6CFD9",
"p4.	c #9BA4AD",
"q4.	c #0F0605",
"r4.	c #120707",
"s4.	c #1F0A06",
"t4.	c #3E1D10",
"u4.	c #3C1809",
"v4.	c #381508",
"w4.	c #34150A",
"x4.	c #27120C",
"y4.	c #281C18",
"z4.	c #383331",
"A4.	c #4B4B49",
"B4.	c #5B5F5D",
"C4.	c #5F6663",
"D4.	c #5D615E",
"E4.	c #5E5D5A",
"F4.	c #5D5A56",
"G4.	c #554B48",
"H4.	c #473836",
"I4.	c #2D1412",
"J4.	c #290B09",
"K4.	c #2B0A09",
"L4.	c #2C0C0A",
"M4.	c #2C0E0C",
"N4.	c #2D0E0C",
"O4.	c #2B0F0C",
"P4.	c #29100B",
"Q4.	c #26100B",
"R4.	c #24100B",
"S4.	c #21100D",
"T4.	c #1C0F0F",
"U4.	c #1A0F10",
"V4.	c #180F10",
"W4.	c #160E10",
"X4.	c #160D0F",
"Y4.	c #160C0E",
"Z4.	c #160C0D",
"`4.	c #140909",
" 5.	c #150908",
".5.	c #1C0C0A",
"+5.	c #403634",
"@5.	c #716665",
"#5.	c #827776",
"$5.	c #817778",
"%5.	c #836F64",
"&5.	c #8D756C",
"*5.	c #886D65",
"=5.	c #60423B",
"-5.	c #4B2018",
";5.	c #50261F",
">5.	c #401812",
",5.	c #2F0B06",
"'5.	c #2A0C0A",
")5.	c #250D0D",
"!5.	c #1F0B0D",
"~5.	c #150507",
"{5.	c #0E0205",
"]5.	c #0C0205",
"^5.	c #0B0204",
"/5.	c #0A0303",
"(5.	c #090301",
"_5.	c #070300",
":5.	c #B8B6BB",
"<5.	c #DCDBE0",
"[5.	c #BEBDC2",
"}5.	c #88878C",
"|5.	c #656469",
"15.	c #48474C",
"25.	c #333237",
"35.	c #2A292E",
"45.	c #3C3C40",
"55.	c #050409",
"65.	c #1F1E23",
"75.	c #29282D",
"85.	c #2C2A2F",
"95.	c #28262A",
"05.	c #272528",
"a5.	c #2B282B",
"b5.	c #332E30",
"c5.	c #322D2F",
"d5.	c #2E2A2B",
"e5.	c #2C2C2A",
"f5.	c #30322F",
"g5.	c #363936",
"h5.	c #353634",
"i5.	c #1C1D1A",
"j5.	c #0D110E",
"k5.	c #060E0B",
"l5.	c #060F0D",
"m5.	c #070E0E",
"n5.	c #04060A",
"o5.	c #161F26",
"p5.	c #1A202D",
"q5.	c #202533",
"r5.	c #2E3342",
"s5.	c #404656",
"t5.	c #595F6F",
"u5.	c #7B8191",
"v5.	c #9CA4B2",
"w5.	c #B9C2CE",
"x5.	c #C0C9D5",
"y5.	c #B8C2CD",
"z5.	c #A5AFB9",
"A5.	c #8C969F",
"B5.	c #100606",
"C5.	c #110507",
"D5.	c #140606",
"E5.	c #1D0B06",
"F5.	c #331A11",
"G5.	c #3F2115",
"H5.	c #3A1A0C",
"I5.	c #371507",
"J5.	c #341309",
"K5.	c #301209",
"L5.	c #2B1009",
"M5.	c #27130F",
"N5.	c #3E3735",
"O5.	c #504F4C",
"P5.	c #5E605C",
"Q5.	c #646763",
"R5.	c #5E605B",
"S5.	c #5B5C57",
"T5.	c #5D5C57",
"U5.	c #5F5855",
"V5.	c #594D4B",
"W5.	c #4A3937",
"X5.	c #372321",
"Y5.	c #270B0A",
"Z5.	c #260806",
"`5.	c #2D0F0D",
" 6.	c #331513",
".6.	c #331512",
"+6.	c #31130F",
"@6.	c #2F120C",
"#6.	c #2B120C",
"$6.	c #28110D",
"%6.	c #24110D",
"&6.	c #21100E",
"*6.	c #1A0E0E",
"=6.	c #190D0D",
"-6.	c #190C0C",
";6.	c #1F110E",
">6.	c #1F0F0A",
",6.	c #392D2A",
"'6.	c #635654",
")6.	c #7E7371",
"!6.	c #7F6661",
"~6.	c #806661",
"{6.	c #5F423E",
"]6.	c #4A2320",
"^6.	c #441C18",
"/6.	c #320E0A",
"(6.	c #210100",
"_6.	c #1B0506",
":6.	c #110305",
"<6.	c #0C0103",
"[6.	c #0B0201",
"}6.	c #0A0200",
"|6.	c #080200",
"16.	c #BAB8BD",
"26.	c #E3E2E7",
"36.	c #CAC9CF",
"46.	c #98979D",
"56.	c #6D6C71",
"66.	c #4B4B50",
"76.	c #3C3C41",
"86.	c #3A3A3F",
"96.	c #414146",
"06.	c #44464A",
"a6.	c #323337",
"b6.	c #19181D",
"c6.	c #1B1A1F",
"d6.	c #2A282E",
"e6.	c #27252A",
"f6.	c #242126",
"g6.	c #262326",
"h6.	c #2A262A",
"i6.	c #2E292D",
"j6.	c #2F292C",
"k6.	c #2C2628",
"l6.	c #242523",
"m6.	c #292D2A",
"n6.	c #313632",
"o6.	c #313431",
"p6.	c #2A2B29",
"q6.	c #09100C",
"r6.	c #030D0A",
"s6.	c #020E0B",
"t6.	c #040D0D",
"u6.	c #04090D",
"v6.	c #050B11",
"w6.	c #09121A",
"x6.	c #151F28",
"y6.	c #1B2630",
"z6.	c #1B2330",
"A6.	c #1E2433",
"B6.	c #262C3C",
"C6.	c #343A4A",
"D6.	c #495060",
"E6.	c #646B7B",
"F6.	c #828A9A",
"G6.	c #9CA5B4",
"H6.	c #B0BAC8",
"I6.	c #B8C3CF",
"J6.	c #B7C2CE",
"K6.	c #B0BBC5",
"L6.	c #99A4AD",
"M6.	c #0D0304",
"N6.	c #120606",
"O6.	c #1D0D0A",
"P6.	c #391F13",
"Q6.	c #381A0D",
"R6.	c #361609",
"S6.	c #35130A",
"T6.	c #34120A",
"U6.	c #31100A",
"V6.	c #2C0E0A",
"W6.	c #2C1310",
"X6.	c #352522",
"Y6.	c #463D39",
"Z6.	c #5A5551",
"`6.	c #64635E",
" 7.	c #60605B",
".7.	c #5D5E58",
"+7.	c #5E5E59",
"@7.	c #65605C",
"#7.	c #645A58",
"$7.	c #594B49",
"%7.	c #453533",
"&7.	c #311C19",
"*7.	c #2B110E",
"=7.	c #2E130F",
"-7.	c #341714",
";7.	c #331511",
">7.	c #33130E",
",7.	c #34130B",
"'7.	c #31120B",
")7.	c #2B110D",
"!7.	c #27110D",
"~7.	c #240F0E",
"{7.	c #210F0E",
"]7.	c #1F0E0D",
"^7.	c #1E0D0C",
"/7.	c #1D0C0B",
"(7.	c #1D0C0A",
"_7.	c #200F0C",
":7.	c #251410",
"<7.	c #21100A",
"[7.	c #312420",
"}7.	c #554844",
"|7.	c #7A6F6D",
"17.	c #7F7675",
"27.	c #654B4A",
"37.	c #5A3B3A",
"47.	c #4B2928",
"57.	c #351211",
"67.	c #230403",
"77.	c #1A0100",
"87.	c #1A0101",
"97.	c #160201",
"07.	c #100202",
"a7.	c #0E0203",
"b7.	c #0D0103",
"c7.	c #0D0001",
"d7.	c #ADABB1",
"e7.	c #D8D7DC",
"f7.	c #A2A1A6",
"g7.	c #6F6F74",
"h7.	c #494A4F",
"i7.	c #404146",
"j7.	c #434449",
"k7.	c #45474C",
"l7.	c #414449",
"m7.	c #121318",
"n7.	c #0A0C11",
"o7.	c #07080D",
"p7.	c #06070C",
"q7.	c #1F1D23",
"r7.	c #252229",
"s7.	c #222026",
"t7.	c #201E22",
"u7.	c #252024",
"v7.	c #282428",
"w7.	c #2A2529",
"x7.	c #2A2426",
"y7.	c #252021",
"z7.	c #2A302C",
"A7.	c #2C302C",
"B7.	c #262926",
"C7.	c #171B17",
"D7.	c #08100C",
"E7.	c #010D09",
"F7.	c #000D0A",
"G7.	c #010C0C",
"H7.	c #030C0F",
"I7.	c #15202B",
"J7.	c #1B2633",
"K7.	c #1C2534",
"L7.	c #232A3A",
"M7.	c #2D3446",
"N7.	c #3B4253",
"O7.	c #6F7788",
"P7.	c #828B9C",
"Q7.	c #939DAD",
"R7.	c #A3AFBD",
"S7.	c #B3BFCC",
"T7.	c #BBC7D3",
"U7.	c #B4C1CB",
"V7.	c #9CA8B1",
"W7.	c #6B777F",
"X7.	c #070000",
"Y7.	c #100505",
"Z7.	c #1D0F0D",
"`7.	c #2E190E",
" 8.	c #341A0E",
".8.	c #37180E",
"+8.	c #37150C",
"@8.	c #37120B",
"#8.	c #360F0A",
"$8.	c #330D0A",
"%8.	c #300D0A",
"&8.	c #331916",
"*8.	c #3F2C28",
"=8.	c #524641",
"-8.	c #605853",
";8.	c #63605A",
">8.	c #62625C",
",8.	c #61625C",
"'8.	c #67645F",
")8.	c #68615E",
"!8.	c #615755",
"~8.	c #544644",
"{8.	c #44322F",
"]8.	c #392420",
"^8.	c #321B16",
"/8.	c #301611",
"(8.	c #2E110B",
"_8.	c #311008",
":8.	c #371309",
"<8.	c #381209",
"[8.	c #361209",
"}8.	c #34120B",
"|8.	c #31110C",
"18.	c #29100D",
"28.	c #260F0C",
"38.	c #240E0C",
"48.	c #220E0C",
"58.	c #210D0B",
"68.	c #210E0A",
"78.	c #23100C",
"88.	c #27140F",
"98.	c #2A1711",
"08.	c #24110A",
"a8.	c #2C1E18",
"b8.	c #493D37",
"c8.	c #766C68",
"d8.	c #938987",
"e8.	c #7C7472",
"f8.	c #4C2E2F",
"g8.	c #3E2021",
"h8.	c #2A0B0B",
"i8.	c #170101",
"j8.	c #1A0404",
"k8.	c #150504",
"l8.	c #0F0404",
"m8.	c #0C0203",
"n8.	c #0C0102",
"o8.	c #0C0001",
"p8.	c #A4A2A8",
"q8.	c #CBCAD0",
"r8.	c #A8A8AD",
"s8.	c #7B7B81",
"t8.	c #55575B",
"u8.	c #414348",
"v8.	c #383A3F",
"w8.	c #33353A",
"x8.	c #2D2F34",
"y8.	c #24272C",
"z8.	c #1B1D22",
"A8.	c #090B10",
"B8.	c #06060C",
"C8.	c #1B191F",
"D8.	c #211E25",
"E8.	c #201E24",
"F8.	c #201D22",
"G8.	c #241F23",
"H8.	c #262125",
"I8.	c #262022",
"J8.	c #211C1D",
"K8.	c #191718",
"L8.	c #1A201C",
"M8.	c #222925",
"N8.	c #252A26",
"O8.	c #212522",
"P8.	c #151A17",
"Q8.	c #08110E",
"R8.	c #010D0A",
"S8.	c #000C0A",
"T8.	c #010C0D",
"U8.	c #030E11",
"V8.	c #081117",
"W8.	c #0C151D",
"X8.	c #0F1A23",
"Y8.	c #16232E",
"Z8.	c #1B2835",
"`8.	c #1E2838",
" 9.	c #283041",
".9.	c #363E4F",
"+9.	c #464E60",
"@9.	c #596274",
"#9.	c #6A7486",
"$9.	c #707A8B",
"%9.	c #7B8696",
"&9.	c #919DAC",
"*9.	c #A3AFBE",
"=9.	c #ABB7C4",
"-9.	c #9EAAB6",
";9.	c #89969F",
">9.	c #7E8A93",
",9.	c #98A4AC",
"'9.	c #A1ADB4",
")9.	c #96A1A7",
"!9.	c #0E0505",
"~9.	c #170B0A",
"{9.	c #1A0C08",
"]9.	c #221107",
"^9.	c #301A0F",
"/9.	c #381C12",
"(9.	c #3B1910",
"_9.	c #3A120B",
":9.	c #390D08",
"<9.	c #390C08",
"[9.	c #380D09",
"}9.	c #39140F",
"|9.	c #3E211C",
"19.	c #483530",
"29.	c #564944",
"39.	c #645D58",
"49.	c #696661",
"59.	c #686862",
"69.	c #666560",
"79.	c #64605C",
"89.	c #625B58",
"99.	c #615653",
"09.	c #5C4D4A",
"a9.	c #4D3C37",
"b9.	c #2C160F",
"c9.	c #280D04",
"d9.	c #2F0E04",
"e9.	c #381207",
"f9.	c #3B1207",
"g9.	c #3A1108",
"h9.	c #381109",
"i9.	c #35110B",
"j9.	c #2E100C",
"k9.	c #290F0C",
"l9.	c #270F0C",
"m9.	c #2A140F",
"n9.	c #2D1812",
"o9.	c #2D1911",
"p9.	c #25120A",
"q9.	c #2A1B14",
"r9.	c #453730",
"s9.	c #736964",
"t9.	c #908783",
"u9.	c #766F6B",
"v9.	c #2F1417",
"w9.	c #220607",
"x9.	c #180202",
"y9.	c #150202",
"z9.	c #170504",
"A9.	c #140706",
"B9.	c #B5B3BA",
"C9.	c #C7C6CC",
"D9.	c #939398",
"E9.	c #6F7175",
"F9.	c #4E5055",
"G9.	c #22252A",
"H9.	c #1B1E23",
"I9.	c #1A1E22",
"J9.	c #171B1F",
"K9.	c #0E1116",
"L9.	c #080A0F",
"M9.	c #06080D",
"N9.	c #0E0D13",
"O9.	c #17151B",
"P9.	c #1D1B21",
"Q9.	c #1E1B21",
"R9.	c #1E1B20",
"S9.	c #201B1F",
"T9.	c #211C1F",
"U9.	c #211B1E",
"V9.	c #1D191A",
"W9.	c #181617",
"X9.	c #141614",
"Y9.	c #141B17",
"Z9.	c #19211D",
"`9.	c #1C231E",
" 0.	c #1A1F1C",
".0.	c #111815",
"+0.	c #07110F",
"@0.	c #010E0B",
"#0.	c #000D0B",
"$0.	c #010D0E",
"%0.	c #041014",
"&0.	c #0B151C",
"*0.	c #101A22",
"=0.	c #121F28",
"-0.	c #172531",
";0.	c #1D2A37",
">0.	c #212B3B",
",0.	c #2D3647",
"'0.	c #3D4658",
")0.	c #4D5569",
"!0.	c #576073",
"~0.	c #576274",
"{0.	c #616C7D",
"]0.	c #7A8696",
"^0.	c #8B97A6",
"/0.	c #8F9BA8",
"(0.	c #7E8B97",
"_0.	c #7D8A95",
":0.	c #919EA7",
"<0.	c #A9B6BE",
"[0.	c #B2BEC6",
"}0.	c #ADB8BE",
"|0.	c #9AA4A9",
"10.	c #0E0502",
"20.	c #170A03",
"30.	c #29180D",
"40.	c #351C11",
"50.	c #3C1A11",
"60.	c #3D0C08",
"70.	c #3F0B07",
"80.	c #3F0C08",
"90.	c #3F110C",
"00.	c #3F1914",
"a0.	c #41241F",
"b0.	c #4B3933",
"c0.	c #5E544E",
"d0.	c #68635D",
"e0.	c #6A6964",
"f0.	c #656560",
"g0.	c #615F5B",
"h0.	c #605D59",
"i0.	c #69605D",
"j0.	c #6B5E5B",
"k0.	c #5D4F4A",
"l0.	c #493A33",
"m0.	c #322119",
"n0.	c #2C150A",
"o0.	c #311105",
"p0.	c #3A1105",
"q0.	c #3E1105",
"r0.	c #3E1005",
"s0.	c #3B1007",
"t0.	c #391109",
"u0.	c #32110B",
"v0.	c #30110C",
"w0.	c #2E110D",
"x0.	c #2C110D",
"y0.	c #2B120D",
"z0.	c #2E1610",
"A0.	c #301912",
"B0.	c #2F1910",
"C0.	c #271209",
"D0.	c #2B1C14",
"E0.	c #46382F",
"F0.	c #716761",
"G0.	c #8C837D",
"H0.	c #6F6863",
"I0.	c #1B0304",
"J0.	c #170302",
"K0.	c #130301",
"L0.	c #0F0302",
"M0.	c #100B08",
"N0.	c #C4C1C7",
"O0.	c #CECBD2",
"P0.	c #D2D0D6",
"Q0.	c #C2C1C7",
"R0.	c #A8A9AE",
"S0.	c #86888D",
"T0.	c #5F6166",
"U0.	c #3F4247",
"V0.	c #22272B",
"W0.	c #1C2125",
"X0.	c #15191E",
"Y0.	c #070A0F",
"Z0.	c #110F15",
"`0.	c #18161C",
" a.	c #19161B",
".a.	c #1B1517",
"+a.	c #1A1618",
"@a.	c #171616",
"#a.	c #121513",
"$a.	c #0F1612",
"%a.	c #101814",
"&a.	c #121815",
"*a.	c #111614",
"=a.	c #0A120F",
"-a.	c #040F0D",
";a.	c #000F0C",
">a.	c #020E0F",
",a.	c #061216",
"'a.	c #0F1920",
")a.	c #131E27",
"!a.	c #15222D",
"~a.	c #1A2834",
"{a.	c #1F2C39",
"]a.	c #242E3E",
"^a.	c #333B4D",
"/a.	c #434B5E",
"(a.	c #4E566A",
"_a.	c #4C5569",
":a.	c #424C5E",
"<a.	c #3F4A5C",
"[a.	c #4B5667",
"}a.	c #606C7C",
"|a.	c #6B7886",
"1a.	c #6F7D89",
"2a.	c #6E7C88",
"3a.	c #85929C",
"4a.	c #A0AEB7",
"5a.	c #AEBBC4",
"6a.	c #B9C5CD",
"7a.	c #BFCAD0",
"8a.	c #ACB5BB",
"9a.	c #8F979D",
"0a.	c #090201",
"aa.	c #080301",
"ba.	c #100802",
"ca.	c #1E1207",
"da.	c #2D170C",
"ea.	c #39170E",
"fa.	c #3F140D",
"ga.	c #43100B",
"ha.	c #450C08",
"ia.	c #440B07",
"ja.	c #430D09",
"ka.	c #40130E",
"la.	c #3D1914",
"ma.	c #412A24",
"na.	c #50423C",
"oa.	c #5E5651",
"pa.	c #63615D",
"qa.	c #6F6763",
"ra.	c #675D58",
"sa.	c #574C44",
"ta.	c #43362B",
"ua.	c #3A281C",
"va.	c #391C0F",
"wa.	c #3C1205",
"xa.	c #3F0F02",
"ya.	c #400F03",
"za.	c #3F0F05",
"Aa.	c #3C1008",
"Ba.	c #36110B",
"Ca.	c #33120D",
"Da.	c #32130E",
"Ea.	c #30140F",
"Fa.	c #30150E",
"Ga.	c #311710",
"Ha.	c #311911",
"Ia.	c #2F190F",
"Ja.	c #281308",
"Ka.	c #2E1F16",
"La.	c #4B3D33",
"Ma.	c #72675F",
"Na.	c #887F79",
"Oa.	c #67615B",
"Pa.	c #C7C5C9",
"Qa.	c #CFCDD2",
"Ra.	c #C1C0C6",
"Sa.	c #999BA0",
"Ta.	c #7A7C83",
"Ua.	c #5D6067",
"Va.	c #4D5058",
"Wa.	c #3F444B",
"Xa.	c #30363D",
"Ya.	c #22282E",
"Za.	c #04060C",
"`a.	c #020108",
" b.	c #110F16",
".b.	c #131218",
"+b.	c #0E0A0E",
"@b.	c #0D080A",
"#b.	c #140E11",
"$b.	c #161214",
"%b.	c #151414",
"&b.	c #0A110E",
"*b.	c #07100C",
"=b.	c #060C0A",
"-b.	c #040A08",
";b.	c #020C0A",
">b.	c #010F0D",
",b.	c #000E0D",
"'b.	c #020E10",
")b.	c #091317",
"!b.	c #17212A",
"~b.	c #19252F",
"{b.	c #1C2935",
"]b.	c #202D39",
"^b.	c #26303E",
"/b.	c #384150",
"(b.	c #464E5F",
"_b.	c #444C5F",
":b.	c #3C4457",
"<b.	c #313C4E",
"[b.	c #3A4557",
"}b.	c #4C5969",
"|b.	c #596775",
"1b.	c #6C7A87",
"2b.	c #83909C",
"3b.	c #98A5B0",
"4b.	c #A6B3BD",
"5b.	c #A4B1BA",
"6b.	c #A1ADB5",
"7b.	c #A5AFB6",
"8b.	c #B0BAC0",
"9b.	c #B7C0C6",
"0b.	c #B1B7BC",
"ab.	c #090803",
"bb.	c #0D0A04",
"cb.	c #230E06",
"db.	c #421811",
"eb.	c #481711",
"fb.	c #470F0A",
"gb.	c #440905",
"hb.	c #400904",
"ib.	c #3F0E08",
"jb.	c #3C130C",
"kb.	c #3B1D17",
"lb.	c #422E29",
"mb.	c #50453F",
"nb.	c #5F5853",
"ob.	c #69645F",
"pb.	c #6A6762",
"qb.	c #65635F",
"rb.	c #67635F",
"sb.	c #6A6460",
"tb.	c #6A645D",
"ub.	c #635D54",
"vb.	c #585146",
"wb.	c #4C3F34",
"xb.	c #412B20",
"yb.	c #3A1408",
"zb.	c #3C0C00",
"Ab.	c #3F0D03",
"Bb.	c #3F0E06",
"Cb.	c #3F0F08",
"Db.	c #3D100A",
"Eb.	c #39110B",
"Fb.	c #37120C",
"Gb.	c #36140D",
"Hb.	c #35150E",
"Ib.	c #34160E",
"Jb.	c #33160E",
"Kb.	c #32170E",
"Lb.	c #2D180C",
"Mb.	c #261306",
"Nb.	c #312319",
"Ob.	c #504338",
"Pb.	c #736960",
"Qb.	c #867D76",
"Rb.	c #645D57",
"Sb.	c #9B9A9A",
"Tb.	c #C7C5C6",
"Ub.	c #D0CED1",
"Vb.	c #C2C2C6",
"Wb.	c #B9B9BE",
"Xb.	c #84868D",
"Yb.	c #656971",
"Zb.	c #535761",
"`b.	c #4D515B",
" c.	c #444852",
".c.	c #323841",
"+c.	c #0C1218",
"@c.	c #000006",
"#c.	c #03030A",
"$c.	c #090810",
"%c.	c #0B0B12",
"&c.	c #060406",
"*c.	c #0A0709",
"=c.	c #19181A",
"-c.	c #151717",
";c.	c #080F0D",
">c.	c #010504",
",c.	c #020E0E",
"'c.	c #010E0E",
")c.	c #040E10",
"!c.	c #182027",
"~c.	c #1B242D",
"{c.	c #1D2832",
"]c.	c #262F3A",
"^c.	c #363F4B",
"/c.	c #404957",
"(c.	c #353D4D",
"_c.	c #2A3245",
":c.	c #2B3647",
"<c.	c #3B4758",
"[c.	c #445061",
"}c.	c #445161",
"|c.	c #566472",
"1c.	c #707D8A",
"2c.	c #8C98A4",
"3c.	c #9AA5B1",
"4c.	c #9CA8B3",
"5c.	c #929DA8",
"6c.	c #87939C",
"7c.	c #8B949D",
"8c.	c #C7CFD7",
"9c.	c #C2C7CE",
"0c.	c #ABAFB6",
"ac.	c #0D0C05",
"bc.	c #0E0602",
"cc.	c #190602",
"dc.	c #3D1811",
"ec.	c #461B14",
"fc.	c #481812",
"gc.	c #420F09",
"hc.	c #3C0802",
"ic.	c #3C0B04",
"jc.	c #3C120A",
"kc.	c #3B1810",
"lc.	c #371C15",
"mc.	c #41302A",
"nc.	c #534741",
"oc.	c #665E58",
"pc.	c #6F6963",
"qc.	c #6E6A64",
"rc.	c #68655F",
"sc.	c #64625C",
"tc.	c #67665E",
"uc.	c #68695F",
"vc.	c #65665B",
"wc.	c #5E5950",
"xc.	c #51453D",
"yc.	c #412A23",
"zc.	c #3D1A12",
"Ac.	c #3E120B",
"Bc.	c #3D0E07",
"Cc.	c #3D0D07",
"Dc.	c #3D0F09",
"Ec.	c #3C110B",
"Fc.	c #3C140D",
"Gc.	c #3B160D",
"Hc.	c #3A160D",
"Ic.	c #38170C",
"Jc.	c #36170C",
"Kc.	c #32190C",
"Lc.	c #2C190A",
"Mc.	c #261404",
"Nc.	c #35291E",
"Oc.	c #574D42",
"Pc.	c #756C63",
"Qc.	c #837A74",
"Rc.	c #615A55",
"Sc.	c #27201D",
"Tc.	c #AEADAA",
"Uc.	c #CBC9C7",
"Vc.	c #D9D8D7",
"Wc.	c #D7D7D9",
"Xc.	c #C4C4C9",
"Yc.	c #A6A6AE",
"Zc.	c #80828C",
"`c.	c #60626E",
" d.	c #494C5A",
".d.	c #3A3F4C",
"+d.	c #2E3341",
"@d.	c #212835",
"#d.	c #18202C",
"$d.	c #131B26",
"%d.	c #0F1720",
"&d.	c #00030C",
"*d.	c #010209",
"=d.	c #02030C",
"-d.	c #05070E",
";d.	c #0A0A0D",
">d.	c #0D0D10",
",d.	c #151519",
"'d.	c #242527",
")d.	c #2D2E30",
"!d.	c #1F2123",
"~d.	c #0B1010",
"{d.	c #030A09",
"]d.	c #020707",
"^d.	c #010406",
"/d.	c #040D0F",
"(d.	c #060E10",
"_d.	c #0E1419",
":d.	c #181E25",
"<d.	c #1C232A",
"[d.	c #20272E",
"}d.	c #242B32",
"|d.	c #2A313A",
"1d.	c #2C333F",
"2d.	c #212A3A",
"3d.	c #2D3848",
"4d.	c #364353",
"5d.	c #465260",
"6d.	c #5A6673",
"7d.	c #6C7885",
"8d.	c #77828E",
"9d.	c #7A8590",
"0d.	c #7B8590",
"ad.	c #7F8994",
"bd.	c #89919C",
"cd.	c #979FAA",
"dd.	c #ABB3BC",
"ed.	c #BBC1CB",
"fd.	c #C1C6D0",
"gd.	c #B0B4BE",
"hd.	c #8E929B",
"id.	c #0C0803",
"jd.	c #120A04",
"kd.	c #130602",
"ld.	c #1A0502",
"md.	c #2B0D07",
"nd.	c #3C1A12",
"od.	c #48221A",
"pd.	c #431A13",
"qd.	c #3A0D06",
"rd.	c #390D04",
"sd.	c #3D150B",
"td.	c #3F1B10",
"ud.	c #37170D",
"vd.	c #351C14",
"wd.	c #412F28",
"xd.	c #5A4B44",
"yd.	c #6D625A",
"zd.	c #787269",
"Ad.	c #716E66",
"Bd.	c #66665F",
"Cd.	c #61655D",
"Dd.	c #646C63",
"Ed.	c #6A736A",
"Fd.	c #6D726A",
"Gd.	c #64635C",
"Hd.	c #48312C",
"Id.	c #401F1C",
"Jd.	c #39100E",
"Kd.	c #380806",
"Ld.	c #3A0A07",
"Md.	c #3E110C",
"Nd.	c #40160F",
"Od.	c #41190F",
"Pd.	c #3F180D",
"Qd.	c #381709",
"Rd.	c #371B0C",
"Sd.	c #351D0D",
"Td.	c #2F1C0B",
"Ud.	c #281A06",
"Vd.	c #3B3328",
"Wd.	c #625B50",
"Xd.	c #797168",
"Yd.	c #7F7570",
"Zd.	c #5E5552",
"`d.	c #2D2423",
" e.	c #AFAFAB",
".e.	c #CDCCC8",
"+e.	c #D8D7D2",
"@e.	c #DAD9D6",
"#e.	c #D1D1D2",
"$e.	c #B8B8BD",
"%e.	c #9797A0",
"&e.	c #787985",
"*e.	c #606372",
"=e.	c #505466",
"-e.	c #454A5C",
";e.	c #343B4C",
">e.	c #262D3D",
",e.	c #17202E",
"'e.	c #131C28",
")e.	c #0E1722",
"!e.	c #050E17",
"~e.	c #030B13",
"{e.	c #01030B",
"]e.	c #03050B",
"^e.	c #0A0C0F",
"/e.	c #0B0E11",
"(e.	c #121418",
"_e.	c #222427",
":e.	c #2C2E31",
"<e.	c #1E2123",
"[e.	c #090D0F",
"}e.	c #080E11",
"|e.	c #0D1215",
"1e.	c #12161A",
"2e.	c #161B1F",
"3e.	c #1A1F24",
"4e.	c #22262B",
"5e.	c #23282E",
"6e.	c #222831",
"7e.	c #2F3A4A",
"8e.	c #364252",
"9e.	c #3E4A58",
"0e.	c #4F5B68",
"ae.	c #5E6977",
"be.	c #656F7C",
"ce.	c #69737F",
"de.	c #707985",
"ee.	c #7E8692",
"fe.	c #8D95A1",
"ge.	c #9AA1AD",
"he.	c #98A0AB",
"ie.	c #9AA0AA",
"je.	c #A6ABB6",
"ke.	c #ABB0BB",
"le.	c #ACB1BB",
"me.	c #A9AFB8",
"ne.	c #100803",
"oe.	c #100602",
"pe.	c #120401",
"qe.	c #1D0701",
"re.	c #2D120A",
"se.	c #3A1B14",
"te.	c #3E1910",
"ue.	c #401A11",
"ve.	c #3F190F",
"we.	c #3C160B",
"xe.	c #381409",
"ye.	c #361509",
"ze.	c #3B2117",
"Ae.	c #4E3931",
"Be.	c #63544B",
"Ce.	c #746A61",
"De.	c #777269",
"Ee.	c #717269",
"Fe.	c #686E66",
"Ge.	c #636F66",
"He.	c #647269",
"Ie.	c #68736C",
"Je.	c #6A6E67",
"Ke.	c #66615C",
"Le.	c #5C4E4B",
"Me.	c #503838",
"Ne.	c #442323",
"Oe.	c #3D1213",
"Pe.	c #3A0B0A",
"Qe.	c #3A0E09",
"Re.	c #3B120A",
"Se.	c #3B140A",
"Te.	c #3C1509",
"Ue.	c #3B1608",
"Ve.	c #391808",
"We.	c #361909",
"Xe.	c #321B0A",
"Ye.	c #2F1E0D",
"Ze.	c #332918",
"`e.	c #4A4538",
" f.	c #6E695E",
".f.	c #7D756D",
"+f.	c #7A6E6B",
"@f.	c #5A4E4D",
"#f.	c #2E2123",
"$f.	c #B8B9B5",
"%f.	c #DEDDD9",
"&f.	c #DDDCD7",
"*f.	c #CFCFCB",
"=f.	c #B8B8B9",
"-f.	c #9B9BA0",
";f.	c #7F7F88",
">f.	c #6B6D7A",
",f.	c #5F6373",
"'f.	c #595E71",
")f.	c #52586D",
"!f.	c #4C5267",
"~f.	c #31394B",
"{f.	c #1E2737",
"]f.	c #16202D",
"^f.	c #07111B",
"/f.	c #030D16",
"(f.	c #040C15",
"_f.	c #060C15",
":f.	c #01040B",
"<f.	c #02040A",
"[f.	c #070B0F",
"}f.	c #1A1E21",
"|f.	c #23272A",
"1f.	c #171B1E",
"2f.	c #010508",
"3f.	c #030609",
"4f.	c #04080B",
"5f.	c #111518",
"6f.	c #191D20",
"7f.	c #1C2023",
"8f.	c #1E2226",
"9f.	c #1F2428",
"0f.	c #21272E",
"af.	c #2E3A4A",
"bf.	c #2F3B4B",
"cf.	c #333F4E",
"df.	c #4C5765",
"ef.	c #596470",
"ff.	c #66707C",
"gf.	c #737D89",
"hf.	c #818A96",
"if.	c #8C94A1",
"jf.	c #9098A5",
"kf.	c #818995",
"lf.	c #727A85",
"mf.	c #7C828E",
"nf.	c #9BA1AC",
"of.	c #B3BAC4",
"pf.	c #B5BCC6",
"qf.	c #ACB3BD",
"rf.	c #9BA0AA",
"sf.	c #120601",
"tf.	c #170600",
"uf.	c #1D0702",
"vf.	c #371912",
"wf.	c #422018",
"xf.	c #452118",
"yf.	c #3F1A10",
"zf.	c #371106",
"Af.	c #3A1409",
"Bf.	c #3B170D",
"Cf.	c #3C1E13",
"Df.	c #432B20",
"Ef.	c #534138",
"Ff.	c #665950",
"Gf.	c #756E65",
"Hf.	c #7A7970",
"If.	c #72776E",
"Jf.	c #677169",
"Kf.	c #5D6C64",
"Lf.	c #5F6C65",
"Mf.	c #69716A",
"Nf.	c #72746F",
"Of.	c #6C6562",
"Pf.	c #625050",
"Qf.	c #573B3C",
"Rf.	c #4D2B2C",
"Sf.	c #43201F",
"Tf.	c #3B1815",
"Uf.	c #35140D",
"Vf.	c #331208",
"Wf.	c #351307",
"Xf.	c #391B0C",
"Yf.	c #341B0C",
"Zf.	c #311E0F",
"`f.	c #352819",
" g.	c #453D2E",
".g.	c #5D574B",
"+g.	c #79746A",
"@g.	c #807771",
"#g.	c #756766",
"$g.	c #554648",
"%g.	c #2B1C22",
"&g.	c #989C9D",
"*g.	c #BABCBA",
"=g.	c #D3D3CE",
"-g.	c #C9C9C4",
";g.	c #B4B3B0",
">g.	c #99999A",
",g.	c #7F8084",
"'g.	c #696B74",
")g.	c #5E616E",
"!g.	c #575B6B",
"~g.	c #515669",
"{g.	c #4A5065",
"]g.	c #42485E",
"^g.	c #2F374A",
"/g.	c #242D3E",
"(g.	c #1B2534",
"_g.	c #121C28",
":g.	c #0A141E",
"<g.	c #061019",
"[g.	c #091018",
"}g.	c #060B13",
"|g.	c #04080C",
"1g.	c #1E2124",
"2g.	c #04070B",
"3g.	c #03070B",
"4g.	c #101417",
"5g.	c #181C1E",
"6g.	c #253242",
"7g.	c #283545",
"8g.	c #2C3949",
"9g.	c #505B69",
"0g.	c #5D6976",
"ag.	c #6A7582",
"bg.	c #747D8B",
"cg.	c #7A8391",
"dg.	c #7C8492",
"eg.	c #77808D",
"fg.	c #717A86",
"gg.	c #6E7682",
"hg.	c #79808C",
"ig.	c #8C939D",
"jg.	c #9DA5AF",
"kg.	c #CAD0DB",
"lg.	c #C1C7D3",
"mg.	c #AAB0BB",
"ng.	c #0E0200",
"og.	c #2C1410",
"pg.	c #3C1F19",
"qg.	c #40211A",
"rg.	c #3A1810",
"sg.	c #3D170E",
"tg.	c #3C160C",
"ug.	c #3A150C",
"vg.	c #39180F",
"wg.	c #3A1E14",
"xg.	c #432E26",
"yg.	c #55453D",
"zg.	c #695F58",
"Ag.	c #757069",
"Bg.	c #76776F",
"Cg.	c #6F746C",
"Dg.	c #656F67",
"Eg.	c #626D65",
"Fg.	c #6A736C",
"Gg.	c #767974",
"Hg.	c #74716E",
"Ig.	c #6F6463",
"Jg.	c #6B5557",
"Kg.	c #634849",
"Lg.	c #583C3B",
"Mg.	c #4B312D",
"Ng.	c #3F2720",
"Og.	c #371F17",
"Pg.	c #361C12",
"Qg.	c #392114",
"Rg.	c #392518",
"Sg.	c #3D2E21",
"Tg.	c #473B2F",
"Ug.	c #5B5247",
"Vg.	c #6F685F",
"Wg.	c #807973",
"Xg.	c #7F7472",
"Yg.	c #6F5E61",
"Zg.	c #4F3F44",
"`g.	c #2A1A23",
" h.	c #B4B8B9",
".h.	c #C3C6C5",
"+h.	c #C8CAC5",
"@h.	c #A7A7A4",
"#h.	c #929395",
"$h.	c #818389",
"%h.	c #747780",
"&h.	c #696D7B",
"*h.	c #5E6474",
"=h.	c #53596C",
"-h.	c #474E63",
";h.	c #3C4359",
">h.	c #323A4F",
",h.	c #2D3549",
"'h.	c #273143",
")h.	c #131D26",
"!h.	c #0D1720",
"~h.	c #091119",
"{h.	c #070C13",
"]h.	c #070B10",
"^h.	c #05090D",
"/h.	c #131719",
"(h.	c #060B0E",
"_h.	c #090D10",
":h.	c #0F1316",
"<h.	c #151A1F",
"[h.	c #18232E",
"}h.	c #1A2736",
"|h.	c #1D2A3A",
"1h.	c #243242",
"2h.	c #2C3A4B",
"3h.	c #344252",
"4h.	c #3B4859",
"5h.	c #424F5F",
"6h.	c #4A5766",
"7h.	c #54606F",
"8h.	c #616C7B",
"9h.	c #636D7C",
"0h.	c #646E7D",
"ah.	c #6B7684",
"bh.	c #6E7986",
"ch.	c #68727F",
"dh.	c #656F7B",
"eh.	c #8C95A1",
"fh.	c #B2BAC6",
"gh.	c #CFD6E3",
"hh.	c #CBD2DE",
"ih.	c #BDC4D0",
"jh.	c #ACB4BE",
"kh.	c #A1A8AF",
"lh.	c #190907",
"mh.	c #28120F",
"nh.	c #3B1D18",
"oh.	c #391713",
"ph.	c #3C1812",
"qh.	c #3F1A12",
"rh.	c #3B150D",
"sh.	c #37120A",
"th.	c #34130A",
"uh.	c #34150D",
"vh.	c #392019",
"wh.	c #44312A",
"xh.	c #554842",
"yh.	c #655D56",
"zh.	c #6F6C64",
"Ah.	c #74746C",
"Bh.	c #74776F",
"Ch.	c #6F756D",
"Dh.	c #6E756E",
"Eh.	c #717770",
"Fh.	c #746F6C",
"Gh.	c #766767",
"Hh.	c #736060",
"Ih.	c #6C5957",
"Jh.	c #604F4B",
"Kh.	c #544640",
"Lh.	c #4A3D36",
"Mh.	c #46372F",
"Nh.	c #44332A",
"Oh.	c #45342B",
"Ph.	c #4C3E35",
"Qh.	c #574A42",
"Rh.	c #62574F",
"Sh.	c #6E655E",
"Th.	c #79716B",
"Uh.	c #827976",
"Vh.	c #7B6E70",
"Wh.	c #67555B",
"Xh.	c #49373F",
"Yh.	c #2B1924",
"Zh.	c #93979A",
"`h.	c #C8CCCD",
" i.	c #CFD3D2",
".i.	c #C6C8C3",
"+i.	c #BABCB7",
"@i.	c #AFB0AD",
"#i.	c #A4A5A8",
"$i.	c #9C9EA5",
"%i.	c #9295A0",
"&i.	c #838897",
"*i.	c #73798A",
"=i.	c #62687C",
"-i.	c #52596E",
";i.	c #454C63",
">i.	c #3B4358",
",i.	c #313B4E",
"'i.	c #263241",
")i.	c #222D39",
"!i.	c #1C2630",
"~i.	c #141E27",
"{i.	c #0D161F",
"]i.	c #060C14",
"^i.	c #0D1117",
"/i.	c #080C11",
"(i.	c #05080D",
"_i.	c #14181A",
":i.	c #1E2225",
"<i.	c #101B26",
"[i.	c #12202E",
"}i.	c #192838",
"|i.	c #233343",
"1i.	c #2D3D4D",
"2i.	c #374757",
"3i.	c #3F4D5E",
"4i.	c #455263",
"5i.	c #485565",
"6i.	c #4E5B6A",
"7i.	c #4F5C6B",
"8i.	c #4F5B6B",
"9i.	c #505D6D",
"0i.	c #5B6878",
"ai.	c #63707F",
"bi.	c #64707F",
"ci.	c #697583",
"di.	c #75818F",
"ei.	c #8B95A3",
"fi.	c #A5AEBD",
"gi.	c #BCC5D3",
"hi.	c #C3CDDA",
"ii.	c #C5CFDB",
"ji.	c #C6D0DA",
"ki.	c #B9C3CA",
"li.	c #A5ADB1",
"mi.	c #220C09",
"ni.	c #311512",
"oi.	c #3D1D1A",
"pi.	c #411E1A",
"qi.	c #3F1A15",
"ri.	c #3A140F",
"si.	c #350F0A",
"ti.	c #310E08",
"ui.	c #33130D",
"vi.	c #351913",
"wi.	c #37201A",
"xi.	c #3B2A24",
"yi.	c #493E37",
"zi.	c #5F5750",
"Ai.	c #746E66",
"Bi.	c #7F7D74",
"Ci.	c #7C7D74",
"Di.	c #737970",
"Ei.	c #6A736B",
"Fi.	c #6C736C",
"Gi.	c #72736E",
"Hi.	c #797370",
"Ii.	c #7B716F",
"Ji.	c #786E6B",
"Ki.	c #716964",
"Li.	c #69625C",
"Mi.	c #615A53",
"Ni.	c #5B544C",
"Oi.	c #584E46",
"Pi.	c #594E46",
"Qi.	c #635952",
"Ri.	c #706560",
"Si.	c #796F6B",
"Ti.	c #7D7270",
"Ui.	c #7E7473",
"Vi.	c #817677",
"Wi.	c #76676B",
"Xi.	c #5E4A52",
"Yi.	c #433039",
"Zi.	c #2D1925",
"`i.	c #B1B6B9",
" j.	c #CDD1D4",
".j.	c #D3D7D7",
"+j.	c #CBCFCB",
"@j.	c #C2C5C2",
"#j.	c #BABDBC",
"$j.	c #B5B8BC",
"%j.	c #B1B4BC",
"&j.	c #AAADB9",
"*j.	c #9A9FAF",
"=j.	c #888DA1",
"-j.	c #767C91",
";j.	c #676E85",
">j.	c #5C657B",
",j.	c #525C71",
"'j.	c #404A5D",
")j.	c #2C3746",
"!j.	c #27323E",
"~j.	c #202A34",
"{j.	c #0F1820",
"]j.	c #10141A",
"^j.	c #090D12",
"/j.	c #181C1F",
"(j.	c #24282B",
"_j.	c #1F2326",
":j.	c #14181B",
"<j.	c #12171B",
"[j.	c #121A21",
"}j.	c #14202B",
"|j.	c #192836",
"1j.	c #203041",
"2j.	c #273849",
"3j.	c #2E3F50",
"4j.	c #354657",
"5j.	c #3E4D5F",
"6j.	c #445264",
"7j.	c #465565",
"8j.	c #475565",
"9j.	c #4A5969",
"0j.	c #4D5C6C",
"aj.	c #50606F",
"bj.	c #566575",
"cj.	c #5B6979",
"dj.	c #5F6E7D",
"ej.	c #6F7D8D",
"fj.	c #81909F",
"gj.	c #909EAD",
"hj.	c #98A5B5",
"ij.	c #9CA9B8",
"jj.	c #9FABBA",
"kj.	c #A8B4C1",
"lj.	c #B6C3CE",
"mj.	c #B9C5CF",
"nj.	c #B8C4CA",
"oj.	c #B8C2C7",
"pj.	c #A6AFB2",
"qj.	c #050000",
"rj.	c #0F0202",
"sj.	c #160403",
"tj.	c #200907",
"uj.	c #2D1110",
"vj.	c #3B1B19",
"wj.	c #43201E",
"xj.	c #3F1A18",
"yj.	c #391310",
"zj.	c #340F0B",
"Aj.	c #33140F",
"Bj.	c #311610",
"Cj.	c #2E1711",
"Dj.	c #372621",
"Ej.	c #4D3F39",
"Fj.	c #675B54",
"Gj.	c #797067",
"Hj.	c #7D7A70",
"Ij.	c #797C72",
"Jj.	c #717B72",
"Kj.	c #6F7B72",
"Lj.	c #717972",
"Mj.	c #757772",
"Nj.	c #777571",
"Oj.	c #777470",
"Pj.	c #74746F",
"Qj.	c #72736D",
"Rj.	c #70726B",
"Sj.	c #6F7068",
"Tj.	c #6E6C65",
"Uj.	c #6E6A65",
"Vj.	c #76716C",
"Wj.	c #7F7774",
"Xj.	c #847A79",
"Yj.	c #837878",
"Zj.	c #827678",
"`j.	c #86787D",
" k.	c #77666D",
".k.	c #543E48",
"+k.	c #3C2531",
"@k.	c #2D1624",
"#k.	c #B4B9BD",
"$k.	c #C8CDD1",
"%k.	c #CDD2D6",
"&k.	c #CED3D4",
"*k.	c #CAD0CD",
"=k.	c #C1C6C4",
"-k.	c #B9BEBF",
";k.	c #B7BABF",
">k.	c #B5B9C1",
",k.	c #AFB4C1",
"'k.	c #A2A7B9",
")k.	c #9399AD",
"!k.	c #838AA0",
"~k.	c #767E95",
"{k.	c #6B748B",
"]k.	c #5F6A80",
"^k.	c #4A5569",
"/k.	c #374253",
"(k.	c #303C4A",
"_k.	c #172129",
":k.	c #0A1017",
"<k.	c #080C0F",
"[k.	c #1C1F22",
"}k.	c #262A2D",
"|k.	c #202426",
"1k.	c #161A1C",
"2k.	c #14191D",
"3k.	c #161E25",
"4k.	c #1C2834",
"5k.	c #233241",
"6k.	c #2A3A4C",
"7k.	c #2D3E50",
"8k.	c #304153",
"9k.	c #344557",
"0k.	c #3C4D5F",
"ak.	c #435365",
"bk.	c #455566",
"ck.	c #445465",
"dk.	c #4A5B6B",
"ek.	c #506071",
"fk.	c #546475",
"gk.	c #576879",
"hk.	c #5E6F80",
"ik.	c #6D7D8E",
"jk.	c #7D8D9E",
"kk.	c #8696A6",
"lk.	c #8595A6",
"mk.	c #7E8F9F",
"nk.	c #7B8C9D",
"ok.	c #9DACBA",
"pk.	c #ADBCC8",
"qk.	c #C0CDD4",
"rk.	c #B3BEC3",
"sk.	c #8F969D",
"tk.	c #0D0000",
"uk.	c #190101",
"vk.	c #301313",
"wk.	c #3E1E1D",
"xk.	c #411E1D",
"yk.	c #3E1919",
"zk.	c #381311",
"Ak.	c #34110E",
"Bk.	c #32110D",
"Ck.	c #31120D",
"Dk.	c #341B16",
"Ek.	c #3E2922",
"Fk.	c #53423A",
"Gk.	c #675950",
"Hk.	c #746B61",
"Ik.	c #79796E",
"Jk.	c #788177",
"Kk.	c #758177",
"Lk.	c #727E75",
"Mk.	c #727972",
"Nk.	c #727771",
"Ok.	c #737A73",
"Pk.	c #757D76",
"Qk.	c #778079",
"Rk.	c #797F78",
"Sk.	c #787C76",
"Tk.	c #787975",
"Uk.	c #7E7B78",
"Vk.	c #827C7B",
"Wk.	c #837A7B",
"Xk.	c #83777B",
"Yk.	c #86777D",
"Zk.	c #8C7B83",
"`k.	c #79666F",
" l.	c #4B343F",
".l.	c #331927",
"+l.	c #2A1220",
"@l.	c #BFC4C8",
"#l.	c #D8DDE1",
"$l.	c #C5CACC",
"%l.	c #C0C6C5",
"&l.	c #B4BAB9",
"*l.	c #AAB0B1",
"=l.	c #A7ACB1",
"-l.	c #A6ABB5",
";l.	c #A4AAB7",
">l.	c #9DA4B5",
",l.	c #949BB0",
"'l.	c #8991A8",
")l.	c #7D869E",
"!l.	c #707A92",
"~l.	c #616C82",
"{l.	c #3E495B",
"]l.	c #333F4D",
"^l.	c #27333F",
"/l.	c #141D25",
"(l.	c #0B0E13",
"_l.	c #0B0E12",
":l.	c #1D2023",
"<l.	c #2A2E31",
"[l.	c #292D30",
"}l.	c #181D21",
"|l.	c #1B232A",
"1l.	c #2A3949",
"2l.	c #314153",
"3l.	c #334456",
"4l.	c #354659",
"5l.	c #3D4E60",
"6l.	c #435466",
"7l.	c #445466",
"8l.	c #425365",
"9l.	c #495A6D",
"0l.	c #4D5F72",
"al.	c #506175",
"bl.	c #5A6C7F",
"cl.	c #617387",
"dl.	c #637588",
"el.	c #657689",
"fl.	c #697B8E",
"gl.	c #708195",
"hl.	c #738599",
"il.	c #7A8C9F",
"jl.	c #8597A8",
"kl.	c #95A8B6",
"ll.	c #A6B7C4",
"ml.	c #B3C3CD",
"nl.	c #ABB5BE",
"ol.	c #9AA0A9",
"pl.	c #7B7D86",
"ql.	c #4C4A51",
"rl.	c #221B20",
"sl.	c #120408",
"tl.	c #140103",
"ul.	c #1D0306",
"vl.	c #2C0F10",
"wl.	c #3E1D1E",
"xl.	c #421F1F",
"yl.	c #3C1918",
"zl.	c #341110",
"Al.	c #310E0B",
"Bl.	c #35130F",
"Cl.	c #3B1B17",
"Dl.	c #3D1F19",
"El.	c #381D16",
"Fl.	c #3D241D",
"Gl.	c #4B3730",
"Hl.	c #5F5148",
"Il.	c #6E6B60",
"Jl.	c #787E72",
"Kl.	c #768176",
"Ll.	c #737F75",
"Ml.	c #727C73",
"Nl.	c #717A72",
"Ol.	c #727D75",
"Pl.	c #758179",
"Ql.	c #77837C",
"Rl.	c #78817C",
"Sl.	c #777E79",
"Tl.	c #777B77",
"Ul.	c #7A7977",
"Vl.	c #7B7677",
"Wl.	c #7A7073",
"Xl.	c #817379",
"Yl.	c #8A7981",
"Zl.	c #8F7A85",
"`l.	c #78626E",
" m.	c #432B37",
".m.	c #2A0E1D",
"+m.	c #260F1C",
"@m.	c #ADB1B4",
"#m.	c #C7CBCF",
"$m.	c #D4D9DD",
"%m.	c #BEC4C6",
"&m.	c #B8BFC0",
"*m.	c #ABB3B4",
"=m.	c #A1A9AC",
"-m.	c #9EA5AC",
";m.	c #9FA6B1",
">m.	c #9EA6B5",
",m.	c #9AA3B6",
"'m.	c #96A0B5",
")m.	c #8F99B0",
"!m.	c #828DA5",
"~m.	c #717C94",
"{m.	c #5E6980",
"]m.	c #4F5B6F",
"^m.	c #424E5F",
"/m.	c #283340",
"(m.	c #1B252E",
"_m.	c #121C23",
":m.	c #0E171E",
"<m.	c #0D1115",
"[m.	c #1A1D20",
"}m.	c #272B2E",
"|m.	c #1E2327",
"1m.	c #212830",
"2m.	c #25303E",
"3m.	c #293848",
"4m.	c #2E3E50",
"5m.	c #304154",
"6m.	c #314356",
"7m.	c #344558",
"8m.	c #38495C",
"9m.	c #3B4D60",
"0m.	c #3C4D60",
"am.	c #3C4D61",
"bm.	c #3F5266",
"cm.	c #415469",
"dm.	c #435469",
"em.	c #4D5F73",
"fm.	c #56697E",
"gm.	c #5C7084",
"hm.	c #617489",
"im.	c #63778B",
"jm.	c #607389",
"km.	c #62758B",
"lm.	c #687B91",
"mm.	c #6C8095",
"nm.	c #71859A",
"om.	c #788DA0",
"pm.	c #7F94A5",
"qm.	c #8CA0AF",
"rm.	c #9EB1BE",
"sm.	c #A8B9C5",
"tm.	c #ACB8C5",
"um.	c #A9B2BE",
"vm.	c #A0A5B0",
"wm.	c #8A8A95",
"xm.	c #5D5962",
"ym.	c #271C24",
"zm.	c #120106",
"Am.	c #110000",
"Bm.	c #210509",
"Cm.	c #351619",
"Dm.	c #3D1B1D",
"Em.	c #3D1A1A",
"Fm.	c #371313",
"Gm.	c #350F0E",
"Hm.	c #391411",
"Im.	c #411E19",
"Jm.	c #43211B",
"Km.	c #391710",
"Lm.	c #331007",
"Mm.	c #391D15",
"Nm.	c #4B382F",
"Om.	c #5B5349",
"Pm.	c #67695D",
"Qm.	c #6A7166",
"Rm.	c #6D766B",
"Sm.	c #727B70",
"Tm.	c #757D73",
"Um.	c #768076",
"Vm.	c #758178",
"Wm.	c #75837A",
"Xm.	c #76827B",
"Ym.	c #747F79",
"Zm.	c #727B76",
"`m.	c #727773",
" n.	c #757474",
".n.	c #787174",
"+n.	c #7A6E72",
"@n.	c #837279",
"#n.	c #89757D",
"$n.	c #836B76",
"%n.	c #6A525D",
"&n.	c #3E242F",
"*n.	c #2A0E1A",
"=n.	c #260E19",
"-n.	c #C9CDD0",
";n.	c #CCD0D4",
">n.	c #C7CCD0",
",n.	c #C0C5C9",
"'n.	c #B9BFC3",
")n.	c #B2BABC",
"!n.	c #A6AFB1",
"~n.	c #9DA6AB",
"{n.	c #9AA3AB",
"]n.	c #99A3AF",
"^n.	c #98A2B2",
"/n.	c #95A0B3",
"(n.	c #929EB4",
"_n.	c #8D99B1",
":n.	c #818DA5",
"<n.	c #6E7A92",
"[n.	c #57637A",
"}n.	c #4A576C",
"|n.	c #424F61",
"1n.	c #374353",
"2n.	c #2A3643",
"3n.	c #1D2831",
"4n.	c #0D1319",
"5n.	c #0F1118",
"6n.	c #0F1317",
"7n.	c #222629",
"8n.	c #191D1F",
"9n.	c #23282D",
"0n.	c #26313E",
"an.	c #253344",
"bn.	c #253647",
"cn.	c #28394C",
"dn.	c #2B3D50",
"en.	c #2D3F53",
"fn.	c #2E3F53",
"gn.	c #2E4053",
"hn.	c #2F4154",
"in.	c #314357",
"jn.	c #33465A",
"kn.	c #33475C",
"ln.	c #34485D",
"mn.	c #374A60",
"nn.	c #3E5268",
"on.	c #485D73",
"pn.	c #556A7F",
"qn.	c #61768C",
"rn.	c #687D93",
"sn.	c #657991",
"tn.	c #687D95",
"un.	c #6B8198",
"vn.	c #6D839A",
"wn.	c #70869C",
"xn.	c #71889C",
"yn.	c #788FA1",
"zn.	c #869DAC",
"An.	c #94A8B7",
"Bn.	c #A0AFBF",
"Cn.	c #ABB6C4",
"Dn.	c #ADB3C1",
"En.	c #A3A5B2",
"Fn.	c #898793",
"Gn.	c #5F5963",
"Hn.	c #362E36",
"In.	c #1C0B14",
"Jn.	c #1B0208",
"Kn.	c #270A0F",
"Ln.	c #321316",
"Mn.	c #3A181A",
"Nn.	c #3B1719",
"On.	c #3B1516",
"Pn.	c #3C1614",
"Qn.	c #411C18",
"Rn.	c #431E18",
"Sn.	c #3C1710",
"Tn.	c #3C2219",
"Un.	c #45362B",
"Vn.	c #4E493D",
"Wn.	c #57594C",
"Xn.	c #63685A",
"Yn.	c #707569",
"Zn.	c #787D71",
"`n.	c #7A8276",
" o.	c #788278",
".o.	c #758278",
"+o.	c #748077",
"@o.	c #727671",
"#o.	c #757372",
"$o.	c #7C7375",
"%o.	c #847579",
"&o.	c #8A757B",
"*o.	c #866E75",
"=o.	c #6E555D",
"-o.	c #543A42",
";o.	c #3D212A",
">o.	c #2F151D",
",o.	c #271118",
"'o.	c #ADB0B3",
")o.	c #D5D9DC",
"!o.	c #CED2D6",
"~o.	c #B8BFC2",
"{o.	c #B4BCBF",
"]o.	c #ACB6B8",
"^o.	c #A1ACAF",
"/o.	c #99A4A9",
"(o.	c #959FA8",
"_o.	c #8D98A9",
":o.	c #8793A7",
"<o.	c #8490A8",
"[o.	c #7F8DA6",
"}o.	c #74829B",
"|o.	c #627088",
"1o.	c #4C5970",
"2o.	c #435165",
"3o.	c #3F4C5E",
"4o.	c #374454",
"5o.	c #2D3A47",
"6o.	c #182229",
"7o.	c #0E171D",
"8o.	c #111218",
"9o.	c #13151A",
"0o.	c #14171B",
"ao.	c #272C31",
"bo.	c #2A3138",
"co.	c #21303F",
"do.	c #1B2C3D",
"eo.	c #1D2E40",
"fo.	c #1F3143",
"go.	c #203145",
"ho.	c #1D2E42",
"io.	c #1B2C3F",
"jo.	c #1F3044",
"ko.	c #26384C",
"lo.	c #2D3F54",
"mo.	c #2B3F55",
"no.	c #31455B",
"oo.	c #3C5067",
"po.	c #42576E",
"qo.	c #495E75",
"ro.	c #52687E",
"so.	c #5A7087",
"to.	c #60768C",
"uo.	c #5F758C",
"vo.	c #667C94",
"wo.	c #70879F",
"xo.	c #738AA2",
"yo.	c #6F879E",
"zo.	c #678096",
"Ao.	c #718BA0",
"Bo.	c #7A93A8",
"Co.	c #758DA0",
"Do.	c #7C91A3",
"Eo.	c #8B9CAE",
"Fo.	c #99A7B7",
"Go.	c #A4ADBD",
"Ho.	c #A9AEBE",
"Io.	c #A5A6B4",
"Jo.	c #928F9C",
"Ko.	c #655E6A",
"Lo.	c #392E38",
"Mo.	c #1A0A11",
"No.	c #180204",
"Oo.	c #250A0E",
"Po.	c #341418",
"Qo.	c #401D1F",
"Ro.	c #421E1F",
"So.	c #3D1716",
"To.	c #391410",
"Uo.	c #39140E",
"Vo.	c #3E1711",
"Wo.	c #421A13",
"Xo.	c #411B13",
"Yo.	c #3A1910",
"Zo.	c #351F14",
"`o.	c #382D21",
" p.	c #454133",
".p.	c #585648",
"+p.	c #6B6A5C",
"@p.	c #767669",
"#p.	c #797C6F",
"$p.	c #767D71",
"%p.	c #757D72",
"&p.	c #747D73",
"*p.	c #767E75",
"=p.	c #787E77",
"-p.	c #7C7D78",
";p.	c #7E7977",
">p.	c #867A7B",
",p.	c #948284",
"'p.	c #927A7F",
")p.	c #81656B",
"!p.	c #594046",
"~p.	c #3F2229",
"{p.	c #402429",
"]p.	c #351D20",
"^p.	c #2A1618",
"/p.	c #B9BCBF",
"(p.	c #C6CACD",
"_p.	c #CED2D5",
":p.	c #C5CACD",
"<p.	c #B8BEC1",
"[p.	c #B6BDC1",
"}p.	c #B1BABD",
"|p.	c #A8B2B6",
"1p.	c #A0ACB0",
"2p.	c #99A5AC",
"3p.	c #94A0AB",
"4p.	c #8F9BAA",
"5p.	c #8896A8",
"6p.	c #818EA5",
"7p.	c #7A88A0",
"8p.	c #71809A",
"9p.	c #64738D",
"0p.	c #54627B",
"ap.	c #415068",
"bp.	c #3B4A5F",
"cp.	c #394659",
"dp.	c #344151",
"ep.	c #2C3946",
"fp.	c #233038",
"gp.	c #080D13",
"hp.	c #0D0D14",
"ip.	c #121518",
"jp.	c #05080C",
"kp.	c #161A1D",
"lp.	c #24292D",
"mp.	c #1A2836",
"np.	c #142434",
"op.	c #142536",
"pp.	c #17283A",
"qp.	c #192A3D",
"rp.	c #18293C",
"sp.	c #1D2F41",
"tp.	c #24374A",
"up.	c #2A3D52",
"vp.	c #293D53",
"wp.	c #30455B",
"xp.	c #3D5169",
"yp.	c #41566E",
"zp.	c #455B72",
"Ap.	c #4B6179",
"Bp.	c #52687F",
"Cp.	c #566D85",
"Dp.	c #597088",
"Ep.	c #607891",
"Fp.	c #6A839B",
"Gp.	c #6F87A0",
"Hp.	c #6D869E",
"Ip.	c #68839A",
"Jp.	c #728DA4",
"Kp.	c #7893A9",
"Lp.	c #738AA0",
"Mp.	c #7F93A8",
"Np.	c #8E9EB2",
"Op.	c #9AA6B9",
"Pp.	c #A2AABC",
"Qp.	c #AAAEBE",
"Rp.	c #A9A8B8",
"Sp.	c #9893A2",
"Tp.	c #746C79",
"Up.	c #423842",
"Vp.	c #1F1219",
"Wp.	c #150000",
"Xp.	c #37181B",
"Yp.	c #3F1D1F",
"Zp.	c #411D1D",
"`p.	c #391513",
" q.	c #3F1711",
".q.	c #421A12",
"+q.	c #3D180E",
"@q.	c #341508",
"#q.	c #2D1808",
"$q.	c #36291B",
"%q.	c #463E30",
"&q.	c #585244",
"*q.	c #635F51",
"=q.	c #6B695B",
"-q.	c #717163",
";q.	c #76786B",
">q.	c #7C7E72",
",q.	c #7F8277",
"'q.	c #82837A",
")q.	c #85827B",
"!q.	c #887E7A",
"~q.	c #8B7B7A",
"{q.	c #8E7979",
"]q.	c #83696C",
"^q.	c #6D4F53",
"/q.	c #482A2E",
"(q.	c #3C1F22",
"_q.	c #321B1B",
":q.	c #271513",
"<q.	c #D0D3D6",
"[q.	c #D8DCDE",
"}q.	c #C1C5C8",
"|q.	c #BABEC2",
"1q.	c #BBC0C4",
"2q.	c #B6BEC1",
"3q.	c #AEB7BA",
"4q.	c #A3AEB3",
"5q.	c #9DABB0",
"6q.	c #98A7AF",
"7q.	c #93A1AE",
"8q.	c #8F9DAE",
"9q.	c #8998AD",
"0q.	c #8391A9",
"aq.	c #7887A1",
"bq.	c #6A7A94",
"cq.	c #5A6A84",
"dq.	c #4C5B75",
"eq.	c #404F68",
"fq.	c #38475E",
"gq.	c #334155",
"hq.	c #2F3C4D",
"iq.	c #293643",
"jq.	c #1B252D",
"kq.	c #151D23",
"lq.	c #0F161C",
"mq.	c #0C1116",
"nq.	c #0B0C12",
"oq.	c #0F1D2A",
"pq.	c #0F1E2E",
"qq.	c #112131",
"rq.	c #142435",
"sq.	c #18283A",
"tq.	c #1C2C3E",
"uq.	c #203142",
"vq.	c #233647",
"wq.	c #27394C",
"xq.	c #2A3C50",
"yq.	c #2A3E52",
"zq.	c #2F4459",
"Aq.	c #384C64",
"Bq.	c #3B5067",
"Cq.	c #3D536A",
"Dq.	c #425870",
"Eq.	c #485E76",
"Fq.	c #4D657D",
"Gq.	c #526A83",
"Hq.	c #566F88",
"Iq.	c #5B758E",
"Jq.	c #617B94",
"Kq.	c #67829A",
"Lq.	c #6C87A0",
"Mq.	c #718DA5",
"Nq.	c #7591A9",
"Oq.	c #7892AA",
"Pq.	c #7B93AA",
"Qq.	c #8096AD",
"Rq.	c #8B9DB4",
"Sq.	c #909FB5",
"Tq.	c #949FB3",
"Uq.	c #A3A9BD",
"Vq.	c #B1B3C6",
"Wq.	c #B6B4C6",
"Xq.	c #9D97A7",
"Yq.	c #6D6471",
"Zq.	c #423A44",
"`q.	c #20141B",
" r.	c #180508",
".r.	c #24080B",
"+r.	c #341517",
"@r.	c #401F1E",
"#r.	c #3D1A19",
"$r.	c #3F1712",
"%r.	c #3F160F",
"&r.	c #3D140C",
"*r.	c #40190F",
"=r.	c #3C190D",
"-r.	c #341606",
";r.	c #311907",
">r.	c #331F0F",
",r.	c #392A1A",
"'r.	c #453929",
")r.	c #534A3A",
"!r.	c #645D4D",
"~r.	c #716D5E",
"{r.	c #7B786A",
"]r.	c #817D70",
"^r.	c #837D73",
"/r.	c #847B72",
"(r.	c #897A74",
"_r.	c #86726E",
":r.	c #785F5D",
"<r.	c #644646",
"[r.	c #4D292C",
"}r.	c #3D1719",
"|r.	c #371413",
"1r.	c #361917",
"2r.	c #2C1510",
"3r.	c #211109",
"4r.	c #95969A",
"5r.	c #C6C9CC",
"6r.	c #D2D6D9",
"7r.	c #BFC3C6",
"8r.	c #BBBFC3",
"9r.	c #BCC1C5",
"0r.	c #B2B8BD",
"ar.	c #A5AEB3",
"br.	c #99A6AB",
"cr.	c #93A2A9",
"dr.	c #90A0A9",
"er.	c #8D9CAA",
"fr.	c #8898AD",
"gr.	c #8494AD",
"hr.	c #7D8DA7",
"ir.	c #72829E",
"jr.	c #667591",
"kr.	c #5B6A85",
"lr.	c #505F79",
"mr.	c #3F4F66",
"nr.	c #324055",
"or.	c #2E3C4D",
"pr.	c #293543",
"qr.	c #222E38",
"rr.	c #0A0E10",
"sr.	c #171C20",
"tr.	c #111922",
"ur.	c #0C1824",
"vr.	c #0D1A28",
"wr.	c #0F1D2C",
"xr.	c #122031",
"yr.	c #162535",
"zr.	c #1A293A",
"Ar.	c #1E2E3F",
"Br.	c #213244",
"Cr.	c #243547",
"Dr.	c #26384A",
"Er.	c #273A4D",
"Fr.	c #2B3E53",
"Gr.	c #32485E",
"Hr.	c #344A61",
"Ir.	c #394F66",
"Jr.	c #3E556D",
"Kr.	c #445C74",
"Lr.	c #48617A",
"Mr.	c #4D667F",
"Nr.	c #516B84",
"Or.	c #57728B",
"Pr.	c #5E7993",
"Qr.	c #65809A",
"Rr.	c #6E89A3",
"Sr.	c #7893AD",
"Tr.	c #839DB7",
"Ur.	c #87A0B9",
"Vr.	c #879EB8",
"Wr.	c #899DB6",
"Xr.	c #8899B1",
"Yr.	c #8896AC",
"Zr.	c #96A0B6",
"`r.	c #A9AFC3",
" s.	c #B9BACD",
".s.	c #AFAEBF",
"+s.	c #9590A0",
"@s.	c #716976",
"#s.	c #473E48",
"$s.	c #1B1015",
"%s.	c #140000",
"&s.	c #22070B",
"*s.	c #411E1B",
"=s.	c #3D1813",
"-s.	c #3E1610",
";s.	c #3F1610",
">s.	c #3D150C",
",s.	c #401A0E",
"'s.	c #442011",
")s.	c #401E0C",
"!s.	c #381906",
"~s.	c #321804",
"{s.	c #341F0D",
"]s.	c #3C2C1D",
"^s.	c #483B2D",
"/s.	c #53483B",
"(s.	c #5B5245",
"_s.	c #60574B",
":s.	c #63594E",
"<s.	c #66594F",
"[s.	c #6C5951",
"}s.	c #6B534E",
"|s.	c #604340",
"1s.	c #512E2D",
"2s.	c #421818",
"3s.	c #3C1212",
"4s.	c #3A1714",
"5s.	c #381C16",
"6s.	c #2D180F",
"7s.	c #B8B9BD",
"8s.	c #C5C8CC",
"9s.	c #C0C5C8",
"0s.	c #BFC3C7",
"as.	c #ADB4B9",
"bs.	c #9FA8AE",
"cs.	c #93A1A7",
"ds.	c #8E9EA6",
"es.	c #8C9DA8",
"fs.	c #8B9CAB",
"gs.	c #8B9CAF",
"hs.	c #8A9BB1",
"is.	c #8697B1",
"js.	c #7F90AB",
"ks.	c #7485A2",
"ls.	c #687895",
"ms.	c #5C6C88",
"ns.	c #51617B",
"os.	c #324056",
"ps.	c #293544",
"qs.	c #10161C",
"rs.	c #0D0E12",
"ss.	c #0B0D10",
"ts.	c #12171D",
"us.	c #0D151D",
"vs.	c #0A141F",
"ws.	c #0B1623",
"xs.	c #0D1927",
"ys.	c #101C2B",
"zs.	c #13202E",
"As.	c #172433",
"Bs.	c #1A2838",
"Cs.	c #1C2C3D",
"Ds.	c #1F2F40",
"Es.	c #213243",
"Fs.	c #223346",
"Gs.	c #273B4F",
"Hs.	c #283D53",
"Is.	c #2A3F56",
"Js.	c #2E445B",
"Ks.	c #344A62",
"Ls.	c #395169",
"Ms.	c #3D576F",
"Ns.	c #415B74",
"Os.	c #466079",
"Ps.	c #4C6680",
"Qs.	c #526D88",
"Rs.	c #59748F",
"Ss.	c #647F9A",
"Ts.	c #748EA9",
"Us.	c #859FBA",
"Vs.	c #8DA6C1",
"Ws.	c #8EA6C0",
"Xs.	c #8AA0BA",
"Ys.	c #8699B2",
"Zs.	c #8696AE",
"`s.	c #8F9CB3",
" t.	c #9EA9BF",
".t.	c #B0B7CB",
"+t.	c #B6B9CB",
"@t.	c #AEAEBF",
"#t.	c #9792A2",
"$t.	c #746D7A",
"%t.	c #443D46",
"&t.	c #21161D",
"*t.	c #1D0405",
"=t.	c #311514",
"-t.	c #3C1C1A",
";t.	c #3C1A16",
">t.	c #401B16",
",t.	c #431C16",
"'t.	c #3C150D",
")t.	c #411A0E",
"!t.	c #4B2315",
"~t.	c #482111",
"{t.	c #3F1B08",
"]t.	c #361503",
"^t.	c #311100",
"/t.	c #301201",
"(t.	c #321705",
"_t.	c #361E0E",
":t.	c #3A2616",
"<t.	c #3F2C1D",
"[t.	c #432F22",
"}t.	c #463125",
"|t.	c #4C3329",
"1t.	c #4E3028",
"2t.	c #4A2823",
"3t.	c #451D1A",
"4t.	c #401311",
"5t.	c #3F1411",
"6t.	c #3D1B15",
"7t.	c #3A2017",
"8t.	c #2E1B10",
"9t.	c #B6B7BB",
"0t.	c #D5D6DA",
"at.	c #CCCFD2",
"bt.	c #C2C6CA",
"ct.	c #ABB2B7",
"dt.	c #9CA7AD",
"et.	c #8EA1AA",
"ft.	c #8EA1AE",
"gt.	c #8EA1B2",
"ht.	c #8EA1B5",
"it.	c #8C9EB6",
"jt.	c #8697B3",
"kt.	c #7B8DAA",
"lt.	c #6D7F9D",
"mt.	c #5D6E8C",
"nt.	c #4E5F7C",
"ot.	c #43536D",
"pt.	c #384861",
"qt.	c #314056",
"rt.	c #2E3C4E",
"st.	c #11161C",
"tt.	c #0B1015",
"ut.	c #070F19",
"vt.	c #08111C",
"wt.	c #0A131F",
"xt.	c #0D1723",
"yt.	c #101A26",
"zt.	c #121E2B",
"At.	c #152130",
"Bt.	c #172534",
"Ct.	c #1B2A3B",
"Dt.	c #1C2D40",
"Et.	c #1D2F42",
"Ft.	c #1D3045",
"Gt.	c #1E3349",
"Ht.	c #23384F",
"It.	c #283E55",
"Jt.	c #2C445C",
"Kt.	c #314A63",
"Lt.	c #354F67",
"Mt.	c #39536C",
"Nt.	c #3E5973",
"Ot.	c #445F7A",
"Pt.	c #4B6681",
"Qt.	c #546F89",
"Rt.	c #667F9A",
"St.	c #7E96B2",
"Tt.	c #8CA4C0",
"Ut.	c #91A8C4",
"Vt.	c #8DA3BE",
"Wt.	c #8B9FB9",
"Xt.	c #8D9EB8",
"Yt.	c #8FA0B8",
"Zt.	c #96A4BB",
"`t.	c #A2ADC3",
" u.	c #B1B9CD",
".u.	c #BABED0",
"+u.	c #B2B1C2",
"@u.	c #9A97A6",
"#u.	c #726D79",
"$u.	c #453F47",
"%u.	c #1C1114",
"&u.	c #1E0C0E",
"*u.	c #200808",
"=u.	c #2A0F0D",
"-u.	c #391B18",
";u.	c #42211D",
">u.	c #45221C",
",u.	c #3E1A12",
"'u.	c #41190E",
")u.	c #4A1F12",
"!u.	c #481D0F",
"~u.	c #431A0A",
"{u.	c #3D1605",
"]u.	c #391303",
"^u.	c #361202",
"/u.	c #351102",
"(u.	c #351304",
"_u.	c #351707",
":u.	c #391E10",
"<u.	c #3B1F12",
"[u.	c #3C1D12",
"}u.	c #3D1B12",
"|u.	c #3F1811",
"1u.	c #40140E",
"2u.	c #41120D",
"3u.	c #421611",
"4u.	c #401D14",
"5u.	c #3A2116",
"6u.	c #2E1D0F",
"7u.	c #B5B6B9",
"8u.	c #D4D5D9",
"9u.	c #C9CBCF",
"0u.	c #C4C9CC",
"au.	c #BAC0C4",
"bu.	c #AAB2B7",
"cu.	c #9DA9AF",
"du.	c #95A7AE",
"eu.	c #92A6B0",
"fu.	c #90A5B3",
"gu.	c #8EA3B4",
"hu.	c #8B9FB5",
"iu.	c #869AB3",
"ju.	c #7D90AC",
"ku.	c #7083A1",
"lu.	c #607391",
"mu.	c #4F617F",
"nu.	c #3F516E",
"ou.	c #344661",
"pu.	c #32435B",
"qu.	c #0C0C10",
"ru.	c #0B0B0F",
"su.	c #090B0F",
"tu.	c #040A11",
"uu.	c #070E19",
"vu.	c #09121C",
"wu.	c #0B151F",
"xu.	c #101A28",
"yu.	c #121E2C",
"zu.	c #132030",
"Au.	c #152333",
"Bu.	c #152435",
"Cu.	c #152537",
"Du.	c #142538",
"Eu.	c #14273A",
"Fu.	c #16293E",
"Gu.	c #192E44",
"Hu.	c #1E344B",
"Iu.	c #233A51",
"Ju.	c #273F57",
"Ku.	c #2A435C",
"Lu.	c #2E4861",
"Mu.	c #344E67",
"Nu.	c #3A546E",
"Ou.	c #405A74",
"Pu.	c #46607B",
"Qu.	c #566E89",
"Ru.	c #6F86A2",
"Su.	c #8096B3",
"Tu.	c #899FBC",
"Uu.	c #8A9FBB",
"Vu.	c #8DA2BD",
"Wu.	c #93A6C1",
"Xu.	c #92A5BE",
"Yu.	c #90A2B9",
"Zu.	c #91A0B7",
"`u.	c #A0ABC0",
" v.	c #AFB7CB",
".v.	c #B6BACD",
"+v.	c #B3B4C4",
"@v.	c #A2A1AE",
"#v.	c #77747E",
"$v.	c #413A41",
"%v.	c #21161B",
"&v.	c #1C0505",
"*v.	c #2B120F",
"=v.	c #3B211C",
"-v.	c #452822",
";v.	c #402019",
">v.	c #45190F",
",v.	c #46190D",
"'v.	c #461A0D",
")v.	c #451A0C",
"!v.	c #441A0C",
"~v.	c #42190A",
"{v.	c #421608",
"]v.	c #401507",
"^v.	c #3F1507",
"/v.	c #3E1809",
"(v.	c #3E1A0B",
"_v.	c #3F1B0D",
":v.	c #3E180A",
"<v.	c #3F150A",
"[v.	c #43170D",
"}v.	c #45160E",
"|v.	c #461610",
"1v.	c #451912",
"2v.	c #401C13",
"3v.	c #371E12",
"4v.	c #2C1B0D",
"5v.	c #ABACB0",
"6v.	c #BBBCC0",
"7v.	c #C8C9CD",
"8v.	c #C1C4C7",
"9v.	c #CBCFD2",
"0v.	c #C6CBCE",
"av.	c #B7BDC1",
"bv.	c #A8B1B5",
"cv.	c #9DAAB0",
"dv.	c #96A9B1",
"ev.	c #92A7B3",
"fv.	c #8EA4B4",
"gv.	c #8AA0B2",
"hv.	c #849AB0",
"iv.	c #7C92AB",
"jv.	c #7286A3",
"kv.	c #657898",
"lv.	c #566989",
"mv.	c #475A7A",
"nv.	c #3A4D6C",
"ov.	c #324560",
"pv.	c #31425B",
"qv.	c #283544",
"rv.	c #0F1116",
"sv.	c #010308",
"tv.	c #02060B",
"uv.	c #04070E",
"vv.	c #0B121D",
"wv.	c #0C1421",
"xv.	c #0E1928",
"yv.	c #101B2A",
"zv.	c #0F1F30",
"Av.	c #0F2032",
"Bv.	c #102236",
"Cv.	c #13273C",
"Dv.	c #182D43",
"Ev.	c #1C3249",
"Fv.	c #20374E",
"Gv.	c #233B53",
"Hv.	c #264058",
"Iv.	c #2C455E",
"Jv.	c #324C64",
"Kv.	c #39526B",
"Lv.	c #3F5772",
"Mv.	c #4C627E",
"Nv.	c #607591",
"Ov.	c #7185A2",
"Pv.	c #7C91AD",
"Qv.	c #8297B2",
"Rv.	c #8A9FBA",
"Sv.	c #92A7C2",
"Tv.	c #91A5BF",
"Uv.	c #8A9EB7",
"Vv.	c #8495AD",
"Wv.	c #8D9CB3",
"Xv.	c #9EABC0",
"Yv.	c #AEB8CB",
"Zv.	c #B9C0D0",
"`v.	c #B9BECB",
" w.	c #A1A3AE",
".w.	c #77767E",
"+w.	c #3C3A3F",
"@w.	c #120509",
"#w.	c #140305",
"$w.	c #190604",
"%w.	c #2E1A16",
"&w.	c #3D2520",
"*w.	c #3E211B",
"=w.	c #40170F",
"-w.	c #45180F",
";w.	c #481B11",
">w.	c #491D12",
",w.	c #491E12",
"'w.	c #491C10",
")w.	c #48180D",
"!w.	c #46160A",
"~w.	c #451609",
"{w.	c #43190B",
"]w.	c #441B0D",
"^w.	c #461D0E",
"/w.	c #461B0E",
"(w.	c #471A0F",
"_w.	c #4B1C12",
":w.	c #4D1B13",
"<w.	c #4B1A14",
"[w.	c #471A13",
"}w.	c #3E1A11",
"|w.	c #321A0E",
"1w.	c #C7C8CC",
"2w.	c #C9CACE",
"3w.	c #BABCC0",
"4w.	c #CFD3D6",
"5w.	c #B3B8BC",
"6w.	c #A3ACB1",
"7w.	c #99A7AE",
"8w.	c #93A7B0",
"9w.	c #8EA4B1",
"0w.	c #89A0B1",
"aw.	c #8399AD",
"bw.	c #7C92AA",
"cw.	c #738AA5",
"dw.	c #6B809E",
"ew.	c #617595",
"fw.	c #566A8B",
"gw.	c #4C6081",
"hw.	c #445878",
"iw.	c #3E516F",
"jw.	c #374863",
"kw.	c #314157",
"lw.	c #2D3C4E",
"mw.	c #283644",
"nw.	c #161D23",
"ow.	c #090A0E",
"pw.	c #06080C",
"qw.	c #010407",
"rw.	c #000306",
"sw.	c #000205",
"tw.	c #030409",
"uw.	c #04060B",
"vw.	c #05060C",
"ww.	c #090E17",
"xw.	c #0A101B",
"yw.	c #0D1623",
"zw.	c #0C1725",
"Aw.	c #0C1928",
"Bw.	c #0D1B2C",
"Cw.	c #0D1C2E",
"Dw.	c #0E1E31",
"Ew.	c #112337",
"Fw.	c #15293D",
"Gw.	c #1F364E",
"Hw.	c #223B53",
"Iw.	c #284058",
"Jw.	c #2E465E",
"Kw.	c #354D65",
"Lw.	c #405670",
"Mw.	c #4D617C",
"Nw.	c #586B86",
"Ow.	c #647692",
"Pw.	c #6E829D",
"Qw.	c #768AA5",
"Rw.	c #7F94AF",
"Sw.	c #889DB8",
"Tw.	c #8398B2",
"Uw.	c #7D92AA",
"Vw.	c #8297AD",
"Ww.	c #8FA2B6",
"Xw.	c #9DADBF",
"Yw.	c #ADBACA",
"Zw.	c #BAC4D2",
"`w.	c #A7ADB6",
" x.	c #67696F",
".x.	c #2F2D31",
"+x.	c #160F10",
"@x.	c #110503",
"#x.	c #190906",
"$x.	c #321A15",
"%x.	c #3A1B16",
"&x.	c #3F1913",
"*x.	c #441A14",
"=x.	c #471C15",
"-x.	c #471E16",
";x.	c #471D14",
">x.	c #461910",
",x.	c #46140B",
"'x.	c #441006",
")x.	c #431005",
"!x.	c #431307",
"~x.	c #45170A",
"{x.	c #481A0C",
"]x.	c #4A1C0F",
"^x.	c #4D1D12",
"/x.	c #501E15",
"(x.	c #511D17",
"_x.	c #4E1B16",
":x.	c #461813",
"<x.	c #3B160F",
"[x.	c #CACBCF",
"}x.	c #CCCDD1",
"|x.	c #B7B8BC",
"1x.	c #BABDC0",
"2x.	c #C3C7CB",
"3x.	c #9BA4A9",
"4x.	c #91A0A8",
"5x.	c #8EA2AC",
"6x.	c #8BA2B0",
"7x.	c #88A0B2",
"8x.	c #859DB2",
"9x.	c #8098B0",
"0x.	c #7A92AD",
"ax.	c #7288A7",
"bx.	c #687D9E",
"cx.	c #5C7293",
"dx.	c #526687",
"ex.	c #495D7D",
"fx.	c #425573",
"gx.	c #384A65",
"hx.	c #304157",
"ix.	c #2D3D4E",
"jx.	c #11161A",
"kx.	c #090A0D",
"lx.	c #020508",
"mx.	c #000407",
"nx.	c #010205",
"ox.	c #040408",
"px.	c #06060A",
"qx.	c #080B10",
"rx.	c #0A0F19",
"sx.	c #0A1320",
"tx.	c #0B1624",
"ux.	c #0D1929",
"vx.	c #0D1A2B",
"wx.	c #102134",
"xx.	c #14263A",
"yx.	c #182C40",
"zx.	c #1B3045",
"Ax.	c #1D334A",
"Bx.	c #20374F",
"Cx.	c #263D54",
"Dx.	c #2B425A",
"Ex.	c #324961",
"Fx.	c #40546D",
"Gx.	c #4C5D78",
"Hx.	c #53647F",
"Ix.	c #5D6E89",
"Jx.	c #677995",
"Kx.	c #70849F",
"Lx.	c #798EA9",
"Mx.	c #7E95B0",
"Nx.	c #7F96B1",
"Ox.	c #7C94AF",
"Px.	c #7B93AC",
"Qx.	c #7F97AE",
"Rx.	c #869DB2",
"Sx.	c #8CA0B4",
"Tx.	c #9CADBE",
"Ux.	c #AEBDCB",
"Vx.	c #B6C2CE",
"Wx.	c #B1BAC4",
"Xx.	c #9BA2A9",
"Yx.	c #6F7478",
"Zx.	c #262428",
"`x.	c #0F0808",
" y.	c #090200",
".y.	c #100301",
"+y.	c #2D130F",
"@y.	c #351410",
"#y.	c #3C1712",
"$y.	c #411A15",
"%y.	c #441E18",
"&y.	c #4A1712",
"*y.	c #4B130D",
"=y.	c #491209",
"-y.	c #481409",
";y.	c #48170B",
">y.	c #49190C",
",y.	c #49190D",
"'y.	c #4A190E",
")y.	c #4D1A12",
"!y.	c #4E1914",
"~y.	c #4B1714",
"{y.	c #421411",
"]y.	c #38120D",
"^y.	c #281008",
"/y.	c #A3A4A6",
"(y.	c #C6C6CA",
"_y.	c #BABBBF",
":y.	c #C8CCCF",
"<y.	c #BCC0C3",
"[y.	c #A3A9AD",
"}y.	c #949DA3",
"|y.	c #8C9BA3",
"1y.	c #8B9FAA",
"2y.	c #8AA3B1",
"3y.	c #8BA5B6",
"4y.	c #8CA6BB",
"5y.	c #8BA4BC",
"6y.	c #869EB9",
"7y.	c #7D94B3",
"8y.	c #7087A8",
"9y.	c #617899",
"0y.	c #536889",
"ay.	c #475B7B",
"by.	c #3F5270",
"cy.	c #364963",
"dy.	c #2C3D4E",
"ey.	c #0D0E11",
"fy.	c #0A0B0D",
"gy.	c #060608",
"hy.	c #080709",
"iy.	c #08070A",
"jy.	c #09080C",
"ky.	c #0B0B10",
"ly.	c #0A101C",
"my.	c #0A111E",
"ny.	c #0B1422",
"oy.	c #0D1827",
"py.	c #0D192A",
"qy.	c #0F1F31",
"ry.	c #132437",
"sy.	c #17293D",
"ty.	c #1A2E43",
"uy.	c #1C3147",
"vy.	c #1F354C",
"wy.	c #243A52",
"xy.	c #2A4058",
"yy.	c #30465E",
"zy.	c #3C4F68",
"Ay.	c #475771",
"By.	c #4F5F79",
"Cy.	c #586883",
"Dy.	c #637490",
"Ey.	c #6E819C",
"Fy.	c #758AA6",
"Gy.	c #778FAB",
"Hy.	c #7891AC",
"Iy.	c #7993AE",
"Jy.	c #7C98B1",
"Ky.	c #7F9BB3",
"Ly.	c #809AB1",
"My.	c #7E96AC",
"Ny.	c #8A9FB2",
"Oy.	c #9BAEBD",
"Py.	c #A1B1BE",
"Qy.	c #ABB8C2",
"Ry.	c #B5BFC6",
"Sy.	c #9DA5AA",
"Ty.	c #63686A",
"Uy.	c #303233",
"Vy.	c #030000",
"Wy.	c #0F0201",
"Xy.	c #1A0403",
"Yy.	c #270A08",
"Zy.	c #2F0F0D",
"`y.	c #371513",
" z.	c #3E1C18",
".z.	c #451F1C",
"+z.	c #4B201D",
"@z.	c #511D1B",
"#z.	c #531A17",
"$z.	c #521813",
"%z.	c #4F1910",
"&z.	c #4D1A0F",
"*z.	c #4C190F",
"=z.	c #47150A",
"-z.	c #451208",
";z.	c #47120C",
">z.	c #48120E",
",z.	c #46100F",
"'z.	c #3E0E0D",
")z.	c #350D0B",
"!z.	c #C0C0C2",
"~z.	c #C2C3C7",
"{z.	c #C0C1C5",
"]z.	c #B0B4B8",
"^z.	c #9BA1A5",
"/z.	c #929CA1",
"(z.	c #8E9DA6",
"_z.	c #8DA2AF",
":z.	c #8EA7B6",
"<z.	c #91ABBE",
"[z.	c #94AEC4",
"}z.	c #93ADC6",
"|z.	c #8EA7C2",
"1z.	c #829BB9",
"2z.	c #728AAB",
"3z.	c #5F7798",
"4z.	c #4D6485",
"5z.	c #3F5473",
"6z.	c #364A67",
"7z.	c #32455F",
"8z.	c #08090C",
"9z.	c #020608",
"0z.	c #050608",
"az.	c #09080A",
"bz.	c #0B090B",
"cz.	c #0C090B",
"dz.	c #0D090C",
"ez.	c #0D0D13",
"fz.	c #0D0E14",
"gz.	c #0C0F17",
"hz.	c #0B1220",
"iz.	c #0D1625",
"jz.	c #0D1828",
"kz.	c #0D1A2A",
"lz.	c #0E1D2F",
"mz.	c #122235",
"nz.	c #16273B",
"oz.	c #182C41",
"pz.	c #1A2F44",
"qz.	c #1D3248",
"rz.	c #22384E",
"sz.	c #283D55",
"tz.	c #2E425A",
"uz.	c #35465F",
"vz.	c #3F4D67",
"wz.	c #4B5772",
"xz.	c #53617D",
"yz.	c #5C6B88",
"zz.	c #697B97",
"Az.	c #7187A2",
"Bz.	c #758DA9",
"Cz.	c #768FAB",
"Dz.	c #7995AF",
"Ez.	c #809DB7",
"Fz.	c #809EB6",
"Gz.	c #7D9AB1",
"Hz.	c #7A95AB",
"Iz.	c #7E98AB",
"Jz.	c #879FAF",
"Kz.	c #A0B2BC",
"Lz.	c #B0C0C7",
"Mz.	c #AEBABE",
"Nz.	c #9BA4A6",
"Oz.	c #63696A",
"Pz.	c #161311",
"Qz.	c #0B0403",
"Rz.	c #0E0000",
"Sz.	c #180303",
"Tz.	c #210607",
"Uz.	c #2B0E0E",
"Vz.	c #351715",
"Wz.	c #401E1C",
"Xz.	c #4C2220",
"Yz.	c #562121",
"Zz.	c #5A2020",
"`z.	c #591F1C",
" A.	c #561E18",
".A.	c #531D15",
"+A.	c #501C13",
"@A.	c #4A160D",
"#A.	c #451109",
"$A.	c #45100B",
"%A.	c #450E0C",
"&A.	c #420C0C",
"*A.	c #39090A",
"=A.	c #BDBDBE",
"-A.	c #D0D1D2",
";A.	c #C2C4C6",
">A.	c #C2C4C8",
",A.	c #C8CCD0",
"'A.	c #C5CBCF",
")A.	c #B6BCC1",
"!A.	c #A2A8AE",
"~A.	c #929AA0",
"{A.	c #949FA7",
"]A.	c #94A4AF",
"^A.	c #92A8B5",
"/A.	c #91ABBA",
"(A.	c #92ACBF",
"_A.	c #92ACC3",
":A.	c #8FA9C2",
"<A.	c #87A1BD",
"[A.	c #7B94B2",
"}A.	c #6B84A4",
"|A.	c #5A7293",
"1A.	c #4B6282",
"2A.	c #3F5573",
"3A.	c #384C69",
"4A.	c #34465F",
"5A.	c #283643",
"6A.	c #1C252D",
"7A.	c #0B0C0F",
"8A.	c #030508",
"9A.	c #04070A",
"0A.	c #010507",
"aA.	c #06090C",
"bA.	c #0E0C0C",
"cA.	c #0F0B0D",
"dA.	c #0F0F13",
"eA.	c #0C1422",
"fA.	c #0C1624",
"gA.	c #0C1828",
"hA.	c #0E1B2D",
"iA.	c #122133",
"jA.	c #152639",
"kA.	c #172A3E",
"lA.	c #192D41",
"mA.	c #1C3045",
"nA.	c #21354A",
"oA.	c #273A51",
"pA.	c #2D3F57",
"qA.	c #31415A",
"rA.	c #3A4760",
"sA.	c #47526D",
"tA.	c #4C5874",
"uA.	c #505E7A",
"vA.	c #5D6E8A",
"wA.	c #687D98",
"xA.	c #7187A3",
"yA.	c #7B97B1",
"zA.	c #85A2BC",
"AA.	c #83A1BA",
"BA.	c #7D9BB3",
"CA.	c #7B99AE",
"DA.	c #7B97AB",
"EA.	c #7E99AA",
"FA.	c #89A1B0",
"GA.	c #97ACB8",
"HA.	c #A5B7C0",
"IA.	c #AFBEC4",
"JA.	c #AEB9BD",
"KA.	c #929B9E",
"LA.	c #0A0202",
"MA.	c #170305",
"NA.	c #1F0709",
"OA.	c #280F0F",
"PA.	c #341615",
"QA.	c #3F1A19",
"RA.	c #4A1B1B",
"SA.	c #501B1B",
"TA.	c #511B1A",
"UA.	c #501B17",
"VA.	c #4E1C15",
"WA.	c #4C1C15",
"XA.	c #4B1D17",
"YA.	c #491B18",
"ZA.	c #461714",
"`A.	c #431211",
" B.	c #3F0C0D",
".B.	c #BFC1BF",
"+B.	c #D9DBDA",
"@B.	c #C3C7C7",
"#B.	c #B6BBBC",
"$B.	c #BEC3C6",
"%B.	c #C5CBD0",
"&B.	c #C0C8CF",
"*B.	c #AAB3BC",
"=B.	c #969FAA",
"-B.	c #8B96A2",
";B.	c #95A2AF",
">B.	c #97A9B7",
",B.	c #93AAB9",
"'B.	c #90AABA",
")B.	c #8DA8BB",
"!B.	c #8AA4BA",
"~B.	c #839DB6",
"{B.	c #7A93AF",
"]B.	c #6E86A5",
"^B.	c #617998",
"/B.	c #556C8C",
"(B.	c #4C6180",
"_B.	c #455977",
":B.	c #40536E",
"<B.	c #384962",
"[B.	c #314155",
"}B.	c #2C3C4C",
"|B.	c #273541",
"1B.	c #202D36",
"2B.	c #0A0B11",
"3B.	c #040608",
"4B.	c #010305",
"5B.	c #000104",
"6B.	c #040609",
"7B.	c #020506",
"8B.	c #05080A",
"9B.	c #020507",
"0B.	c #020407",
"aB.	c #07090C",
"bB.	c #0A0B0E",
"cB.	c #0B0C0E",
"dB.	c #0C0C0D",
"eB.	c #0D0D0D",
"fB.	c #0E0D0E",
"gB.	c #0C1118",
"hB.	c #0B121C",
"iB.	c #0B131E",
"jB.	c #0B1421",
"kB.	c #0C1524",
"lB.	c #0E1929",
"mB.	c #111E2E",
"nB.	c #132333",
"oB.	c #162638",
"pB.	c #1B2C40",
"qB.	c #1F3145",
"rB.	c #25364B",
"sB.	c #2B3B51",
"tB.	c #303E55",
"uB.	c #39445C",
"vB.	c #444E69",
"wB.	c #444F6A",
"xB.	c #42506B",
"yB.	c #4D5D79",
"zB.	c #5C6E8A",
"AB.	c #6A7E99",
"BB.	c #7189A4",
"CB.	c #7A96B0",
"DB.	c #86A3BD",
"EB.	c #85A3BC",
"FB.	c #7F9DB5",
"GB.	c #7D9BB1",
"HB.	c #7D9AAF",
"IB.	c #7F9BAD",
"JB.	c #88A1B1",
"KB.	c #91A7B5",
"LB.	c #99ADB8",
"MB.	c #A8B9C2",
"NB.	c #A4B1B5",
"OB.	c #96A1A4",
"PB.	c #150406",
"QB.	c #180406",
"RB.	c #1B0606",
"SB.	c #200707",
"TB.	c #310A0B",
"UB.	c #380D0D",
"VB.	c #3C100F",
"WB.	c #3E1210",
"XB.	c #3F1612",
"YB.	c #411A16",
"ZB.	c #48211E",
"`B.	c #4B2321",
" C.	c #461E1C",
".C.	c #411817",
"+C.	c #3B1012",
"@C.	c #C4C5C0",
"#C.	c #D8DBD6",
"$C.	c #C5CBC8",
"%C.	c #B5BCBC",
"&C.	c #B3BCBE",
"*C.	c #B9C4CA",
"=C.	c #B7C3CD",
"-C.	c #A3B1BF",
";C.	c #91A0B2",
">C.	c #8797AC",
",C.	c #8C9EB4",
"'C.	c #8CA0B5",
")C.	c #869EB0",
"!C.	c #86A0B2",
"~C.	c #86A0B4",
"{C.	c #859EB5",
"]C.	c #819AB3",
"^C.	c #7992AE",
"/C.	c #6E86A4",
"(C.	c #627998",
"_C.	c #566B8A",
":C.	c #4B5F7D",
"<C.	c #435671",
"[C.	c #3E4F68",
"}C.	c #38485D",
"|C.	c #314051",
"1C.	c #293845",
"2C.	c #212E39",
"3C.	c #18252D",
"4C.	c #131E25",
"5C.	c #10191F",
"6C.	c #0E151C",
"7C.	c #0A1018",
"8C.	c #060912",
"9C.	c #070913",
"0C.	c #060808",
"aC.	c #020305",
"bC.	c #020405",
"cC.	c #030406",
"dC.	c #010304",
"eC.	c #010204",
"fC.	c #020406",
"gC.	c #030606",
"hC.	c #040607",
"iC.	c #070909",
"jC.	c #050708",
"kC.	c #0C0D0F",
"lC.	c #08080A",
"mC.	c #0A0D0D",
"nC.	c #0D1112",
"oC.	c #0D1013",
"pC.	c #040910",
"qC.	c #050C13",
"rC.	c #060E16",
"sC.	c #0B141F",
"tC.	c #0C1927",
"uC.	c #0E1B2B",
"vC.	c #111F2F",
"wC.	c #142234",
"xC.	c #192739",
"yC.	c #1E2C3E",
"zC.	c #233044",
"AC.	c #2B364C",
"BC.	c #343D55",
"CC.	c #3B445E",
"DC.	c #3D4863",
"EC.	c #404D67",
"FC.	c #495772",
"GC.	c #54647F",
"HC.	c #60728D",
"IC.	c #697E99",
"JC.	c #738BA5",
"KC.	c #7D97B1",
"LC.	c #829DB6",
"MC.	c #819CB5",
"NC.	c #7B97AD",
"OC.	c #819CB0",
"PC.	c #859FB0",
"QC.	c #8CA4B3",
"RC.	c #95ABB8",
"SC.	c #9CB0BC",
"TC.	c #A3B6C0",
"UC.	c #AABCC4",
"VC.	c #A8B9C0",
"WC.	c #9DAEB5",
"XC.	c #170706",
"YC.	c #160503",
"ZC.	c #190402",
"`C.	c #210707",
" D.	c #280B0C",
".D.	c #2A0D0E",
"+D.	c #270909",
"@D.	c #2A0F0F",
"#D.	c #311819",
"$D.	c #331918",
"%D.	c #341716",
"&D.	c #B5B5AE",
"*D.	c #C9CBC4",
"=D.	c #D6DAD3",
"-D.	c #C6CDC8",
";D.	c #B4BEBC",
">D.	c #ABB7B9",
",D.	c #AFBDC5",
"'D.	c #ADBDCB",
")D.	c #9CAEC0",
"!D.	c #8CA0B7",
"~D.	c #8298B2",
"{D.	c #8399B5",
"]D.	c #8199B2",
"^D.	c #7D97AC",
"/D.	c #7F99AD",
"(D.	c #829CB0",
"_D.	c #839CB3",
":D.	c #8199B3",
"<D.	c #7B92AE",
"[D.	c #7087A5",
"}D.	c #647998",
"|D.	c #566A89",
"1D.	c #495D79",
"2D.	c #40526B",
"3D.	c #3A4B61",
"4D.	c #354557",
"5D.	c #2F3E4D",
"6D.	c #26343F",
"7D.	c #1B2831",
"8D.	c #111D24",
"9D.	c #0C181E",
"0D.	c #0B151B",
"aD.	c #040A16",
"bD.	c #030714",
"cD.	c #050916",
"dD.	c #090B16",
"eD.	c #0C0D13",
"fD.	c #090A0A",
"gD.	c #060708",
"hD.	c #040506",
"iD.	c #080909",
"jD.	c #0B0C0B",
"kD.	c #131313",
"lD.	c #0F1011",
"mD.	c #0A1112",
"nD.	c #0B1114",
"oD.	c #060E11",
"pD.	c #040D11",
"qD.	c #060F14",
"rD.	c #040D14",
"sD.	c #061017",
"tD.	c #0B141E",
"uD.	c #09121D",
"vD.	c #08111D",
"wD.	c #07101D",
"xD.	c #07101E",
"yD.	c #091321",
"zD.	c #141F2E",
"AD.	c #262F43",
"BD.	c #2E364D",
"CD.	c #313B54",
"DD.	c #37425C",
"ED.	c #3E4A64",
"FD.	c #46536D",
"GD.	c #4E5D77",
"HD.	c #576881",
"ID.	c #61748E",
"JD.	c #6A809A",
"KD.	c #748BA4",
"LD.	c #7C94AD",
"MD.	c #7F98B1",
"ND.	c #7C95AD",
"OD.	c #7E98AE",
"PD.	c #839DB2",
"QD.	c #809AAD",
"RD.	c #839CAD",
"SD.	c #8DA4B2",
"TD.	c #94AAB7",
"UD.	c #A7BCC6",
"VD.	c #ACC0CA",
"WD.	c #A7BAC3",
"XD.	c #110502",
"YD.	c #190808",
"ZD.	c #1D0C0D",
"`D.	c #1D0C0E",
" E.	c #120406",
".E.	c #160A0D",
"+E.	c #231619",
"@E.	c #1B0F11",
"#E.	c #C2C2BA",
"$E.	c #D0D2CB",
"%E.	c #D5DAD4",
"&E.	c #C4CDC7",
"*E.	c #B2BEBB",
"=E.	c #A9B8BA",
"-E.	c #AABAC4",
";E.	c #A5B8C7",
">E.	c #94A9BE",
",E.	c #859CB6",
"'E.	c #7D95B3",
")E.	c #7D97B5",
"!E.	c #7E98B3",
"~E.	c #7E98AF",
"{E.	c #809BAF",
"]E.	c #839DB1",
"^E.	c #849CB4",
"/E.	c #7A91AC",
"(E.	c #6F85A2",
"_E.	c #627694",
":E.	c #546785",
"<E.	c #485A75",
"[E.	c #3E4F67",
"}E.	c #324152",
"|E.	c #2B3947",
"1E.	c #22303A",
"2E.	c #19262D",
"3E.	c #101B21",
"4E.	c #0A151A",
"5E.	c #071019",
"6E.	c #040C16",
"7E.	c #020916",
"8E.	c #030917",
"9E.	c #070B19",
"0E.	c #0B0E18",
"aE.	c #090909",
"bE.	c #040404",
"cE.	c #0C0C0C",
"dE.	c #161616",
"eE.	c #252525",
"fE.	c #0A0C0C",
"gE.	c #070D0E",
"hE.	c #060F10",
"iE.	c #030D0F",
"jE.	c #071014",
"kE.	c #111A1F",
"lE.	c #111A20",
"mE.	c #050F16",
"nE.	c #0A141C",
"oE.	c #09111C",
"pE.	c #0A121E",
"qE.	c #0B1420",
"rE.	c #0E1724",
"sE.	c #111A27",
"tE.	c #151D2B",
"uE.	c #18202E",
"vE.	c #1A2232",
"wE.	c #222A3D",
"xE.	c #283146",
"yE.	c #2B354C",
"zE.	c #313B53",
"AE.	c #38435C",
"BE.	c #3F4C65",
"CE.	c #47566F",
"DE.	c #506079",
"EE.	c #596C85",
"FE.	c #637790",
"GE.	c #6C829B",
"HE.	c #738BA4",
"IE.	c #7991AB",
"JE.	c #7F97B0",
"KE.	c #829DB2",
"LE.	c #7993A7",
"ME.	c #758FA1",
"NE.	c #7B94A5",
"OE.	c #7E96A6",
"PE.	c #889FAE",
"QE.	c #99B0BD",
"RE.	c #A7BDCA",
"SE.	c #AABECB",
"TE.	c #8FA0AA",
"UE.	c #CFD0C9",
"VE.	c #D9DCD5",
"WE.	c #C1CAC5",
"XE.	c #B1BDBA",
"YE.	c #A8B7BA",
"ZE.	c #A5B6C0",
"`E.	c #9DB1C0",
" F.	c #8CA2B7",
".F.	c #8097B2",
"+F.	c #7993B1",
"@F.	c #7994B2",
"#F.	c #7C97B2",
"$F.	c #809AB2",
"%F.	c #849DB3",
"&F.	c #8098B1",
"*F.	c #788FAA",
"=F.	c #6C829E",
"-F.	c #5F7390",
";F.	c #50647F",
">F.	c #445670",
",F.	c #3A4B62",
"'F.	c #334458",
")F.	c #2C3B4C",
"!F.	c #253240",
"~F.	c #1D2B35",
"{F.	c #0D181E",
"]F.	c #071217",
"^F.	c #040E14",
"/F.	c #010914",
"(F.	c #020815",
"_F.	c #050A19",
":F.	c #0B0E1C",
"<F.	c #0D0F1A",
"[F.	c #0B0D13",
"}F.	c #080809",
"|F.	c #181818",
"1F.	c #292929",
"2F.	c #2F2F2F",
"3F.	c #2C2C2C",
"4F.	c #101212",
"5F.	c #070E0F",
"6F.	c #030C0E",
"7F.	c #010B0C",
"8F.	c #0F191C",
"9F.	c #111A1E",
"0F.	c #10191E",
"aF.	c #0F181E",
"bF.	c #0B141C",
"cF.	c #08111B",
"dF.	c #0A121D",
"eF.	c #0C1420",
"fF.	c #101723",
"gF.	c #131B28",
"hF.	c #161E2C",
"iF.	c #19202F",
"jF.	c #212A3D",
"kF.	c #242E42",
"lF.	c #293449",
"mF.	c #303B52",
"nF.	c #37445B",
"oF.	c #3E4D65",
"pF.	c #47576F",
"qF.	c #50627A",
"rF.	c #596D85",
"sF.	c #627890",
"tF.	c #698098",
"uF.	c #7087A0",
"vF.	c #7991A9",
"wF.	c #7E96AE",
"xF.	c #7D96AD",
"yF.	c #748DA3",
"zF.	c #6F889D",
"AF.	c #748DA0",
"BF.	c #7A92A4",
"CF.	c #8399AA",
"DF.	c #8DA3B3",
"EF.	c #9DB2C1",
"FF.	c #A7BBC8",
"GF.	c #A5B5BF",
"HF.	c #97A4AB",
"IF.	c #9B9B96",
"JF.	c #DADBD6",
"KF.	c #E0E3DD",
"LF.	c #D1D6D1",
"MF.	c #ADBAB9",
"NF.	c #A7B6B9",
"OF.	c #A0B1BB",
"PF.	c #95A9B9",
"QF.	c #869BB0",
"RF.	c #7C93AE",
"SF.	c #7891AF",
"TF.	c #7792B0",
"UF.	c #7C96B1",
"VF.	c #829BB3",
"WF.	c #849DB4",
"XF.	c #839BB3",
"YF.	c #7D95AE",
"ZF.	c #748BA6",
"`F.	c #687E9A",
" G.	c #5A6E8A",
".G.	c #4C5F7A",
"+G.	c #3F516A",
"@G.	c #35465D",
"#G.	c #2E3E52",
"$G.	c #263445",
"%G.	c #1E2B39",
"&G.	c #17242F",
"*G.	c #101D24",
"=G.	c #040F14",
"-G.	c #010A11",
";G.	c #000710",
">G.	c #000611",
",G.	c #030815",
"'G.	c #080C1A",
")G.	c #0E101E",
"!G.	c #09090C",
"~G.	c #2D2D2D",
"{G.	c #323232",
"]G.	c #303030",
"^G.	c #0F1414",
"/G.	c #030C0D",
"(G.	c #000809",
"_G.	c #000708",
":G.	c #01090A",
"<G.	c #030D0E",
"[G.	c #061011",
"}G.	c #071214",
"|G.	c #081214",
"1G.	c #161F24",
"2G.	c #121B21",
"3G.	c #050E18",
"4G.	c #060F19",
"5G.	c #0D1520",
"6G.	c #151D2A",
"7G.	c #181F2E",
"8G.	c #192131",
"9G.	c #1B2435",
"0G.	c #1D2739",
"aG.	c #222D3F",
"bG.	c #283447",
"cG.	c #2E3C50",
"dG.	c #35455A",
"eG.	c #3E4E64",
"fG.	c #46586F",
"gG.	c #4F637A",
"hG.	c #586D85",
"iG.	c #5E758D",
"jG.	c #657C94",
"kG.	c #6E869E",
"lG.	c #748BA3",
"mG.	c #758DA5",
"nG.	c #7089A0",
"oG.	c #70889E",
"pG.	c #758DA2",
"qG.	c #7C94A7",
"rG.	c #8197AA",
"sG.	c #8398AA",
"tG.	c #8DA1B2",
"uG.	c #9DAFBE",
"vG.	c #AEBDC8",
"wG.	c #A9B5BD",
"xG.	c #868B8F",
"yG.	c #AAAAA6",
"zG.	c #E1E3DE",
"AG.	c #E2E5E0",
"BG.	c #C9CFCB",
"CG.	c #B5BEBC",
"DG.	c #A8B6B6",
"EG.	c #A3B4B8",
"FG.	c #9AADB6",
"GG.	c #8EA2B2",
"HG.	c #8196AB",
"IG.	c #8199B0",
"JG.	c #7A91AA",
"KG.	c #7086A1",
"LG.	c #647893",
"MG.	c #556884",
"NG.	c #465873",
"OG.	c #3A4A64",
"PG.	c #304057",
"QG.	c #29384B",
"RG.	c #202E3E",
"SG.	c #111E28",
"TG.	c #0C1820",
"UG.	c #071218",
"VG.	c #020C12",
"WG.	c #00040C",
"XG.	c #00050F",
"YG.	c #040915",
"ZG.	c #101220",
"`G.	c #11121D",
" H.	c #2E2E2E",
".H.	c #2A2D2C",
"+H.	c #1B201F",
"@H.	c #081111",
"#H.	c #020808",
"$H.	c #000405",
"%H.	c #000506",
"&H.	c #020B0D",
"*H.	c #020C0E",
"=H.	c #040C0F",
"-H.	c #141D22",
";H.	c #172026",
">H.	c #141D23",
",H.	c #111A21",
"'H.	c #0D161E",
")H.	c #020B15",
"!H.	c #030B16",
"~H.	c #050E19",
"{H.	c #0F1724",
"]H.	c #141C29",
"^H.	c #171F2C",
"/H.	c #171F2D",
"(H.	c #171F2F",
"_H.	c #192232",
":H.	c #1D2838",
"<H.	c #222F3F",
"[H.	c #283647",
"}H.	c #36465B",
"|H.	c #3E5065",
"1H.	c #475970",
"2H.	c #4F637B",
"3H.	c #556B83",
"4H.	c #5B728A",
"5H.	c #637991",
"6H.	c #6C849C",
"7H.	c #6F889F",
"8H.	c #748CA3",
"9H.	c #7B92A8",
"0H.	c #8197AC",
"aH.	c #7A8FA2",
"bH.	c #7B8FA1",
"cH.	c #889AAA",
"dH.	c #A2B1BE",
"eH.	c #ACB7C1",
"fH.	c #A9ADB2",
"gH.	c #BDBEBA",
"hH.	c #E1E4E0",
"iH.	c #DBE0DC",
"jH.	c #BEC5C2",
"kH.	c #ACB6B6",
"lH.	c #A3B1B3",
"mH.	c #9FB0B6",
"nH.	c #95A8B2",
"oH.	c #899DAD",
"pH.	c #7D94A9",
"qH.	c #7992B0",
"rH.	c #7893B1",
"sH.	c #7C96B2",
"tH.	c #829AB2",
"uH.	c #829BB1",
"vH.	c #8199AF",
"wH.	c #7D94AC",
"xH.	c #768CA4",
"yH.	c #6B809A",
"zH.	c #5D718B",
"AH.	c #4F617C",
"BH.	c #40516B",
"CH.	c #33435C",
"DH.	c #2A3950",
"EH.	c #233245",
"FH.	c #111F2B",
"GH.	c #0C1923",
"HH.	c #08141C",
"IH.	c #040F16",
"JH.	c #00050D",
"KH.	c #060B17",
"LH.	c #111320",
"MH.	c #11131E",
"NH.	c #282828",
"OH.	c #2E2F2E",
"PH.	c #2F3130",
"QH.	c #272C2B",
"RH.	c #1C2322",
"SH.	c #0D1515",
"TH.	c #020809",
"UH.	c #01080A",
"VH.	c #040C11",
"WH.	c #0C1418",
"XH.	c #10181D",
"YH.	c #0F171D",
"ZH.	c #060F17",
"`H.	c #050D16",
" I.	c #050D17",
".I.	c #0E1521",
"+I.	c #111825",
"@I.	c #131B27",
"#I.	c #141B28",
"$I.	c #141C2A",
"%I.	c #17202D",
"&I.	c #233240",
"*I.	c #293948",
"=I.	c #2F4052",
"-I.	c #37495C",
";I.	c #3F5267",
">I.	c #475B71",
",I.	c #4D6279",
"'I.	c #546981",
")I.	c #5D738B",
"!I.	c #677E96",
"~I.	c #6F869D",
"{I.	c #768DA4",
"]I.	c #7B91A8",
"^I.	c #7F94AA",
"/I.	c #7E92A8",
"(I.	c #768A9F",
"_I.	c #728599",
":I.	c #7A8B9E",
"<I.	c #B4B8C0",
"[I.	c #A2A3A9",
"}I.	c #BBBCBA",
"|I.	c #CECFCD",
"1I.	c #DCE0DD",
"2I.	c #CFD5D2",
"3I.	c #B2BAB8",
"4I.	c #A4AFAF",
"5I.	c #9FACB0",
"6I.	c #9CACB3",
"7I.	c #91A4AF",
"8I.	c #859AAA",
"9I.	c #7B93A8",
"0I.	c #7891AB",
"aI.	c #7892AF",
"bI.	c #7994B1",
"cI.	c #7C96B0",
"dI.	c #7F97AF",
"eI.	c #7F97AD",
"fI.	c #7D95AA",
"gI.	c #788FA5",
"hI.	c #70869D",
"iI.	c #647992",
"jI.	c #566A83",
"kI.	c #475A73",
"lI.	c #394963",
"mI.	c #2C3C54",
"nI.	c #233248",
"oI.	c #1D2C3E",
"pI.	c #0D1B27",
"qI.	c #08151F",
"rI.	c #051019",
"sI.	c #010911",
"tI.	c #00060D",
"uI.	c #01040C",
"vI.	c #040812",
"wI.	c #0A0E19",
"xI.	c #10131F",
"yI.	c #11131F",
"zI.	c #10111D",
"AI.	c #2E3130",
"BI.	c #2E3332",
"CI.	c #292F2F",
"DI.	c #1F2726",
"EI.	c #161E1E",
"FI.	c #0E1516",
"GI.	c #050B0D",
"HI.	c #000709",
"II.	c #01080B",
"JI.	c #010609",
"KI.	c #091015",
"LI.	c #091117",
"MI.	c #0C131E",
"NI.	c #0D131E",
"OI.	c #0D131F",
"PI.	c #101822",
"QI.	c #131B25",
"RI.	c #151E28",
"SI.	c #1C2833",
"TI.	c #202E3A",
"UI.	c #253442",
"VI.	c #2A3A4A",
"WI.	c #314353",
"XI.	c #384B5E",
"YI.	c #405468",
"ZI.	c #455A70",
"`I.	c #596E86",
" J.	c #5F758D",
".J.	c #6C829A",
"+J.	c #748AA1",
"@J.	c #778DA4",
"#J.	c #7A8EA6",
"$J.	c #7A8DA5",
"%J.	c #7789A0",
"&J.	c #73849B",
"*J.	c #75859B",
"=J.	c #8593A5",
"-J.	c #9FA7B6",
";J.	c #B3B6C2",
">J.	c #ACACB6",
",J.	c #9D9CA4",
"'J.	c #C6C9C7",
")J.	c #D8DCDA",
"!J.	c #D3D8D5",
"~J.	c #C0C7C5",
"{J.	c #A7B0B1",
"]J.	c #9EA9AD",
"^J.	c #9BA9AF",
"/J.	c #97A9B2",
"(J.	c #8EA2AE",
"_J.	c #8399A9",
":J.	c #7690A9",
"<J.	c #758FAB",
"[J.	c #7791AD",
"}J.	c #7993AD",
"|J.	c #7A92A7",
"1J.	c #788EA4",
"2J.	c #72889F",
"3J.	c #697E96",
"4J.	c #5D7289",
"5J.	c #4F627A",
"6J.	c #40526A",
"7J.	c #32425B",
"8J.	c #26364C",
"9J.	c #1E2C41",
"0J.	c #182638",
"aJ.	c #121F2E",
"bJ.	c #0C1825",
"cJ.	c #06121C",
"dJ.	c #030D17",
"eJ.	c #020B14",
"fJ.	c #020911",
"gJ.	c #01070F",
"hJ.	c #11121E",
"iJ.	c #0D0E19",
"jJ.	c #292E2E",
"kJ.	c #2D3434",
"lJ.	c #323A39",
"mJ.	c #313A39",
"nJ.	c #2A3231",
"oJ.	c #181F20",
"pJ.	c #070D10",
"qJ.	c #01090C",
"rJ.	c #03060C",
"sJ.	c #04090F",
"tJ.	c #060D14",
"uJ.	c #111821",
"vJ.	c #121923",
"wJ.	c #111822",
"xJ.	c #0C121E",
"yJ.	c #090F1B",
"zJ.	c #111921",
"AJ.	c #131C23",
"BJ.	c #162028",
"CJ.	c #19242E",
"DJ.	c #1D2934",
"EJ.	c #253543",
"FJ.	c #2C3D4C",
"GJ.	c #324456",
"HJ.	c #394C60",
"IJ.	c #3E5267",
"JJ.	c #50657C",
"KJ.	c #566B83",
"LJ.	c #5B7189",
"MJ.	c #6F849C",
"NJ.	c #7488A1",
"OJ.	c #788BA4",
"PJ.	c #7B8DA6",
"QJ.	c #7C8EA6",
"RJ.	c #7A8BA3",
"SJ.	c #7888A0",
"TJ.	c #7D8BA0",
"UJ.	c #8C94A7",
"VJ.	c #A1A4B3",
"WJ.	c #B7B7C3",
"XJ.	c #B7B7C2",
"YJ.	c #898993",
"ZJ.	c #C7CCCB",
"`J.	c #DBDFDF",
" K.	c #C7CDCC",
".K.	c #B0B8B8",
"+K.	c #9FA9AB",
"@K.	c #9BA8AC",
"#K.	c #99A8B0",
"$K.	c #95A6B1",
"%K.	c #8CA0AD",
"&K.	c #8299A9",
"*K.	c #748EA6",
"=K.	c #708AA4",
"-K.	c #728CA7",
";K.	c #758EA7",
">K.	c #768EA5",
",K.	c #768CA2",
"'K.	c #73889E",
")K.	c #6C8298",
"!K.	c #63788E",
"~K.	c #566A81",
"{K.	c #485B72",
"]K.	c #2C3C53",
"^K.	c #213045",
"/K.	c #18273A",
"(K.	c #142132",
"_K.	c #101D2C",
":K.	c #05101A",
"<K.	c #020C15",
"[K.	c #161722",
"}K.	c #12121D",
"|K.	c #0A0A14",
"1K.	c #2E3635",
"2K.	c #37403F",
"3K.	c #3B4342",
"4K.	c #373E3D",
"5K.	c #282F2F",
"6K.	c #0A1011",
"7K.	c #040B0C",
"8K.	c #040C0D",
"9K.	c #020509",
"0K.	c #000207",
"aK.	c #00040A",
"bK.	c #141A23",
"cK.	c #111720",
"dK.	c #090E1A",
"eK.	c #060C16",
"fK.	c #0E161C",
"gK.	c #10191D",
"hK.	c #131D22",
"iK.	c #162128",
"jK.	c #1C2A33",
"kK.	c #20303C",
"lK.	c #263644",
"mK.	c #324557",
"nK.	c #374B5E",
"oK.	c #3D5166",
"pK.	c #445870",
"qK.	c #4A5F77",
"rK.	c #51667E",
"sK.	c #5C7189",
"tK.	c #657A93",
"uK.	c #6D819A",
"vK.	c #7486A0",
"wK.	c #7A8BA5",
"xK.	c #7E8FA8",
"yK.	c #7D8EA8",
"zK.	c #7B8AA4",
"AK.	c #7A869F",
"BK.	c #7E879D",
"CK.	c #8E91A4",
"DK.	c #AEAFBF",
"EK.	c #B8B8C6",
"FK.	c #A4A5B2",
"GK.	c #919594",
"HK.	c #C6CBCB",
"IK.	c #D6DCDD",
"JK.	c #BAC2C3",
"KK.	c #A3ACAE",
"LK.	c #9AA6A8",
"MK.	c #9BA8AE",
"NK.	c #99A9B2",
"OK.	c #93A5B1",
"PK.	c #8B9FAE",
"QK.	c #8298AA",
"RK.	c #718AA2",
"SK.	c #6A839D",
"TK.	c #6C869F",
"UK.	c #6F88A0",
"VK.	c #71879C",
"WK.	c #6E8398",
"XK.	c #677C91",
"YK.	c #5D7287",
"ZK.	c #506479",
"`K.	c #42556A",
" L.	c #34455B",
".L.	c #26374B",
"+L.	c #1C2B3E",
"@L.	c #142235",
"#L.	c #101D2E",
"$L.	c #0F1C2B",
"%L.	c #040F1A",
"&L.	c #010B14",
"*L.	c #020B13",
"=L.	c #0C1017",
"-L.	c #13171E",
";L.	c #181922",
">L.	c #3B4240",
",L.	c #3C4241",
"'L.	c #343A39",
")L.	c #2B3030",
"!L.	c #212626",
"~L.	c #181E1E",
"{L.	c #121718",
"]L.	c #03080D",
"^L.	c #070D13",
"/L.	c #13171F",
"(L.	c #11161F",
"_L.	c #0A1019",
":L.	c #0B1316",
"<L.	c #0C1517",
"[L.	c #0F191B",
"}L.	c #111C21",
"|L.	c #142025",
"1L.	c #17242C",
"2L.	c #1B2934",
"3L.	c #20303D",
"4L.	c #253746",
"5L.	c #2B3E4F",
"6L.	c #304456",
"7L.	c #34485C",
"8L.	c #394D63",
"9L.	c #3F536B",
"0L.	c #475B74",
"aL.	c #4F637C",
"bL.	c #586C85",
"cL.	c #61758F",
"dL.	c #6B7D98",
"eL.	c #73849F",
"fL.	c #7989A3",
"gL.	c #7B8AA6",
"hL.	c #7B89A5",
"iL.	c #7986A0",
"jL.	c #7A839B",
"kL.	c #81869C",
"lL.	c #9497AA",
"mL.	c #A9AABC",
"nL.	c #B7B9C8",
"oL.	c #A7A9B7",
"pL.	c #AEB4B3",
"qL.	c #C8CFCF",
"rL.	c #CED7D8",
"sL.	c #AFB8BB",
"tL.	c #9AA5A9",
"uL.	c #97A4A9",
"vL.	c #9AAAB2",
"wL.	c #99ABB5",
"xL.	c #92A4B1",
"yL.	c #8A9FAE",
"zL.	c #8299AC",
"AL.	c #7A92A8",
"BL.	c #637C96",
"CL.	c #667F98",
"DL.	c #6B829B",
"EL.	c #6F849B",
"FL.	c #6E8399",
"GL.	c #6A7F94",
"HL.	c #62778C",
"IL.	c #596D81",
"JL.	c #4D6074",
"KL.	c #3F5165",
"LL.	c #233346",
"ML.	c #19283A",
"NL.	c #121F30",
"OL.	c #0E1A2B",
"PL.	c #101B29",
"QL.	c #0E1825",
"RL.	c #050F19",
"SL.	c #020A14",
"TL.	c #030A14",
"UL.	c #070D16",
"VL.	c #181B21",
"WL.	c #1A1B23",
"XL.	c #353B3A",
"YL.	c #3E4242",
"ZL.	c #414546",
"`L.	c #363B3C",
" M.	c #272D2D",
".M.	c #03080C",
"+M.	c #05090F",
"@M.	c #0C1018",
"#M.	c #13181F",
"$M.	c #070F11",
"%M.	c #091212",
"&M.	c #0B1516",
"*M.	c #0E181B",
"=M.	c #101C20",
"-M.	c #16242E",
";M.	c #1A2A36",
">M.	c #20313F",
",M.	c #263747",
"'M.	c #2A3D4E",
")M.	c #2F4255",
"!M.	c #35485E",
"~M.	c #3B4F66",
"{M.	c #41556D",
"]M.	c #43576F",
"^M.	c #485B75",
"/M.	c #51637E",
"(M.	c #5B6C88",
"_M.	c #657491",
":M.	c #6B7B97",
"<M.	c #72819D",
"[M.	c #7886A3",
"}M.	c #7C88A4",
"|M.	c #7D87A1",
"1M.	c #7E849C",
"2M.	c #84889E",
"3M.	c #9699AD",
"4M.	c #ABAFC1",
"5M.	c #A3A8B8",
"6M.	c #8C92A1",
"7M.	c #CCD4D5",
"8M.	c #C4CFD1",
"9M.	c #A7B2B6",
"0M.	c #95A3A8",
"aM.	c #95A5AC",
"bM.	c #98AAB4",
"cM.	c #97A9B5",
"dM.	c #8EA2B0",
"eM.	c #859AAB",
"fM.	c #7C93A6",
"gM.	c #738BA0",
"hM.	c #677F97",
"iM.	c #5E7690",
"jM.	c #607892",
"kM.	c #657B94",
"lM.	c #687C94",
"mM.	c #687C92",
"nM.	c #64788D",
"oM.	c #5C7085",
"pM.	c #526579",
"qM.	c #46586B",
"rM.	c #2B3B4E",
"sM.	c #202F40",
"tM.	c #182636",
"uM.	c #121F2F",
"vM.	c #0F1B29",
"wM.	c #0F1A27",
"xM.	c #060F1A",
"yM.	c #030A15",
"zM.	c #080C16",
"AM.	c #1B1D24",
"BM.	c #1C1E25",
"CM.	c #474C4C",
"DM.	c #4C5050",
"EM.	c #3F4444",
"FM.	c #313636",
"GM.	c #27292C",
"HM.	c #242829",
"IM.	c #1F2224",
"JM.	c #070C10",
"KM.	c #070A10",
"LM.	c #04080F",
"MM.	c #060911",
"NM.	c #090C15",
"OM.	c #171A21",
"PM.	c #191D23",
"QM.	c #151A1E",
"RM.	c #101516",
"SM.	c #0C1313",
"TM.	c #0A1313",
"UM.	c #111D22",
"VM.	c #132129",
"WM.	c #162530",
"XM.	c #1B2B38",
"YM.	c #213241",
"ZM.	c #27394A",
"`M.	c #2D3F51",
" N.	c #35485F",
".N.	c #394C64",
"+N.	c #384B64",
"@N.	c #3A4D67",
"#N.	c #43536F",
"$N.	c #586783",
"%N.	c #606F8B",
"&N.	c #687693",
"*N.	c #707D9A",
"=N.	c #78839F",
"-N.	c #7C85A1",
";N.	c #7D839E",
">N.	c #797F98",
",N.	c #82879E",
"'N.	c #969CB0",
")N.	c #9DA3B5",
"!N.	c #9AA0B1",
"~N.	c #D5DFE0",
"{N.	c #CFD9DB",
"]N.	c #B9C5C9",
"^N.	c #A2AFB5",
"/N.	c #95A5AD",
"(N.	c #94A5AF",
"_N.	c #94A7B3",
":N.	c #91A4B2",
"<N.	c #879CAC",
"[N.	c #7A90A3",
"}N.	c #6D8498",
"|N.	c #627B90",
"1N.	c #5C758C",
"2N.	c #5A728A",
"3N.	c #5B738B",
"4N.	c #5C728A",
"5N.	c #5C7188",
"6N.	c #5E7087",
"7N.	c #5B6E83",
"8N.	c #54667A",
"9N.	c #48596C",
"0N.	c #394A5C",
"aN.	c #2C3C4D",
"bN.	c #213142",
"cN.	c #1B2A39",
"dN.	c #172533",
"eN.	c #14212E",
"fN.	c #0C1723",
"gN.	c #08121E",
"hN.	c #070F1B",
"iN.	c #050B16",
"jN.	c #040813",
"kN.	c #1A1D24",
"lN.	c #1C1E24",
"mN.	c #1B1C22",
"nN.	c #313435",
"oN.	c #37393B",
"pN.	c #3D4042",
"qN.	c #383B3C",
"rN.	c #222326",
"sN.	c #17191D",
"tN.	c #0A0B13",
"uN.	c #13141C",
"vN.	c #1C1F24",
"wN.	c #1C2122",
"xN.	c #161B1B",
"yN.	c #101617",
"zN.	c #0D1617",
"AN.	c #121F27",
"BN.	c #13212B",
"CN.	c #172632",
"DN.	c #1D2E3C",
"EN.	c #263848",
"FN.	c #2B3D4F",
"GN.	c #27394E",
"HN.	c #283A50",
"IN.	c #2C3E56",
"JN.	c #30425B",
"KN.	c #364761",
"LN.	c #3D4E68",
"MN.	c #465671",
"NN.	c #51607B",
"ON.	c #5D6B86",
"PN.	c #606D89",
"QN.	c #616D89",
"RN.	c #67728E",
"SN.	c #717A96",
"TN.	c #79809C",
"UN.	c #747A96",
"VN.	c #757A95",
"WN.	c #82889F",
"XN.	c #959CB0",
"YN.	c #9CA2B5",
"ZN.	c #838998",
"`N.	c #A5ADAF",
" O.	c #D5DFE1",
".O.	c #CBD7DA",
"+O.	c #B1BFC3",
"@O.	c #9DADB3",
"#O.	c #93A5AE",
"$O.	c #92A5B1",
"%O.	c #91A4B3",
"&O.	c #8CA0B0",
"*O.	c #8197A9",
"=O.	c #72899C",
"-O.	c #627A8F",
";O.	c #587187",
">O.	c #556E84",
",O.	c #566F86",
"'O.	c #597087",
")O.	c #586E85",
"!O.	c #566B81",
"~O.	c #576A80",
"{O.	c #55677B",
"]O.	c #4D5E72",
"^O.	c #415263",
"/O.	c #324354",
"(O.	c #263646",
"_O.	c #1D2D3C",
":O.	c #192835",
"<O.	c #162330",
"[O.	c #13202C",
"}O.	c #101C27",
"|O.	c #0B1520",
"1O.	c #050A16",
"2O.	c #0E111B",
"3O.	c #1C1D23",
"4O.	c #37383A",
"5O.	c #393C3D",
"6O.	c #3A3D3F",
"7O.	c #393B3E",
"8O.	c #35363A",
"9O.	c #2E2F33",
"0O.	c #24252A",
"aO.	c #191B1F",
"bO.	c #080910",
"cO.	c #0B0C14",
"dO.	c #12121A",
"eO.	c #18181F",
"fO.	c #1F2125",
"gO.	c #212425",
"hO.	c #222627",
"iO.	c #202526",
"jO.	c #1A2022",
"kO.	c #11191C",
"lO.	c #0A1519",
"mO.	c #0A161E",
"nO.	c #0E1B25",
"oO.	c #14232E",
"pO.	c #1A2B39",
"qO.	c #1F3140",
"rO.	c #223445",
"sO.	c #213246",
"tO.	c #22344A",
"uO.	c #26384F",
"vO.	c #2C3D56",
"wO.	c #32435C",
"xO.	c #41506A",
"yO.	c #4B5A74",
"zO.	c #57657F",
"AO.	c #58657F",
"BO.	c #57627C",
"CO.	c #5C6882",
"DO.	c #68728E",
"EO.	c #747C99",
"FO.	c #787F9C",
"GO.	c #767D99",
"HO.	c #737B95",
"IO.	c #838BA1",
"JO.	c #9198AB",
"KO.	c #8F97A7",
"LO.	c #838B99",
"MO.	c #A1AAAC",
"NO.	c #CEDADC",
"OO.	c #C4D1D5",
"PO.	c #A9B9BF",
"QO.	c #98ABB2",
"RO.	c #90A4B2",
"SO.	c #8EA3B3",
"TO.	c #889EAF",
"UO.	c #6B8397",
"VO.	c #5A7389",
"WO.	c #516A80",
"XO.	c #4F687E",
"YO.	c #536B81",
"ZO.	c #566D84",
"`O.	c #566B82",
" P.	c #53677D",
".P.	c #47576A",
"+P.	c #3B4C5C",
"@P.	c #2E3F4E",
"#P.	c #243443",
"$P.	c #1D2C39",
"%P.	c #182632",
"&P.	c #14212D",
"*P.	c #0E1822",
"=P.	c #0A131D",
"-P.	c #060E19",
";P.	c #050B17",
">P.	c #060916",
",P.	c #0C0E19",
"'P.	c #161821",
")P.	c #212129",
"!P.	c #424347",
"~P.	c #393A3E",
"{P.	c #2A2A2F",
"]P.	c #25252A",
"^P.	c #212026",
"/P.	c #1C1B21",
"(P.	c #17171D",
"_P.	c #191A1F",
":P.	c #232526",
"<P.	c #282C2D",
"[P.	c #272C2E",
"}P.	c #212629",
"|P.	c #151B20",
"1P.	c #0A1621",
"2P.	c #162533",
"3P.	c #162635",
"4P.	c #162737",
"5P.	c #213347",
"6P.	c #25364C",
"7P.	c #293A51",
"8P.	c #2F3F57",
"9P.	c #35455D",
"0P.	c #3B4A63",
"aP.	c #44526B",
"bP.	c #4E5C75",
"cP.	c #4F5C74",
"dP.	c #4E5A71",
"eP.	c #535F78",
"fP.	c #616C86",
"gP.	c #707A96",
"hP.	c #7A84A0",
"iP.	c #78829E",
"jP.	c #6C7591",
"kP.	c #737C94",
"lP.	c #868EA3",
"mP.	c #9AA4B6",
"nP.	c #818996",
"oP.	c #A4AFB0",
"pP.	c #C7D5D7",
"qP.	c #BBCACE",
"rP.	c #A1B2B9",
"sP.	c #94A7B0",
"tP.	c #8FA3AF",
"uP.	c #8EA4B2",
"vP.	c #8DA3B4",
"wP.	c #869DB0",
"xP.	c #7890A5",
"yP.	c #657E93",
"zP.	c #536C82",
"AP.	c #4A6379",
"BP.	c #496278",
"CP.	c #4D667B",
"DP.	c #52667C",
"EP.	c #4E6176",
"FP.	c #4B5D71",
"GP.	c #46576A",
"HP.	c #3E4D60",
"IP.	c #334354",
"JP.	c #283847",
"KP.	c #202F3D",
"LP.	c #111F28",
"MP.	c #0D1923",
"NP.	c #08101B",
"OP.	c #060C18",
"PP.	c #080B17",
"QP.	c #1D1E28",
"RP.	c #22222B",
"SP.	c #222129",
"TP.	c #333336",
"UP.	c #303034",
"VP.	c #353539",
"WP.	c #3B3B40",
"XP.	c #3F3F44",
"YP.	c #3D3D42",
"ZP.	c #37363B",
"`P.	c #1F1F25",
" Q.	c #15151B",
".Q.	c #111217",
"+Q.	c #252628",
"@Q.	c #222729",
"#Q.	c #1A2126",
"$Q.	c #0B1824",
"%Q.	c #0C1A28",
"&Q.	c #0C1B2A",
"*Q.	c #192A3B",
"=Q.	c #1E2F42",
"-Q.	c #26364B",
";Q.	c #2A3A50",
">Q.	c #2F3E55",
",Q.	c #344259",
"'Q.	c #3B485F",
")Q.	c #434F66",
"!Q.	c #434F65",
"~Q.	c #414D62",
"{Q.	c #465268",
"]Q.	c #59657E",
"^Q.	c #6D7A95",
"/Q.	c #737F9C",
"(Q.	c #707C99",
"_Q.	c #6A7691",
":Q.	c #737E98",
"<Q.	c #8893A9",
"[Q.	c #A1ABBF",
"}Q.	c #A9B3C4",
"|Q.	c #A3ACBA",
"1Q.	c #8A939F",
"2Q.	c #ADB9BA",
"3Q.	c #C2D0D3",
"4Q.	c #B3C2C7",
"5Q.	c #98AAB2",
"6Q.	c #8FA3AE",
"7Q.	c #8DA2B0",
"8Q.	c #8DA5B7",
"9Q.	c #869EB3",
"0Q.	c #778FA6",
"aQ.	c #637B92",
"bQ.	c #50687F",
"cQ.	c #455E74",
"dQ.	c #435C72",
"eQ.	c #475F75",
"fQ.	c #4B6277",
"gQ.	c #4B5F74",
"hQ.	c #47596E",
"iQ.	c #425468",
"jQ.	c #3C4C60",
"kQ.	c #334255",
"lQ.	c #2A394A",
"mQ.	c #223140",
"nQ.	c #1C2B37",
"oQ.	c #182630",
"pQ.	c #0F1C24",
"qQ.	c #0A161F",
"rQ.	c #07101A",
"sQ.	c #080D19",
"tQ.	c #090C18",
"uQ.	c #151521",
"vQ.	c #1E1E28",
"wQ.	c #202029",
"xQ.	c #1F1E26",
"yQ.	c #363539",
"zQ.	c #3E3D41",
"AQ.	c #403F44",
"BQ.	c #3D3C42",
"CQ.	c #2E2D33",
"DQ.	c #27272B",
"EQ.	c #29292C",
"FQ.	c #212326",
"GQ.	c #081623",
"HQ.	c #091927",
"IQ.	c #0E1F2E",
"JQ.	c #172738",
"KQ.	c #1B2B3D",
"LQ.	c #1D2E41",
"MQ.	c #213145",
"NQ.	c #253449",
"OQ.	c #29374D",
"PQ.	c #2C3A4E",
"QQ.	c #313E51",
"RQ.	c #374357",
"SQ.	c #364155",
"TQ.	c #343F52",
"UQ.	c #394559",
"VQ.	c #4F5C73",
"WQ.	c #64728C",
"XQ.	c #677592",
"YQ.	c #687694",
"ZQ.	c #6F7C99",
"`Q.	c #7F8BA6",
" R.	c #919DB6",
".R.	c #A2AEC4",
"+R.	c #ADB7CB",
"@R.	c #ADB7C8",
"#R.	c #9BA4B3",
"$R.	c #868F9C",
"%R.	c #ACB8B7",
"&R.	c #B8C5C6",
"*R.	c #BDCCCF",
"=R.	c #ABBBC0",
"-R.	c #91A4AC",
";R.	c #8A9FAB",
">R.	c #8AA1B0",
",R.	c #8EA5B7",
"'R.	c #8EA7BB",
")R.	c #88A0B7",
"!R.	c #7890A8",
"~R.	c #637B93",
"{R.	c #4F677E",
"]R.	c #435B72",
"^R.	c #3F586D",
"/R.	c #40596D",
"(R.	c #42596E",
"_R.	c #42566B",
":R.	c #3E5066",
"<R.	c #394A5F",
"[R.	c #324256",
"}R.	c #213041",
"|R.	c #1B2A38",
"1R.	c #111E26",
"2R.	c #0D1820",
"3R.	c #040D17",
"4R.	c #0B101C",
"5R.	c #0E101D",
"6R.	c #121320",
"7R.	c #1B1B24",
"8R.	c #26252B",
"9R.	c #27262C",
"0R.	c #29282E",
"aR.	c #2C2B31",
"bR.	c #2F2E34",
"cR.	c #313036",
"dR.	c #222227",
"eR.	c #1A1C22",
"fR.	c #181C23",
"gR.	c #1C2129",
"hR.	c #1E2630",
"iR.	c #18212D",
"jR.	c #0F1C2A",
"kR.	c #101F2D",
"lR.	c #132232",
"mR.	c #162636",
"nR.	c #182839",
"oR.	c #1A2A3C",
"pR.	c #1D2D3F",
"qR.	c #202F42",
"rR.	c #233144",
"sR.	c #253244",
"tR.	c #273445",
"uR.	c #2B3748",
"vR.	c #283444",
"wR.	c #253142",
"xR.	c #2C384A",
"yR.	c #404E64",
"zR.	c #54637D",
"AR.	c #586885",
"BR.	c #62718F",
"CR.	c #7584A1",
"DR.	c #8998B3",
"ER.	c #99A7C0",
"FR.	c #A2AEC7",
"GR.	c #A9B5CB",
"HR.	c #ACB7CB",
"IR.	c #A6AFC1",
"JR.	c #98A0B1",
"KR.	c #848B9A",
"LR.	c #B9C6C6",
"MR.	c #C1D0D1",
"NR.	c #B9CACD",
"OR.	c #A4B6BB",
"PR.	c #8DA1AA",
"QR.	c #879DAB",
"RR.	c #8DA6B9",
"SR.	c #8FA8BE",
"TR.	c #88A2B9",
"UR.	c #7993AB",
"VR.	c #657D95",
"WR.	c #4F677F",
"XR.	c #425A71",
"YR.	c #3C5469",
"ZR.	c #3A5166",
"`R.	c #394E63",
" S.	c #384B61",
".S.	c #36475D",
"+S.	c #304056",
"@S.	c #29384D",
"#S.	c #212F41",
"$S.	c #162431",
"%S.	c #14212C",
"&S.	c #0E1A21",
"*S.	c #0A151C",
"=S.	c #051017",
"-S.	c #080F1A",
";S.	c #0E131F",
">S.	c #131623",
",S.	c #171724",
"'S.	c #181824",
")S.	c #27252B",
"!S.	c #28272E",
"~S.	c #292930",
"{S.	c #22252D",
"]S.	c #161B26",
"^S.	c #161C28",
"/S.	c #1A2433",
"(S.	c #1C2837",
"_S.	c #1A2837",
":S.	c #172736",
"<S.	c #152535",
"[S.	c #1D2B3C",
"}S.	c #1F2D3E",
"|S.	c #1F2C3C",
"1S.	c #1F2B3A",
"2S.	c #1D2836",
"3S.	c #1A2533",
"4S.	c #212D3D",
"5S.	c #3E4D66",
"6S.	c #4E5E7B",
"7S.	c #61718E",
"8S.	c #7585A2",
"9S.	c #8897B2",
"0S.	c #97A6C0",
"aS.	c #A4B2CB",
"bS.	c #A8B4CD",
"cS.	c #A5B1C7",
"dS.	c #A0AABF",
"eS.	c #A1A9BD",
"fS.	c #A4ACBD",
"gS.	c #969DAD",
"hS.	c #808695",
"iS.	c #C0CECE",
"jS.	c #C8D7D9",
"kS.	c #B6C8CC",
"lS.	c #9FB2B9",
"mS.	c #8BA0AB",
"nS.	c #859DAC",
"oS.	c #87A0B2",
"pS.	c #8BA5BA",
"qS.	c #8DA7BE",
"rS.	c #7791AA",
"sS.	c #637B94",
"tS.	c #4E667E",
"uS.	c #40586F",
"vS.	c #384F65",
"wS.	c #34495E",
"xS.	c #2F4458",
"yS.	c #2D4055",
"zS.	c #2D3D54",
"AS.	c #27374E",
"BS.	c #212F45",
"CS.	c #1B283A",
"DS.	c #162331",
"ES.	c #12202B",
"FS.	c #101D26",
"GS.	c #0D1A21",
"HS.	c #0A161C",
"IS.	c #040E15",
"JS.	c #040D16",
"KS.	c #121622",
"LS.	c #171926",
"MS.	c #181925",
"NS.	c #26252C",
"OS.	c #23222B",
"PS.	c #2A2A33",
"QS.	c #2D2E37",
"RS.	c #2C2D38",
"SS.	c #232631",
"TS.	c #1A1E2A",
"US.	c #141A28",
"VS.	c #161E2D",
"WS.	c #1D2938",
"XS.	c #1C2939",
"YS.	c #182736",
"ZS.	c #152434",
"`S.	c #192736",
" T.	c #1B2837",
".T.	c #1C2938",
"+T.	c #1A2734",
"@T.	c #18242F",
"#T.	c #141F29",
"$T.	c #182432",
"%T.	c #1E2D3F",
"&T.	c #293951",
"*T.	c #40506B",
"=T.	c #576885",
"-T.	c #6E7F9B",
";T.	c #8192AD",
">T.	c #92A2BC",
",T.	c #A0AEC9",
"'T.	c #A3B0CA",
")T.	c #9EABC4",
"!T.	c #9AA3BC",
"~T.	c #A0A8BF",
"{T.	c #ACB3C8",
"]T.	c #9298AA",
"^T.	c #C3D2D2",
"/T.	c #CBDBDD",
"(T.	c #B3C6CA",
"_T.	c #9CB0B9",
":T.	c #8BA1AD",
"<T.	c #859EAE",
"[T.	c #86A0B3",
"}T.	c #89A3B9",
"|T.	c #88A3BC",
"1T.	c #819BB5",
"2T.	c #708AA5",
"3T.	c #5C758F",
"4T.	c #49617A",
"5T.	c #3B546A",
"6T.	c #324A5F",
"7T.	c #2C4256",
"8T.	c #253A4D",
"9T.	c #23364A",
"0T.	c #24344B",
"aT.	c #202F46",
"bT.	c #1A293E",
"cT.	c #162335",
"dT.	c #121F2D",
"eT.	c #0F1D27",
"fT.	c #0C1922",
"gT.	c #060F16",
"hT.	c #10151F",
"iT.	c #161925",
"jT.	c #161724",
"kT.	c #1A1923",
"lT.	c #23232E",
"mT.	c #2C2C38",
"nT.	c #32323E",
"oT.	c #282C39",
"pT.	c #171F2E",
"qT.	c #141E2D",
"rT.	c #142030",
"sT.	c #172434",
"tT.	c #142333",
"uT.	c #142433",
"vT.	c #172634",
"wT.	c #1A2833",
"xT.	c #132029",
"yT.	c #111E27",
"zT.	c #0D1920",
"AT.	c #0B161E",
"BT.	c #131F2A",
"CT.	c #172636",
"DT.	c #1C2D43",
"ET.	c #2A3C55",
"FT.	c #445570",
"GT.	c #60718D",
"HT.	c #7889A5",
"IT.	c #8999B5",
"JT.	c #93A2BF",
"KT.	c #97A5C1",
"LT.	c #96A3BE",
"MT.	c #939EB9",
"NT.	c #969FB9",
"OT.	c #9EA5BF",
"PT.	c #A5ABC2",
"QT.	c #A0A5BA",
"RT.	c #7C7F92",
"ST.	c #C4D3D2",
"TT.	c #CBDCDD",
"UT.	c #B1C4C9",
"VT.	c #9BB1BA",
"WT.	c #8DA5B2",
"XT.	c #87A1B1",
"YT.	c #85A0B4",
"ZT.	c #85A0B6",
"`T.	c #819BB6",
" U.	c #7690AD",
".U.	c #657E9A",
"+U.	c #516A85",
"@U.	c #405871",
"#U.	c #344C63",
"$U.	c #2B4358",
"%U.	c #243B4E",
"&U.	c #1C3144",
"*U.	c #1A2D42",
"=U.	c #1D2D44",
"-U.	c #1A2940",
";U.	c #15243A",
">U.	c #132032",
",U.	c #101E2B",
"'U.	c #0D1B26",
")U.	c #0A1720",
"!U.	c #061319",
"~U.	c #040E13",
"{U.	c #181C27",
"]U.	c #141723",
"^U.	c #121420",
"/U.	c #272733",
"(U.	c #2D2D3A",
"_U.	c #303340",
":U.	c #303443",
"<U.	c #2C3141",
"[U.	c #202737",
"}U.	c #131C2D",
"|U.	c #0E192A",
"1U.	c #101C2D",
"2U.	c #142131",
"3U.	c #152233",
"4U.	c #152332",
"5U.	c #192733",
"6U.	c #192731",
"7U.	c #16232C",
"8U.	c #111E25",
"9U.	c #0D1B20",
"0U.	c #081519",
"aU.	c #071318",
"bU.	c #142331",
"cU.	c #15273B",
"dU.	c #162941",
"eU.	c #52647F",
"fU.	c #6F809C",
"gU.	c #7F8FAC",
"hU.	c #808FAD",
"iU.	c #8290AE",
"jU.	c #8592AF",
"kU.	c #8892B0",
"lU.	c #8992AE",
"mU.	c #8C93AE",
"nU.	c #9A9FB8",
"oU.	c #9DA1B8",
"pU.	c #898CA0",
"qU.	c #C3D1D0",
"rU.	c #C9DADA",
"sU.	c #AFC2C6",
"tU.	c #9CB2BA",
"uU.	c #92A9B5",
"vU.	c #8AA4B4",
"wU.	c #85A0B3",
"xU.	c #819CB1",
"yU.	c #7893AC",
"zU.	c #6B85A0",
"AU.	c #58708C",
"BU.	c #455D77",
"CU.	c #2C445A",
"DU.	c #253C50",
"EU.	c #1F3546",
"FU.	c #162A3C",
"GU.	c #18273D",
"HU.	c #16253A",
"IU.	c #142135",
"JU.	c #101D2A",
"KU.	c #0D1A24",
"LU.	c #09151D",
"MU.	c #041016",
"NU.	c #020C11",
"OU.	c #070F14",
"PU.	c #0D141B",
"QU.	c #1B1E29",
"RU.	c #2E303F",
"SU.	c #313544",
"TU.	c #303645",
"UU.	c #29303F",
"VU.	c #212938",
"WU.	c #131E2E",
"XU.	c #121E2E",
"YU.	c #152231",
"ZU.	c #162332",
"`U.	c #1A2832",
" V.	c #1A2830",
".V.	c #16232A",
"+V.	c #101D22",
"@V.	c #0C191C",
"#V.	c #061315",
"$V.	c #051114",
"%V.	c #101C22",
"&V.	c #13212D",
"*V.	c #071B33",
"=V.	c #24344C",
"-V.	c #465872",
";V.	c #647591",
">V.	c #7282A0",
",V.	c #6D7C9B",
"'V.	c #6B7999",
")V.	c #6E7B9A",
"!V.	c #747F9E",
"~V.	c #7A83A1",
"{V.	c #8188A6",
"]V.	c #9096B1",
"^V.	c #999EB6",
"/V.	c #979CB1",
"(V.	c #8A8DA1",
"_V.	c #C0CDCB",
":V.	c #C8D7D6",
"<V.	c #AFC1C2",
"[V.	c #9FB3B8",
"}V.	c #96ABB4",
"|V.	c #8EA6B2",
"1V.	c #88A1AF",
"2V.	c #809AAA",
"3V.	c #748DA1",
"4V.	c #647C92",
"5V.	c #50667C",
"6V.	c #3D5267",
"7V.	c #2E4357",
"8V.	c #273C4F",
"9V.	c #223647",
"0V.	c #1C2F3F",
"aV.	c #132635",
"bV.	c #122232",
"cV.	c #152133",
"dV.	c #131F2F",
"eV.	c #131E2B",
"fV.	c #121C27",
"gV.	c #0F1922",
"hV.	c #0A141A",
"iV.	c #040E12",
"jV.	c #020A0D",
"kV.	c #040A0E",
"lV.	c #0A1014",
"mV.	c #262C3A",
"nV.	c #303744",
"oV.	c #323A48",
"pV.	c #2B3342",
"qV.	c #1F2836",
"rV.	c #141E2C",
"sV.	c #16222F",
"tV.	c #172330",
"uV.	c #17232F",
"vV.	c #182530",
"wV.	c #1A2730",
"xV.	c #1B282F",
"yV.	c #172329",
"zV.	c #111D21",
"AV.	c #0C181A",
"BV.	c #061113",
"CV.	c #051013",
"DV.	c #0A192A",
"EV.	c #07192E",
"FV.	c #213047",
"GV.	c #3D4D66",
"HV.	c #556580",
"IV.	c #63718F",
"JV.	c #62708F",
"KV.	c #5C6989",
"LV.	c #556281",
"MV.	c #576282",
"NV.	c #6B7594",
"OV.	c #848DAC",
"PV.	c #8F98B4",
"QV.	c #A7AEC4",
"RV.	c #969DB0",
"SV.	c #B6C0BB",
"TV.	c #C3CFCB",
"UV.	c #B4C2BF",
"VV.	c #A6B6B5",
"WV.	c #9AACAE",
"XV.	c #91A4A9",
"YV.	c #8CA1A7",
"ZV.	c #889DA5",
"`V.	c #7F949E",
" W.	c #70848F",
".W.	c #5A6D79",
"+W.	c #445763",
"@W.	c #314350",
"#W.	c #263844",
"$W.	c #1E303C",
"%W.	c #192936",
"&W.	c #141F2C",
"*W.	c #151F2C",
"=W.	c #101926",
"-W.	c #0C1521",
";W.	c #0F171F",
">W.	c #0E1418",
",W.	c #0A1012",
"'W.	c #14171A",
")W.	c #202326",
"!W.	c #1D1F25",
"~W.	c #161921",
"{W.	c #2E3642",
"]W.	c #29313D",
"^W.	c #272E39",
"/W.	c #242B35",
"(W.	c #1E2731",
"_W.	c #17202A",
":W.	c #101B23",
"<W.	c #151F26",
"[W.	c #192329",
"}W.	c #162025",
"|W.	c #101A1D",
"1W.	c #061012",
"2W.	c #0A1524",
"3W.	c #0A1729",
"4W.	c #1B263B",
"5W.	c #2E3A51",
"6W.	c #3D4962",
"7W.	c #47536E",
"8W.	c #4C5674",
"9W.	c #495473",
"0W.	c #455070",
"aW.	c #485374",
"bW.	c #646F8D",
"cW.	c #838FAD",
"dW.	c #939FBB",
"eW.	c #A1AEC6",
"fW.	c #AEBBD0",
"gW.	c #9BA8BA",
"hW.	c #6F7D8B",
"iW.	c #71756F",
"jW.	c #AFB5AE",
"kW.	c #B3BDB7",
"lW.	c #A6B3AD",
"mW.	c #9AA8A4",
"nW.	c #90A09E",
"oW.	c #8D9E9D",
"pW.	c #8B9D9D",
"qW.	c #849697",
"rW.	c #75878A",
"sW.	c #5F7074",
"tW.	c #48585D",
"uW.	c #334248",
"vW.	c #25333A",
"wW.	c #1B2931",
"xW.	c #101315",
"yW.	c #0D1011",
"zW.	c #1E1F20",
"AW.	c #212224",
"BW.	c #293038",
"CW.	c #2C333B",
"DW.	c #131B1F",
"EW.	c #0F171A",
"FW.	c #0C1417",
"GW.	c #0C1316",
"HW.	c #0D1417",
"IW.	c #0C1318",
"JW.	c #0B131F",
"KW.	c #0C1423",
"LW.	c #12192B",
"MW.	c #1A2035",
"NW.	c #1D243B",
"OW.	c #232A43",
"PW.	c #2C3350",
"QW.	c #343B5B",
"RW.	c #3C4564",
"SW.	c #45506F",
"TW.	c #616D8A",
"UW.	c #7F8EAA",
"VW.	c #94A3BE",
"WW.	c #A3B4CB",
"XW.	c #ADBED2",
"YW.	c #A1B3C4",
"ZW.	c #8D9EAD",
"`W.	c #7A7D78",
" X.	c #BDC3BC",
".X.	c #A0A9A2",
"+X.	c #949F99",
"@X.	c #929E98",
"#X.	c #8C9993",
"$X.	c #85948F",
"%X.	c #7D8C89",
"&X.	c #6F7F7D",
"*X.	c #5E6D6C",
"=X.	c #485758",
"-X.	c #354345",
";X.	c #263236",
">X.	c #1D292D",
",X.	c #162228",
"'X.	c #0F0F10",
")X.	c #0A0A0B",
"!X.	c #0E0F10",
"~X.	c #080808",
"{X.	c #262626",
"]X.	c #2A2B2B",
"^X.	c #252A30",
"/X.	c #24292E",
"(X.	c #1D2227",
"_X.	c #050B0F",
":X.	c #12181C",
"<X.	c #161C1F",
"[X.	c #13181C",
"}X.	c #080F1B",
"|X.	c #0E1322",
"1X.	c #15192B",
"2X.	c #171B2F",
"3X.	c #191E35",
"4X.	c #1E233E",
"5X.	c #252B48",
"6X.	c #313956",
"7X.	c #424C68",
"8X.	c #5E6B86",
"9X.	c #7B8AA5",
"0X.	c #8D9EB7",
"aX.	c #99ABC2",
"bX.	c #A0B4C7",
"cX.	c #ACBFD0",
"dX.	c #B0C2D1",
"eX.	c #919590",
"fX.	c #B6BBB6",
"gX.	c #BBC1BD",
"hX.	c #9CA59F",
"iX.	c #8E9993",
"jX.	c #8B9792",
"kX.	c #86938F",
"lX.	c #7C8A86",
"mX.	c #6D7C78",
"nX.	c #596765",
"oX.	c #435150",
"pX.	c #2F3C3C",
"qX.	c #212D2F",
"rX.	c #192428",
"sX.	c #152126",
"tX.	c #121E24",
"uX.	c #0F1A20",
"vX.	c #0C151B",
"wX.	c #0E0E0D",
"xX.	c #030303",
"yX.	c #111111",
"zX.	c #313131",
"AX.	c #1D2226",
"BX.	c #21262A",
"CX.	c #191E21",
"DX.	c #0D1317",
"EX.	c #02070B",
"FX.	c #010509",
"GX.	c #1B2024",
"HX.	c #11171B",
"IX.	c #040C13",
"JX.	c #080E1A",
"KX.	c #101423",
"LX.	c #131828",
"MX.	c #14192C",
"NX.	c #14182F",
"OX.	c #171D35",
"PX.	c #272D46",
"QX.	c #3F4862",
"RX.	c #5B6780",
"SX.	c #74839B",
"TX.	c #8393AB",
"UX.	c #8C9DB4",
"VX.	c #93A6BA",
"WX.	c #ADBED0",
"XX.	c #B8C9D8",
"YX.	c #8F9DAA",
"ZX.	c #8D918D",
"`X.	c #A8ADAA",
" Y.	c #BABFBD",
".Y.	c #BBC2BF",
"+Y.	c #A7B1AE",
"@Y.	c #96A29F",
"#Y.	c #8A9795",
"$Y.	c #839190",
"%Y.	c #768585",
"&Y.	c #627272",
"*Y.	c #4A5A5A",
"=Y.	c #334243",
"-Y.	c #223033",
";Y.	c #18252A",
">Y.	c #142127",
",Y.	c #131F27",
"'Y.	c #08090A",
")Y.	c #0B0B0B",
"!Y.	c #0E0E0E",
"~Y.	c #050505",
"{Y.	c #0F0F0F",
"]Y.	c #232323",
"^Y.	c #3C3C3C",
"/Y.	c #272727",
"(Y.	c #0B0F13",
"_Y.	c #101418",
":Y.	c #171E21",
"<Y.	c #10181B",
"[Y.	c #01090F",
"}Y.	c #020912",
"|Y.	c #070E18",
"1Y.	c #0C1221",
"2Y.	c #070D1D",
"3Y.	c #070D20",
"4Y.	c #1F2437",
"5Y.	c #3F465C",
"6Y.	c #596278",
"7Y.	c #6C788E",
"8Y.	c #76849A",
"9Y.	c #7D8CA2",
"0Y.	c #8796AA",
"aY.	c #A2AFC2",
"bY.	c #AEBBCB",
"cY.	c #919DAB",
"dY.	c #75808D",
"eY.	c #939793",
"fY.	c #AAAFAB",
"gY.	c #BCC2C0",
"hY.	c #BEC6C5",
"iY.	c #BBC4C5",
"jY.	c #B6C0C1",
"kY.	c #A4B0B0",
"lY.	c #8F9C9E",
"mY.	c #869598",
"nY.	c #79888C",
"oY.	c #647579",
"pY.	c #4D5D62",
"qY.	c #37474D",
"rY.	c #29383F",
"sY.	c #212F36",
"tY.	c #1C2932",
"uY.	c #08141D",
"vY.	c #020A13",
"wY.	c #02070D",
"xY.	c #0A0A0A",
"yY.	c #3A3A3A",
"zY.	c #3D3D3D",
"AY.	c #191D21",
"BY.	c #0B1014",
"CY.	c #050A0E",
"DY.	c #1A2024",
"EY.	c #1C2427",
"FY.	c #0D1619",
"GY.	c #010413",
"HY.	c #1D212F",
"IY.	c #414657",
"JY.	c #555D70",
"KY.	c #626B7F",
"LY.	c #697489",
"MY.	c #6E7B90",
"NY.	c #758296",
"OY.	c #828EA1",
"PY.	c #8F9AAB",
"QY.	c #97A0B0",
"RY.	c #8E95A4",
"SY.	c #ADB3AF",
"TY.	c #BAC0BD",
"UY.	c #C0C7C6",
"VY.	c #BDC6C7",
"WY.	c #B9C4C6",
"XY.	c #B6C2C5",
"YY.	c #A7B4B8",
"ZY.	c #95A4A9",
"`Y.	c #8D9DA3",
" Z.	c #819199",
".Z.	c #6F8089",
"+Z.	c #5B6C76",
"@Z.	c #495964",
"#Z.	c #3B4A55",
"$Z.	c #2F3E49",
"%Z.	c #26353F",
"&Z.	c #1E2B35",
"*Z.	c #13202A",
"=Z.	c #07131D",
"-Z.	c #020812",
";Z.	c #060505",
">Z.	c #3B3B3B",
",Z.	c #464646",
"'Z.	c #3E3E3E",
")Z.	c #252A2E",
"!Z.	c #22262A",
"~Z.	c #0E1216",
"{Z.	c #1A1F22",
"]Z.	c #262D30",
"^Z.	c #252D2F",
"/Z.	c #091415",
"(Z.	c #000607",
"_Z.	c #01030A",
":Z.	c #1F222C",
"<Z.	c #424754",
"[Z.	c #515767",
"}Z.	c #565E70",
"|Z.	c #5C6579",
"1Z.	c #616A7F",
"2Z.	c #626C81",
"3Z.	c #606A7E",
"4Z.	c #6E7788",
"5Z.	c #9098A8",
"6Z.	c #9298A7",
"7Z.	c #727682",
"8Z.	c #9FA69F",
"9Z.	c #C0C8C3",
"0Z.	c #C2CBC8",
"aZ.	c #B4BDBE",
"bZ.	c #B4C0C2",
"cZ.	c #B2BFC3",
"dZ.	c #A8B6BC",
"eZ.	c #A1B0B8",
"fZ.	c #9BACB5",
"gZ.	c #94A5B1",
"hZ.	c #8A9CA8",
"iZ.	c #7C8E9C",
"jZ.	c #6C7D8C",
"kZ.	c #5A6B7B",
"lZ.	c #3C4C5B",
"mZ.	c #2E3E4C",
"nZ.	c #212F3C",
"oZ.	c #13202D",
"pZ.	c #06131F",
"qZ.	c #010813",
"rZ.	c #00030A",
"sZ.	c #020307",
"tZ.	c #070707",
"uZ.	c #484848",
"vZ.	c #282C2F",
"wZ.	c #292E31",
"xZ.	c #2B3335",
"yZ.	c #232D2E",
"zZ.	c #121E1D",
"AZ.	c #000908",
"BZ.	c #000404",
"CZ.	c #010606",
"DZ.	c #020708",
"EZ.	c #090D11",
"FZ.	c #424650",
"GZ.	c #4C515E",
"HZ.	c #4A5060",
"IZ.	c #51586B",
"JZ.	c #555C72",
"KZ.	c #51596F",
"LZ.	c #575F72",
"MZ.	c #798092",
"NZ.	c #878E9D",
"OZ.	c #8A8E9B",
"PZ.	c #A0A89F",
"QZ.	c #B6BFB7",
"RZ.	c #C3CDC8",
"SZ.	c #BBC6C3",
"TZ.	c #A4B0B1",
"UZ.	c #A6B4B8",
"VZ.	c #A8B7BD",
"WZ.	c #A1B1BA",
"XZ.	c #A1B3BE",
"YZ.	c #A2B4C1",
"ZZ.	c #99ABBB",
"`Z.	c #8FA1B2",
" `.	c #8395A7",
".`.	c #738598",
"+`.	c #516275",
"@`.	c #405162",
"#`.	c #2F3F4F",
"$`.	c #1F2E3D",
"%`.	c #051220",
"&`.	c #010A16",
"*`.	c #02070F",
"=`.	c #050607",
"-`.	c #363636",
";`.	c #454545",
">`.	c #424242",
",`.	c #292C30",
"'`.	c #2B2F32",
")`.	c #232629",
"!`.	c #17191C",
"~`.	c #07090D",
"{`.	c #2C3335",
"]`.	c #2C3637",
"^`.	c #1C2626",
"/`.	c #030E0C",
"(`.	c #010503",
"_`.	c #000502",
":`.	c #040907",
"<`.	c #121516",
"[`.	c #27292D",
"}`.	c #3F424A",
"|`.	c #3F4353",
"1`.	c #454A5E",
"2`.	c #4A5067",
"3`.	c #495068",
"4`.	c #434B63",
"5`.	c #4B5268",
"6`.	c #676E82",
"7`.	c #7E8595",
"8`.	c #8C93A0",
"9`.	c #A9B4A9",
"0`.	c #BDC8C0",
"a`.	c #BBC7C2",
"b`.	c #ACBAB7",
"c`.	c #99A7A8",
"d`.	c #9BABB0",
"e`.	c #A6B8C7",
"f`.	c #A4B8C8",
"g`.	c #99ABBF",
"h`.	c #8D9FB5",
"i`.	c #8193AA",
"j`.	c #72849B",
"k`.	c #61738A",
"l`.	c #506279",
"m`.	c #3F5065",
"n`.	c #2E3E51",
"o`.	c #1D2D3E",
"p`.	c #0F1E2F",
"q`.	c #061423",
"r`.	c #030E1A",
"s`.	c #171717",
"t`.	c #343434",
"u`.	c #404040",
"v`.	c #2A2E30",
"w`.	c #282A2E",
"x`.	c #222226",
"y`.	c #131517",
"z`.	c #293133",
"A`.	c #313B3C",
"B`.	c #212B2B",
"C`.	c #071211",
"D`.	c #020805",
"E`.	c #020703",
"F`.	c #070D09",
"G`.	c #383B41",
"H`.	c #3B3E47",
"I`.	c #353947",
"J`.	c #3A3F53",
"K`.	c #41485F",
"L`.	c #464E67",
"M`.	c #424A64",
"N`.	c #454D66",
"O`.	c #5B647A",
"P`.	c #767F90",
"Q`.	c #87909E",
"R`.	c #7B848E",
"S`.	c #A3B1A2",
"T`.	c #AEBBAF",
"U`.	c #B2BEB5",
"V`.	c #A8B6B1",
"W`.	c #9DADAB",
"X`.	c #96A8AA",
"Y`.	c #9AABB2",
"Z`.	c #A2B4BF",
"``.	c #AABDCD",
"  +	c #A9BDCF",
". +	c #A0B4C9",
"+ +	c #91A5BC",
"@ +	c #8396AF",
"# +	c #7689A3",
"$ +	c #677A94",
"% +	c #586B85",
"& +	c #4B5D76",
"* +	c #3D4E65",
"= +	c #2F3F54",
"- +	c #202F43",
"; +	c #0B1828",
"> +	c #07121F",
", +	c #414141",
"' +	c #4C4C4C",
") +	c #242628",
"! +	c #2B2C2E",
"~ +	c #2A2B2D",
"{ +	c #1C1D1F",
"] +	c #262D2F",
"^ +	c #303A3C",
"/ +	c #222C2D",
"( +	c #0B1616",
"_ +	c #030904",
": +	c #090F0B",
"< +	c #191C1A",
"[ +	c #262829",
"} +	c #2E3136",
"| +	c #30333C",
"1 +	c #31374C",
"2 +	c #3A425B",
"3 +	c #434D68",
"4 +	c #3E4965",
"5 +	c #3F4B66",
"6 +	c #57647D",
"7 +	c #6F7C90",
"8 +	c #808C9B",
"9 +	c #808C96",
"0 +	c #7A878D",
"a +	c #9FAB9E",
"b +	c #B9C8B9",
"c +	c #B8C7BA",
"d +	c #AAB9B0",
"e +	c #98A8A3",
"f +	c #91A2A2",
"g +	c #98AAAE",
"h +	c #A2B4BD",
"i +	c #A8BBC9",
"j +	c #A8BBCD",
"k +	c #A2B6CB",
"l +	c #96ABC2",
"m +	c #879BB5",
"n +	c #788CA8",
"o +	c #6A7E9B",
"p +	c #5C708C",
"q +	c #50637F",
"r +	c #485974",
"s +	c #3F4F68",
"t +	c #34445B",
"u +	c #28374C",
"v +	c #1B293D",
"w +	c #111D2E",
"x +	c #0A1523",
"y +	c #09111B",
"z +	c #1F1F20",
"A +	c #1E1E20",
"B +	c #2E2E30",
"C +	c #131315",
"D +	c #121417",
"E +	c #23292C",
"F +	c #2E373A",
"G +	c #222B2E",
"H +	c #10191C",
"I +	c #050C0C",
"J +	c #0A0F0C",
"K +	c #181B1A",
"L +	c #222525",
"M +	c #24282D",
"N +	c #252934",
"O +	c #2C354B",
"P +	c #353F5A",
"Q +	c #3C4864",
"R +	c #374563",
"S +	c #3A4866",
"T +	c #50607A",
"U +	c #6F7F94",
"V +	c #8999A9",
"W +	c #93A3AD",
"X +	c #8D9DA2",
"Y +	c #9CA79D",
"Z +	c #AFBDB0",
"` +	c #C2D2C3",
" .+	c #BACBBE",
"..+	c #8C9E9A",
"+.+	c #899C9D",
"@.+	c #9AADB3",
"#.+	c #A9BCC7",
"$.+	c #ABBFCE",
"%.+	c #9EB2C6",
"&.+	c #93A7BE",
"*.+	c #889CB5",
"=.+	c #798EAA",
"-.+	c #6B7F9D",
";.+	c #5E7190",
">.+	c #516483",
",.+	c #485B78",
"'.+	c #445571",
").+	c #3E4E68",
"!.+	c #36465D",
"~.+	c #2B394F",
"{.+	c #1F2C40",
"].+	c #142032",
"^.+	c #0D1826",
"/.+	c #0D141E",
"(.+	c #2C2D2E",
"_.+	c #2F2F31",
":.+	c #252527",
"<.+	c #171719",
"[.+	c #121316",
"}.+	c #2C3239",
"|.+	c #21282E",
"1.+	c #090E10",
"2.+	c #090E0D",
"3.+	c #141818",
"4.+	c #1E2229",
"5.+	c #1F2431",
"6.+	c #222A3C",
"7.+	c #29334A",
"8.+	c #2D3A55",
"9.+	c #2F3D5B",
"0.+	c #2D3D5D",
"a.+	c #374866",
"b.+	c #51657F",
"c.+	c #74889D",
"d.+	c #91A4B4",
"e.+	c #9CAFB9",
"f.+	c #95A8AC",
"g.+	c #718383",
"h.+	c #9AA3A2",
"i.+	c #B3BEB7",
"j.+	c #BAC8BD",
"k.+	c #B3C4B7",
"l.+	c #A4B6AB",
"m.+	c #91A39C",
"n.+	c #829592",
"o.+	c #879B9D",
"p.+	c #98ACB3",
"q.+	c #A1B6C1",
"r.+	c #A0B5C5",
"s.+	c #95A9BF",
"t.+	c #8599B2",
"u.+	c #7589A4",
"v.+	c #687B98",
"w.+	c #5A6D8C",
"x.+	c #4D607F",
"y.+	c #455675",
"z.+	c #3F506E",
"A.+	c #3B4B67",
"B.+	c #33425C",
"C.+	c #28374E",
"D.+	c #172437",
"E.+	c #121D2F",
"F.+	c #0F1927",
"G.+	c #1D222A",
"H.+	c #2B2E33",
"I.+	c #323334",
"J.+	c #2F2E2F",
"K.+	c #2C2B2C",
"L.+	c #201F20",
"M.+	c #22242B",
"N.+	c #2C3039",
"O.+	c #20252E",
"P.+	c #0E131C",
"Q.+	c #080C0E",
"R.+	c #1F242E",
"S.+	c #222938",
"T.+	c #202A3D",
"U.+	c #1C273F",
"V.+	c #1B2843",
"W.+	c #1E2E4C",
"X.+	c #1E3051",
"Y.+	c #3B4E6B",
"Z.+	c #7B92A9",
"`.+	c #8398A8",
" ++	c #869CA5",
".++	c #8FA5A8",
"+++	c #9BAFAE",
"@++	c #869895",
"#++	c #92989D",
"$++	c #9BA2A6",
"%++	c #B5C1BC",
"&++	c #B6C5BB",
"*++	c #A3B4AA",
"=++	c #90A39A",
"-++	c #839691",
";++	c #7C908F",
">++	c #869A9D",
",++	c #96AAB2",
"'++	c #99AEBA",
")++	c #94A9BA",
"!++	c #899DB4",
"~++	c #788CA5",
"{++	c #657994",
"]++	c #596D8A",
"^++	c #4F6180",
"/++	c #455776",
"(++	c #394966",
"_++	c #32405C",
":++	c #27354E",
"<++	c #1C2A40",
"[++	c #152235",
"}++	c #111C2E",
"|++	c #0F192A",
"1++	c #121A28",
"2++	c #242830",
"3++	c #323439",
"4++	c #323335",
"5++	c #2C2A2B",
"6++	c #2E2C2D",
"7++	c #2F2E2E",
"8++	c #242222",
"9++	c #100F13",
"0++	c #1F222F",
"a++	c #0F121F",
"b++	c #050712",
"c++	c #0F141B",
"d++	c #1B212C",
"e++	c #1F2735",
"f++	c #1A2538",
"g++	c #0F1C34",
"h++	c #081936",
"i++	c #132544",
"j++	c #253858",
"k++	c #4C5F7B",
"l++	c #788EA9",
"m++	c #7F96AD",
"n++	c #728898",
"o++	c #70868F",
"p++	c #889D9E",
"q++	c #A3B8B4",
"r++	c #8A9995",
"s++	c #4F514A",
"t++	c #898F94",
"u++	c #9EA5AB",
"v++	c #B0B7BD",
"w++	c #B5BCC1",
"x++	c #AEB8BA",
"y++	c #ACB9B6",
"z++	c #A6B5AE",
"A++	c #96A79F",
"B++	c #869893",
"C++	c #7B8E8C",
"D++	c #798C8E",
"E++	c #84979D",
"F++	c #92A6AF",
"G++	c #91A5B3",
"H++	c #889CAF",
"I++	c #7A8EA5",
"J++	c #697D96",
"K++	c #596D88",
"L++	c #506380",
"M++	c #4A5C7A",
"N++	c #465774",
"O++	c #3F4F6C",
"P++	c #364460",
"Q++	c #283650",
"R++	c #1F2C44",
"S++	c #1A263B",
"T++	c #152033",
"U++	c #10192B",
"V++	c #101627",
"W++	c #181E2B",
"X++	c #262A32",
"Y++	c #303236",
"Z++	c #2F2D2D",
"`++	c #31302E",
" @+	c #252322",
".@+	c #0A0809",
"+@+	c #0B090E",
"@@+	c #252431",
"#@+	c #202030",
"$@+	c #161727",
"%@+	c #0D0D1A",
"&@+	c #050810",
"*@+	c #080D16",
"=@+	c #101622",
"-@+	c #111A29",
";@+	c #0D192C",
">@+	c #08162E",
",@+	c #071836",
"'@+	c #162846",
")@+	c #384A68",
"!@+	c #5B6F8B",
"~@+	c #7E93AC",
"{@+	c #7B90A5",
"]@+	c #637685",
"^@+	c #62757E",
"/@+	c #7D8F90",
"(@+	c #99AAA5",
"_@+	c #818C86",
":@+	c #666159",
"<@+	c #816E65",
"[@+	c #A8AFB4",
"}@+	c #BBC2C8",
"|@+	c #C5CED4",
"1@+	c #C6CFD5",
"2@+	c #BFC8CE",
"3@+	c #B0BABE",
"4@+	c #A2AFAF",
"5@+	c #96A4A1",
"6@+	c #899996",
"7@+	c #7C8D8B",
"8@+	c #728485",
"9@+	c #73868A",
"0@+	c #7F939A",
"a@+	c #8B9FA9",
"b@+	c #8599A6",
"c@+	c #778B9C",
"d@+	c #677A90",
"e@+	c #576981",
"f@+	c #495C75",
"g@+	c #425470",
"h@+	c #3F506C",
"i@+	c #3C4C68",
"j@+	c #374561",
"k@+	c #2D3A54",
"l@+	c #1F2B44",
"m@+	c #19243A",
"n@+	c #182135",
"o@+	c #141D2E",
"p@+	c #101728",
"q@+	c #161A28",
"r@+	c #272A36",
"s@+	c #2D2F39",
"t@+	c #2C2D32",
"u@+	c #33302F",
"v@+	c #3A3734",
"w@+	c #2C2927",
"x@+	c #0B0808",
"y@+	c #15131C",
"z@+	c #1F1D2B",
"A@+	c #222132",
"B@+	c #1F1E2F",
"C@+	c #141321",
"D@+	c #0B0A16",
"E@+	c #060611",
"F@+	c #030611",
"G@+	c #050B18",
"H@+	c #050E1D",
"I@+	c #040F22",
"J@+	c #05142B",
"K@+	c #0A1B36",
"L@+	c #192945",
"M@+	c #3E4E69",
"N@+	c #5A6C86",
"O@+	c #6E7F96",
"P@+	c #677789",
"Q@+	c #505D6A",
"R@+	c #546067",
"S@+	c #6C7677",
"T@+	c #838B87",
"U@+	c #757871",
"V@+	c #81726A",
"W@+	c #B59B91",
"X@+	c #B69990",
"Y@+	c #969CA0",
"Z@+	c #ACB3B8",
"`@+	c #C4CBD1",
" #+	c #D0D8DF",
".#+	c #C9D3DA",
"+#+	c #BAC4CB",
"@#+	c #A9B4BA",
"##+	c #98A5A8",
"$#+	c #8A9899",
"%#+	c #819092",
"&#+	c #748486",
"*#+	c #697B7E",
"=#+	c #6E8086",
"-#+	c #798B94",
";#+	c #81949F",
">#+	c #768996",
",#+	c #647687",
"'#+	c #526478",
")#+	c #43546A",
"!#+	c #384A61",
"~#+	c #33445C",
"{#+	c #304059",
"]#+	c #2D3C55",
"^#+	c #29354E",
"/#+	c #222D44",
"(#+	c #192338",
"_#+	c #161E32",
":#+	c #151C2E",
"<#+	c #131A29",
"[#+	c #171B29",
"}#+	c #232531",
"|#+	c #353742",
"1#+	c #363741",
"2#+	c #393533",
"3#+	c #474340",
"4#+	c #383432",
"5#+	c #110D0C",
"6#+	c #1A1725",
"7#+	c #262435",
"8#+	c #272637",
"9#+	c #1B1928",
"0#+	c #0E0C1A",
"a#+	c #030410",
"b#+	c #02040F",
"c#+	c #01030F",
"d#+	c #00030E",
"e#+	c #000411",
"f#+	c #000515",
"g#+	c #01091C",
"h#+	c #08152A",
"i#+	c #142239",
"j#+	c #243048",
"k#+	c #414D64",
"l#+	c #536076",
"m#+	c #556174",
"n#+	c #4B5463",
"o#+	c #3C414B",
"p#+	c #47494D",
"q#+	c #595959",
"r#+	c #6A6662",
"s#+	c #6F645D",
"t#+	c #957D73",
"u#+	c #CCABA0",
"v#+	c #C4A297",
"w#+	c #969A9E",
"x#+	c #BAC0C5",
"y#+	c #D3DAE0",
"z#+	c #DAE3E9",
"A#+	c #D4DEE4",
"B#+	c #C4CED4",
"C#+	c #B3BDC4",
"D#+	c #A4AFB7",
"E#+	c #9AA6AD",
"F#+	c #8F9BA2",
"G#+	c #869399",
"H#+	c #808F95",
"I#+	c #738288",
"J#+	c #64737B",
"K#+	c #687882",
"L#+	c #70818C",
"M#+	c #738591",
"N#+	c #647684",
"O#+	c #3D4D5F",
"P#+	c #29394E",
"Q#+	c #243348",
"R#+	c #1E2C42",
"S#+	c #19253B",
"T#+	c #152035",
"U#+	c #151E32",
"V#+	c #161E31",
"W#+	c #141A2C",
"X#+	c #111726",
"Y#+	c #131825",
"Z#+	c #232530",
"`#+	c #33343F",
" $+	c #40414A",
".$+	c #404048",
"+$+	c #3F3C39",
"@$+	c #54504D",
"#$+	c #44403E",
"$$+	c #181513",
"%$+	c #181522",
"&$+	c #2B2838",
"*$+	c #2F2C3C",
"=$+	c #211F2D",
"-$+	c #110F1C",
";$+	c #02020E",
">$+	c #03030F",
",$+	c #020410",
"'$+	c #01040F",
")$+	c #010614",
"!$+	c #040D1C",
"~$+	c #0F1A2B",
"{$+	c #212B3D",
"]$+	c #333C4E",
"^$+	c #434A5E",
"/$+	c #484E61",
"($+	c #3B3F4F",
"_$+	c #30303B",
":$+	c #302931",
"<$+	c #3F3235",
"[$+	c #4D3D3C",
"}$+	c #5D4844",
"|$+	c #785C54",
"1$+	c #A27F75",
"2$+	c #CEA599",
"3$+	c #C49C8E",
"4$+	c #987364",
"5$+	c #A8ACAF",
"6$+	c #C4C8CC",
"7$+	c #D1D7DC",
"8$+	c #D6DDE3",
"9$+	c #CED7DD",
"0$+	c #C1CBD2",
"a$+	c #B2BCC3",
"b$+	c #A4AEB7",
"c$+	c #98A2AC",
"d$+	c #8D9AA3",
"e$+	c #89959E",
"f$+	c #88949E",
"g$+	c #87949E",
"h$+	c #77848F",
"i$+	c #616F7B",
"j$+	c #62707D",
"k$+	c #657582",
"l$+	c #536271",
"m$+	c #1D2B3D",
"n$+	c #172537",
"o$+	c #101D2F",
"p$+	c #091527",
"q$+	c #061123",
"r$+	c #0D1525",
"s$+	c #151B2A",
"t$+	c #111624",
"u$+	c #0C101E",
"v$+	c #171823",
"w$+	c #33323C",
"x$+	c #43424B",
"y$+	c #424049",
"z$+	c #44403C",
"A$+	c #5D5955",
"B$+	c #4C4845",
"C$+	c #1D1917",
"D$+	c #0D0807",
"E$+	c #0E0A0F",
"F$+	c #18141E",
"G$+	c #2F2C38",
"H$+	c #33303E",
"I$+	c #24212E",
"J$+	c #12101C",
"K$+	c #02020D",
"L$+	c #04040F",
"M$+	c #050913",
"N$+	c #060A16",
"O$+	c #1A212F",
"P$+	c #2D323F",
"Q$+	c #414451",
"R$+	c #484855",
"S$+	c #43404D",
"T$+	c #2F2832",
"U$+	c #24131B",
"V$+	c #30181C",
"W$+	c #412223",
"X$+	c #542E2C",
"Y$+	c #6D413B",
"Z$+	c #96665E",
"`$+	c #B58378",
" %+	c #C59386",
".%+	c #C29585",
"+%+	c #B68E7C",
"@%+	c #A7AAAD",
"#%+	c #C1C5C9",
"$%+	c #DDE2E6",
"%%+	c #DBE1E6",
"&%+	c #CAD1D7",
"*%+	c #B5BDC4",
"=%+	c #A7B1B9",
"-%+	c #A2ACB5",
";%+	c #9CA6B0",
">%+	c #929DA7",
",%+	c #86929C",
"'%+	c #86929D",
")%+	c #8B97A4",
"!%+	c #8F9BA9",
"~%+	c #7D8998",
"{%+	c #5A6777",
"]%+	c #546171",
"^%+	c #42505E",
"/%+	c #2B3A49",
"(%+	c #0E1A28",
"_%+	c #091422",
":%+	c #06101D",
"<%+	c #050D1A",
"[%+	c #131723",
"}%+	c #0C101B",
"|%+	c #0B0C17",
"1%+	c #1E1D26",
"2%+	c #3E3C44",
"3%+	c #4E4B53",
"4%+	c #403D44",
"5%+	c #45413D",
"6%+	c #605B57",
"7%+	c #4E4A46",
"8%+	c #201C19",
"9%+	c #0C0705",
"0%+	c #18151C",
"a%+	c #302D36",
"b%+	c #34323C",
"c%+	c #24222C",
"d%+	c #12111B",
"e%+	c #03030D",
"f%+	c #070711",
"g%+	c #0A0C15",
"h%+	c #151922",
"i%+	c #1C212A",
"j%+	c #262933",
"k%+	c #44434A",
"l%+	c #3D3239",
"m%+	c #2C0B0D",
"n%+	c #3E1414",
"o%+	c #562322",
"p%+	c #723734",
"q%+	c #8F4F4A",
"r%+	c #B27169",
"s%+	c #C18076",
"t%+	c #B77C6D",
"u%+	c #BF8D7B",
"v%+	c #C79B89",
"w%+	c #BEBFC1",
"x%+	c #CFD2D4",
"y%+	c #D8DCE0",
"z%+	c #DCE0E6",
"A%+	c #CDD4DA",
"B%+	c #B6BEC5",
"C%+	c #A4AEB6",
"D%+	c #9CA7AF",
"E%+	c #9AA6AF",
"F%+	c #96A3AB",
"G%+	c #8E9BA4",
"H%+	c #85919C",
"I%+	c #84909E",
"J%+	c #8C97A8",
"K%+	c #828DA0",
"L%+	c #5E697C",
"M%+	c #535F71",
"N%+	c #4E5A6B",
"O%+	c #455161",
"P%+	c #34404F",
"Q%+	c #1F2D3A",
"R%+	c #0F1B26",
"S%+	c #0A151F",
"T%+	c #0C121B",
"U%+	c #070912",
"V%+	c #29262D",
"W%+	c #423F45",
"X%+	c #504B52",
"Y%+	c #423E3A",
"Z%+	c #4A4542",
"`%+	c #201B18",
" &+	c #0B0503",
".&+	c #0B0608",
"+&+	c #19151A",
"@&+	c #312F35",
"#&+	c #222128",
"$&+	c #131219",
"%&+	c #0C0C14",
"&&+	c #13161D",
"*&+	c #1F2228",
"=&+	c #373033",
"-&+	c #312729",
";&+	c #2B191B",
">&+	c #2C0D0D",
",&+	c #3C0D0A",
"'&+	c #561D1A",
")&+	c #77342F",
"!&+	c #994D48",
"~&+	c #B7635E",
"{&+	c #C36F68",
"]&+	c #BF7065",
"^&+	c #AB6858",
"/&+	c #B78370",
"(&+	c #C49783",
"_&+	c #967363",
":&+	c #98928F",
"<&+	c #9C9895",
"[&+	c #989595",
"}&+	c #B7B6B8",
"|&+	c #DBDBDD",
"1&+	c #E0E2E4",
"2&+	c #D8DDE0",
"3&+	c #CBD0D5",
"4&+	c #B9BFC6",
"5&+	c #9BA5AE",
"6&+	c #949FA8",
"7&+	c #8E9BA3",
"8&+	c #89959F",
"9&+	c #84919B",
"0&+	c #818D9A",
"a&+	c #808B9C",
"b&+	c #8892A6",
"c&+	c #98A1B7",
"d&+	c #858EA4",
"e&+	c #5B657A",
"f&+	c #4B566A",
"g&+	c #424E60",
"h&+	c #16232F",
"i&+	c #0A1722",
"j&+	c #08151E",
"k&+	c #0B171E",
"l&+	c #071219",
"m&+	c #0A1319",
"n&+	c #0E131A",
"o&+	c #0A0C12",
"p&+	c #0C0C11",
"q&+	c #363237",
"r&+	c #433D43",
"s&+	c #494349",
"t&+	c #3B3733",
"u&+	c #514C48",
"v&+	c #433F3B",
"w&+	c #201C18",
"x&+	c #0D0804",
"y&+	c #191516",
"z&+	c #282628",
"A&+	c #2B2A2C",
"B&+	c #201F22",
"C&+	c #141418",
"D&+	c #111117",
"E&+	c #14151B",
"F&+	c #18191F",
"G&+	c #1D1F24",
"H&+	c #242528",
"I&+	c #342D2D",
"J&+	c #2A1E1D",
"K&+	c #200C09",
"L&+	c #250100",
"M&+	c #3D0D05",
"N&+	c #581D15",
"O&+	c #762F28",
"P&+	c #99463F",
"Q&+	c #BB5D57",
"R&+	c #D56F68",
"S&+	c #CE6A62",
"T&+	c #B85C51",
"U&+	c #A05545",
"V&+	c #A9715F",
"W&+	c #B38571",
"X&+	c #896654",
"Y&+	c #978D88",
"Z&+	c #AEA5A1",
"`&+	c #B8B1AD",
" *+	c #BEB8B6",
".*+	c #C3C0BF",
"+*+	c #D7D6D7",
"@*+	c #E2E4E7",
"#*+	c #CACED2",
"$*+	c #B4B9BF",
"%*+	c #A4ABB2",
"&*+	c #9AA3AA",
"**+	c #949DA6",
"=*+	c #89949D",
"-*+	c #7C8891",
";*+	c #74808B",
">*+	c #75818D",
",*+	c #7B8795",
"'*+	c #798396",
")*+	c #8189A0",
"!*+	c #969EB7",
"~*+	c #858CA4",
"{*+	c #586076",
"]*+	c #454E63",
"^*+	c #394457",
"/*+	c #1F2B38",
"(*+	c #111D28",
"_*+	c #06131C",
":*+	c #051119",
"<*+	c #0A1216",
"[*+	c #0D1518",
"}*+	c #1A191C",
"|*+	c #433E41",
"1*+	c #38332F",
"2*+	c #48433F",
"3*+	c #3D3834",
"4*+	c #231E1A",
"5*+	c #130D08",
"6*+	c #181411",
"7*+	c #23201E",
"8*+	c #1D1C1C",
"9*+	c #171617",
"0*+	c #151315",
"a*+	c #1C1A1E",
"b*+	c #211F22",
"c*+	c #2F2624",
"d*+	c #30231F",
"e*+	c #2B160F",
"f*+	c #2F1009",
"g*+	c #421913",
"h*+	c #602920",
"i*+	c #7A352A",
"j*+	c #944137",
"k*+	c #B35349",
"l*+	c #D2665D",
"m*+	c #E7736B",
"n*+	c #D7655C",
"o*+	c #B74F43",
"p*+	c #984535",
"q*+	c #945946",
"r*+	c #996B56",
"s*+	c #876551",
"t*+	c #755C4A",
"u*+	c #81736D",
"v*+	c #C0B2AC",
"w*+	c #DFD2CB",
"x*+	c #E1D5CF",
"y*+	c #DAD0CA",
"z*+	c #D5CEC9",
"A*+	c #E4E1DE",
"B*+	c #E9E9E8",
"C*+	c #E0E2E5",
"D*+	c #D2D6DA",
"E*+	c #BFC5CB",
"F*+	c #A9B0B8",
"G*+	c #979EA8",
"H*+	c #737C87",
"I*+	c #67717C",
"J*+	c #636D7A",
"K*+	c #697482",
"L*+	c #737E8E",
"M*+	c #6F798C",
"N*+	c #787F96",
"O*+	c #929AB1",
"P*+	c #8289A0",
"Q*+	c #545C71",
"R*+	c #40495D",
"S*+	c #343D50",
"T*+	c #273140",
"U*+	c #1B2532",
"V*+	c #101A24",
"W*+	c #2D2B2C",
"X*+	c #423E3F",
"Y*+	c #4E484B",
"Z*+	c #4A4346",
"`*+	c #453F3A",
" =+	c #3C3531",
".=+	c #29211C",
"+=+	c #1C130E",
"@=+	c #160E08",
"#=+	c #19120D",
"$=+	c #201B15",
"%=+	c #221D18",
"&=+	c #1E1715",
"*=+	c #1F1717",
"==+	c #201718",
"-=+	c #201719",
";=+	c #211819",
">=+	c #251B1B",
",=+	c #281B18",
"'=+	c #271713",
")=+	c #2E160F",
"!=+	c #3E1C12",
"~=+	c #562C21",
"{=+	c #733E32",
"]=+	c #8F4F42",
"^=+	c #A15446",
"/=+	c #AD5345",
"(=+	c #BF574B",
"_=+	c #D66458",
":=+	c #EB7166",
"<=+	c #E26A5F",
"[=+	c #C4584C",
"}=+	c #953F30",
"|=+	c #80422E",
"1=+	c #8A5B48",
"2=+	c #9C7867",
"3=+	c #9E7E6F",
"4=+	c #B7A7A1",
"5=+	c #DCCBC4",
"6=+	c #F3E1D9",
"7=+	c #F0E0D7",
"8=+	c #EBDDD5",
"9=+	c #E9DFD8",
"0=+	c #EFEAE5",
"a=+	c #E6E6E4",
"b=+	c #CDD2D4",
"c=+	c #BFC7CD",
"d=+	c #B0BAC2",
"e=+	c #98A2AD",
"f=+	c #848E9B",
"g=+	c #686F7E",
"h=+	c #5C6371",
"i=+	c #515967",
"j=+	c #515867",
"k=+	c #5C6575",
"l=+	c #6B7586",
"m=+	c #6A7487",
"n=+	c #727C90",
"o=+	c #8892A7",
"p=+	c #7A8397",
"q=+	c #515A6C",
"r=+	c #3A4355",
"s=+	c #2C3444",
"t=+	c #17202C",
"u=+	c #050D14",
"v=+	c #0B0F0F",
"w=+	c #202221",
"x=+	c #3C3A3B",
"y=+	c #4B4748",
"z=+	c #4D484A",
"A=+	c #534D4A",
"B=+	c #524C48",
"C=+	c #49403B",
"D=+	c #2D1F1B",
"E=+	c #261610",
"F=+	c #24150C",
"G=+	c #26190F",
"H=+	c #281C11",
"I=+	c #281B12",
"J=+	c #271811",
"K=+	c #2C1915",
"L=+	c #301A17",
"M=+	c #351C19",
"N=+	c #3B201D",
"O=+	c #432622",
"P=+	c #492A25",
"Q=+	c #4D2B25",
"R=+	c #49251D",
"S=+	c #4F261D",
"T=+	c #623328",
"U=+	c #763E31",
"V=+	c #8A4A3C",
"W=+	c #A05748",
"X=+	c #AB5949",
"Y=+	c #B25445",
"Z=+	c #BF5748",
"`=+	c #D56455",
" -+	c #E97163",
".-+	c #E16B5D",
"+-+	c #C2584A",
"@-+	c #8D382A",
"#-+	c #71301D",
"$-+	c #814F3F",
"%-+	c #A47A6B",
"&-+	c #A78072",
"*-+	c #A99B96",
"=-+	c #E4D1CB",
"--+	c #EED7CF",
";-+	c #EAD1C8",
">-+	c #E1C9BE",
",-+	c #E8D5CA",
"'-+	c #F3E5DB",
")-+	c #E4DDD5",
"!-+	c #D0D1CD",
"~-+	c #BDC6C8",
"{-+	c #AEBCC3",
"]-+	c #9BABB5",
"^-+	c #7D8C9A",
"/-+	c #697687",
"(-+	c #5F697C",
"_-+	c #575D70",
":-+	c #4C4E62",
"<-+	c #3F4154",
"[-+	c #3E4153",
"}-+	c #4E5364",
"|-+	c #626A7B",
"1-+	c #687384",
"2-+	c #6E7B8C",
"3-+	c #788796",
"4-+	c #6B7988",
"5-+	c #4C5866",
"6-+	c #313B49",
"7-+	c #1C2533",
"8-+	c #121924",
"9-+	c #0B1019",
"0-+	c #050D0F",
"a-+	c #080F0F",
"b-+	c #1E2221",
"c-+	c #333636",
"d-+	c #4A4849",
"e-+	c #3B3839",
"f-+	c #675F5B",
"g-+	c #554A45",
"h-+	c #41322D",
"i-+	c #301B15",
"j-+	c #2D160D",
"k-+	c #301B10",
"l-+	c #332013",
"m-+	c #322012",
"n-+	c #301D10",
"o-+	c #361910",
"p-+	c #3E1C15",
"q-+	c #48231C",
"r-+	c #5E342E",
"s-+	c #683B35",
"t-+	c #6F3F37",
"u-+	c #6B3930",
"v-+	c #6F392F",
"w-+	c #804539",
"x-+	c #884739",
"y-+	c #8D4637",
"z-+	c #964938",
"A-+	c #9C4836",
"B-+	c #A54837",
"C-+	c #B95543",
"D-+	c #D16654",
"E-+	c #E47462",
"F-+	c #D36655",
"G-+	c #AD4B3A",
"H-+	c #7D2D1E",
"I-+	c #6A2A1B",
"J-+	c #7E473A",
"K-+	c #9D695E",
"L-+	c #9D6B61",
"M-+	c #734840",
"N-+	c #A79892",
"O-+	c #E4D0C9",
"P-+	c #EFD5CD",
"Q-+	c #E8CABF",
"R-+	c #DBBDB1",
"S-+	c #D9C1B4",
"T-+	c #DECDC1",
"U-+	c #D9D0C6",
"V-+	c #CCCCC6",
"W-+	c #B8C1C3",
"X-+	c #A0B0B6",
"Y-+	c #8497A2",
"Z-+	c #677889",
"`-+	c #576679",
" ;+	c #515B70",
".;+	c #474C61",
"+;+	c #3B3D52",
"@;+	c #333348",
"#;+	c #35374B",
"$;+	c #414558",
"%;+	c #4F5768",
"&;+	c #606F7D",
"*;+	c #637480",
"=;+	c #576672",
"-;+	c #27323D",
";;+	c #17202B",
">;+	c #070C16",
",;+	c #050811",
"';+	c #060E0F",
");+	c #101818",
"!;+	c #1A2020",
"~;+	c #2A2E2E",
"{;+	c #383B3B",
"];+	c #3E3F3E",
"^;+	c #3E3C3D",
"/;+	c #645D5A",
"(;+	c #6B615D",
"_;+	c #6D5F59",
":;+	c #5B4A44",
"<;+	c #3A221B",
"[;+	c #2A1308",
"};+	c #2E190C",
"|;+	c #2B1507",
"1;+	c #2E1006",
"2;+	c #331107",
"3;+	c #3B150C",
"4;+	c #451B14",
"5;+	c #4F231C",
"6;+	c #5B2B25",
"7;+	c #65322B",
"8;+	c #6C362E",
"9;+	c #693128",
"0;+	c #6C3127",
"a;+	c #793A2E",
"b;+	c #7C3A2D",
"c;+	c #7E3627",
"d;+	c #853827",
"e;+	c #8D3927",
"f;+	c #9A3F2D",
"g;+	c #B1513E",
"h;+	c #C86350",
"i;+	c #D86E5B",
"j;+	c #C35D4B",
"k;+	c #9C3F2D",
"l;+	c #752717",
"m;+	c #6E2E21",
"n;+	c #82453A",
"o;+	c #985B52",
"p;+	c #995D56",
"q;+	c #87504B",
"r;+	c #8B7D79",
"s;+	c #AF9D98",
"t;+	c #D7C0BA",
"u;+	c #E6C8C0",
"v;+	c #E6C3B8",
"w;+	c #DAB7A9",
"x;+	c #CAAC9D",
"y;+	c #BFAA9C",
"z;+	c #C7BBB0",
"A;+	c #C4C1BB",
"B;+	c #AFB7B8",
"C;+	c #909FA6",
"D;+	c #6F828E",
"E;+	c #4B5A6E",
"F;+	c #445065",
"G;+	c #363B51",
"H;+	c #2B2D43",
"I;+	c #2B2D42",
"J;+	c #323549",
"K;+	c #363B4E",
"L;+	c #384151",
"M;+	c #455360",
"N;+	c #4E5E6A",
"O;+	c #4D5E68",
"P;+	c #405059",
"Q;+	c #2A3741",
"R;+	c #101721",
"S;+	c #010208",
"T;+	c #151C1D",
"U;+	c #202727",
"V;+	c #29302F",
"W;+	c #353938",
"X;+	c #2F3231",
"Y;+	c #6C615D",
"Z;+	c #85756E",
"`;+	c #73615A",
" >+	c #472E27",
".>+	c #2B0E09",
"+>+	c #1E0400",
"@>+	c #230C01",
"#>+	c #220C01",
"$>+	c #210900",
"%>+	c #220600",
"&>+	c #250500",
"*>+	c #2A0600",
"=>+	c #300801",
"->+	c #390D06",
";>+	c #43130D",
">>+	c #4D1A14",
",>+	c #552019",
"'>+	c #5B231C",
")>+	c #5A2018",
"!>+	c #5C1F16",
"~>+	c #63251A",
"{>+	c #642316",
"]>+	c #662012",
"^>+	c #702516",
"/>+	c #7D2C1C",
"(>+	c #8F3928",
"_>+	c #A84D3B",
":>+	c #BD5D4B",
"<>+	c #C96553",
"[>+	c #B35341",
"}>+	c #8F3523",
"|>+	c #732615",
"1>+	c #763427",
"2>+	c #88463A",
"3>+	c #944F46",
"4>+	c #995650",
"5>+	c #975954",
"6>+	c #864F4B",
"7>+	c #AE9D99",
"8>+	c #C2ADA8",
"9>+	c #C7ABA6",
"0>+	c #D6B2AB",
"a>+	c #E0B7AD",
"b>+	c #DAB3A5",
"c>+	c #C4A293",
"d>+	c #AA9083",
"e>+	c #AA9B91",
"f>+	c #A7A19C",
"g>+	c #979B9D",
"h>+	c #7C888F",
"i>+	c #60717C",
"j>+	c #4C5D6E",
"k>+	c #3F4E61",
"l>+	c #344054",
"m>+	c #242B3E",
"n>+	c #1D2235",
"o>+	c #242A3C",
"p>+	c #2B3446",
"q>+	c #2B3646",
"r>+	c #25323F",
"s>+	c #33434E",
"t>+	c #3D4F59",
"u>+	c #3A4B54",
"v>+	c #2C3B44",
"w>+	c #17232C",
"x>+	c #030610",
"y>+	c #01020A",
"z>+	c #05080E",
"A>+	c #1B1F23",
"B>+	c #303636",
"C>+	c #353B3B",
"D>+	c #333939",
"E>+	c #2C302F",
"F>+	c #736762",
"G>+	c #978780",
"H>+	c #85726B",
"I>+	c #563D36",
"J>+	c #311813",
"K>+	c #170000",
"L>+	c #190500",
"M>+	c #180500",
"N>+	c #170300",
"O>+	c #190200",
"P>+	c #1B0100",
"Q>+	c #1F0100",
"R>+	c #250200",
"S>+	c #2C0502",
"T>+	c #330905",
"U>+	c #390E0A",
"V>+	c #40120D",
"W>+	c #44150F",
"X>+	c #45130D",
"Y>+	c #47130A",
"Z>+	c #4B150A",
"`>+	c #4A1107",
" ,+	c #4D0E05",
".,+	c #5B160A",
"+,+	c #6D2315",
"@,+	c #833324",
"#,+	c #9E4839",
"$,+	c #B25647",
"%,+	c #BA5B4C",
"&,+	c #A4483A",
"*,+	c #832C1C",
"=,+	c #752715",
"-,+	c #7E3929",
";,+	c #8D483A",
">,+	c #93493F",
",,+	c #9D544E",
"',+	c #A4615C",
"),+	c #905752",
"!,+	c #BEA9A5",
"~,+	c #C5ACA8",
"{,+	c #B0908B",
"],+	c #BE968F",
"^,+	c #D5A89E",
"/,+	c #DCB1A3",
"(,+	c #CCA596",
"_,+	c #AC8C7F",
":,+	c #947F75",
"<,+	c #837A75",
"[,+	c #77787A",
"},+	c #677077",
"|,+	c #566470",
"1,+	c #485666",
"2,+	c #384657",
"3,+	c #151F30",
"4,+	c #161F2E",
"5,+	c #273443",
"6,+	c #243341",
"7,+	c #192A36",
"8,+	c #23353E",
"9,+	c #2C3D46",
"0,+	c #2A3A42",
"a,+	c #1E2C34",
"b,+	c #070A13",
"c,+	c #0E0F17",
"d,+	c #13151C",
"e,+	c #1D2125",
"f,+	c #2D3135",
"g,+	c #373D3E",
"h,+	c #3C4242",
"i,+	c #363C3B",
"j,+	c #2E3433",
"k,+	c #95847E",
"l,+	c #86726B",
"m,+	c #644A43",
"n,+	c #3E2620",
"o,+	c #140300",
"p,+	c #110300",
"q,+	c #120200",
"r,+	c #140100",
"s,+	c #160100",
"t,+	c #190100",
"u,+	c #1D0201",
"v,+	c #220302",
"w,+	c #260404",
"x,+	c #2A0705",
"y,+	c #2E0906",
"z,+	c #320B07",
"A,+	c #350B07",
"B,+	c #370B05",
"C,+	c #390902",
"D,+	c #380400",
"E,+	c #3C0301",
"F,+	c #4C0E05",
"G,+	c #611E12",
"H,+	c #782F22",
"I,+	c #924235",
"J,+	c #A44E41",
"K,+	c #AB5145",
"L,+	c #974034",
"M,+	c #7E2919",
"N,+	c #792B18",
"O,+	c #843C2A",
"P,+	c #934939",
"Q,+	c #994A3F",
"R,+	c #A1534B",
"S,+	c #9E615B",
"T,+	c #905E58",
"U,+	c #9A8983",
"V,+	c #B39F99",
"W,+	c #C2A9A4",
"X,+	c #BA9D99",
"Y,+	c #93706B",
"Z,+	c #A2766E",
"`,+	c #C5958A",
" '+	c #DEADA0",
".'+	c #DAAC9E",
"+'+	c #BD968A",
"@'+	c #8F7268",
"#'+	c #64544F",
"$'+	c #555153",
"%'+	c #51565E",
"&'+	c #4E5863",
"*'+	c #434F5D",
"='+	c #323E4D",
"-'+	c #0E1A29",
";'+	c #18232F",
">'+	c #24313C",
",'+	c #243540",
"''+	c #1F323D",
")'+	c #162934",
"!'+	c #152931",
"~'+	c #1A2B32",
"{'+	c #1D2D34",
"]'+	c #11141B",
"^'+	c #3B4043",
"/'+	c #424849",
"('+	c #404646",
"_'+	c #84736C",
":'+	c #806A62",
"<'+	c #71564E",
"['+	c #4A322B",
"}'+	c #1F0400",
"|'+	c #150401",
"1'+	c #0F0401",
"2'+	c #100401",
"3'+	c #110401",
"4'+	c #140302",
"5'+	c #160303",
"6'+	c #190304",
"7'+	c #1B0405",
"8'+	c #1E0405",
"9'+	c #200505",
"0'+	c #230505",
"a'+	c #240604",
"b'+	c #290805",
"c'+	c #2C0905",
"d'+	c #2E0702",
"e'+	c #360502",
"f'+	c #581B12",
"g'+	c #6D2A1F",
"h'+	c #843A2F",
"i'+	c #944439",
"j'+	c #9B473D",
"k'+	c #8D392E",
"l'+	c #7C291B",
"m'+	c #7E2F1D",
"n'+	c #8C3F2C",
"o'+	c #9B4B3A",
"p'+	c #A65043",
"q'+	c #A85148",
"r'+	c #A6564F",
"s'+	c #A9665F",
"t'+	c #A16962",
"u'+	c #8B7973",
"v'+	c #AF9A93",
"w'+	c #C8AFA8",
"x'+	c #B99C96",
"y'+	c #997873",
"z'+	c #754F4A",
"A'+	c #88584F",
"B'+	c #B37E74",
"C'+	c #DAA497",
"D'+	c #E2AFA2",
"E'+	c #D0A397",
"F'+	c #9F7B72",
"G'+	c #69504A",
"H'+	c #473C3D",
"I'+	c #3B3D44",
"J'+	c #3B414B",
"K'+	c #343D4A",
"L'+	c #27323F",
"M'+	c #101D28",
"N'+	c #26363F",
"O'+	c #22353D",
"P'+	c #1A2F37",
"Q'+	c #12282F",
"R'+	c #0B1F26",
"S'+	c #0B1B22",
"T'+	c #111F26",
"U'+	c #16171E",
"V'+	c #202126",
"W'+	c #232329",
"X'+	c #1F2025",
"Y'+	c #2B2D31",
"Z'+	c #44484B",
"`'+	c #454A4C",
" )+	c #383E3E",
".)+	c #282E2D",
"+)+	c #6B5A53",
"@)+	c #7B635B",
"#)+	c #7C6059",
"$)+	c #523A35",
"%)+	c #210601",
"&)+	c #0D0605",
"*)+	c #0E0707",
"=)+	c #0F0507",
"-)+	c #130508",
";)+	c #140508",
">)+	c #150508",
",)+	c #160408",
"')+	c #180305",
"))+	c #1E0605",
"!)+	c #250804",
"~)+	c #290804",
"{)+	c #320B06",
"])+	c #3E100B",
"^)+	c #4D1811",
"/)+	c #5E2219",
"()+	c #702E25",
"_)+	c #80372E",
":)+	c #893A33",
"<)+	c #813129",
"[)+	c #7B2A1D",
"})+	c #843320",
"|)+	c #954430",
"1)+	c #A85240",
"2)+	c #B6574A",
"3)+	c #B25349",
"4)+	c #A64E46",
"5)+	c #AC615A",
"6)+	c #A4635C",
"7)+	c #703E37",
"8)+	c #AE9891",
"9)+	c #BDA49D",
"0)+	c #C3A69F",
"a)+	c #A2837C",
"b)+	c #744F4A",
"c)+	c #5B302A",
"d)+	c #733E34",
"e)+	c #A1685E",
"f)+	c #CF9489",
"g)+	c #DFA79B",
"h)+	c #D7A599",
"i)+	c #B68C83",
"j)+	c #896863",
"k)+	c #513E3E",
"l)+	c #2F292F",
"m)+	c #262831",
"n)+	c #212933",
"o)+	c #1B2530",
"p)+	c #16222A",
"q)+	c #202E34",
"r)+	c #283A3F",
"s)+	c #1F3439",
"t)+	c #132B30",
"u)+	c #0C2228",
"v)+	c #061A1F",
"w)+	c #05141A",
"x)+	c #09161B",
"y)+	c #0A1016",
"z)+	c #1C1C22",
"A)+	c #1D1D23",
"B)+	c #202024",
"C)+	c #2D2F32",
"D)+	c #45494B",
"E)+	c #424648",
"F)+	c #2C3131",
"G)+	c #7B625A",
"H)+	c #846861",
"I)+	c #56403A",
"J)+	c #120505",
"K)+	c #0B070A",
"L)+	c #0C060A",
"M)+	c #0D050A",
"N)+	c #0E050A",
"O)+	c #0E0509",
"P)+	c #0E0409",
"Q)+	c #0E0308",
"R)+	c #0E0206",
"S)+	c #0D0104",
"T)+	c #0F0102",
"U)+	c #140404",
"V)+	c #190705",
"W)+	c #1D0805",
"X)+	c #240A06",
"Y)+	c #2D0D08",
"Z)+	c #37100B",
"`)+	c #42130E",
" !+	c #4E1812",
".!+	c #5C201A",
"+!+	c #6B2822",
"@!+	c #762D27",
"#!+	c #772A23",
"$!+	c #7A2B1E",
"%!+	c #883623",
"&!+	c #A14C37",
"*!+	c #B85D48",
"=!+	c #C46051",
"-!+	c #BD574C",
";!+	c #AC4C43",
">!+	c #AB5850",
",!+	c #A05951",
"'!+	c #7A423A",
")!+	c #9C8581",
"!!+	c #B29994",
"~!+	c #C8AEA5",
"{!+	c #C4A89E",
"]!+	c #A8887F",
"^!+	c #7E5D55",
"/!+	c #532A24",
"(!+	c #4A1A13",
"_!+	c #652C23",
":!+	c #91554B",
"<!+	c #C08277",
"[!+	c #D29689",
"}!+	c #D29B8E",
"|!+	c #C7988F",
"1!+	c #A6807B",
"2!+	c #664D4C",
"3!+	c #36272B",
"4!+	c #1B161D",
"5!+	c #121922",
"6!+	c #1B252B",
"7!+	c #253235",
"8!+	c #2A3B3E",
"9!+	c #1E3135",
"0!+	c #0C2327",
"a!+	c #041A1E",
"b!+	c #06181C",
"c!+	c #09171C",
"d!+	c #071317",
"e!+	c #030C11",
"f!+	c #14161B",
"g!+	c #19181E",
"h!+	c #1D1C21",
"i!+	c #27272A",
"j!+	c #333537",
"k!+	c #414445",
"l!+	c #393D3E",
"m!+	c #1A1F1F",
"n!+	c #81675F",
"o!+	c #8A6F67",
"p!+	c #59433E",
"q!+	c #160000",
"r!+	c #100405",
"s!+	c #090408",
"t!+	c #07050A",
"u!+	c #08040A",
"v!+	c #080309",
"w!+	c #080308",
"x!+	c #070208",
"y!+	c #070107",
"z!+	c #060106",
"A!+	c #050004",
"B!+	c #060101",
"C!+	c #100604",
"D!+	c #140603",
"E!+	c #1D0905",
"F!+	c #260C07",
"G!+	c #2E0D08",
"H!+	c #350D08",
"I!+	c #3E0E09",
"J!+	c #4B130F",
"K!+	c #591A16",
"L!+	c #67211C",
"M!+	c #7B2B1E",
"N!+	c #8C3925",
"O!+	c #AE563F",
"P!+	c #C96A53",
"Q!+	c #D16959",
"R!+	c #C95F53",
"S!+	c #B75148",
"T!+	c #AA4F46",
"U!+	c #9A4E46",
"V!+	c #874A41",
"W!+	c #734038",
"X!+	c #A08883",
"Y!+	c #C6ABA5",
"Z!+	c #DABEB6",
"`!+	c #D2B4AA",
" ~+	c #B7978D",
".~+	c #89685D",
"+~+	c #603C33",
"@~+	c #411209",
"#~+	c #430D05",
"$~+	c #5F2218",
"%~+	c #894A3F",
"&~+	c #B67568",
"*~+	c #C48375",
"=~+	c #C28679",
"-~+	c #C28D84",
";~+	c #AD817B",
">~+	c #785957",
",~+	c #4C3738",
"'~+	c #291D21",
")~+	c #151A20",
"!~+	c #1E2529",
"~~+	c #2A3436",
"{~+	c #303D3E",
"]~+	c #202F31",
"^~+	c #071B1E",
"/~+	c #021315",
"(~+	c #0A181A",
"_~+	c #0E1A1D",
":~+	c #02080D",
"<~+	c #020409",
"[~+	c #0F1014",
"}~+	c #0F0D12",
"|~+	c #151417",
"1~+	c #39383B",
"2~+	c #424244",
"3~+	c #3B3D3F",
"4~+	c #2F3132",
"5~+	c #886D66",
"6~+	c #8F746C",
"7~+	c #5C4641",
"8~+	c #110407",
"9~+	c #07050B",
"0~+	c #07040B",
"a~+	c #06040A",
"b~+	c #050309",
"c~+	c #040208",
"d~+	c #040107",
"e~+	c #030106",
"f~+	c #020106",
"g~+	c #020104",
"h~+	c #020203",
"i~+	c #070605",
"j~+	c #0D0502",
"k~+	c #150703",
"l~+	c #1D0904",
"m~+	c #250903",
"n~+	c #2C0803",
"o~+	c #360803",
"p~+	c #420D08",
"q~+	c #501410",
"r~+	c #5F1B17",
"s~+	c #6D231C",
"t~+	c #7D2D20",
"u~+	c #923D28",
"v~+	c #BA5F47",
"w~+	c #D9765E",
"x~+	c #E07462",
"y~+	c #D86A5D",
"z~+	c #C65A51",
"A~+	c #B04F47",
"B~+	c #9D4C44",
"C~+	c #905047",
"D~+	c #79453C",
"E~+	c #AA9791",
"F~+	c #C7B2AB",
"G~+	c #DEC3BC",
"H~+	c #E7C7BF",
"I~+	c #CBA99E",
"J~+	c #A07E71",
"K~+	c #6D493D",
"L~+	c #4D2316",
"M~+	c #3E0D03",
"N~+	c #410A03",
"O~+	c #5E2014",
"P~+	c #874639",
"Q~+	c #B36E60",
"R~+	c #BB7566",
"S~+	c #B06E61",
"T~+	c #AF766C",
"U~+	c #A2726C",
"V~+	c #85605D",
"W~+	c #694E4E",
"X~+	c #4E3B3D",
"Y~+	c #33262A",
"Z~+	c #1B1419",
"`~+	c #202325",
" {+	c #303637",
".{+	c #374040",
"+{+	c #242E2E",
"@{+	c #041415",
"#{+	c #020F10",
"${+	c #091416",
"%{+	c #0D1719",
"&{+	c #06070B",
"*{+	c #211E21",
"={+	c #363336",
"-{+	c #4A494B",
";{+	c #4F4F50",
">{+	c #38393A",
",{+	c #232425",
"'{+	c #8E746C",
"){+	c #947871",
"!{+	c #614A45",
"~{+	c #1F0403",
"{{+	c #15070A",
"]{+	c #0D060C",
"^{+	c #0A060D",
"/{+	c #09060C",
"({+	c #030308",
"_{+	c #030407",
":{+	c #030506",
"<{+	c #090A08",
"[{+	c #0B0B08",
"}{+	c #090602",
"|{+	c #170601",
"1{+	c #1E0600",
"2{+	c #280700",
"3{+	c #340902",
"4{+	c #410F08",
"5{+	c #4F1510",
"6{+	c #5E1C18",
"7{+	c #6F261E",
"8{+	c #813123",
"9{+	c #98412B",
"0{+	c #C2654D",
"a{+	c #E47E66",
"b{+	c #ED806D",
"c{+	c #E67568",
"d{+	c #D16359",
"e{+	c #B9554D",
"f{+	c #A45048",
"g{+	c #955249",
"h{+	c #78443B",
"i{+	c #B09994",
"j{+	c #CDB8B1",
"k{+	c #EDD9D1",
"l{+	c #F0D5CC",
"m{+	c #DCB7AD",
"n{+	c #B48E81",
"o{+	c #876252",
"p{+	c #60392A",
"q{+	c #4B1E0D",
"r{+	c #421003",
"s{+	c #420A03",
"t{+	c #5F2114",
"u{+	c #894538",
"v{+	c #B46B5D",
"w{+	c #B76D5F",
"x{+	c #A35D4F",
"y{+	c #925348",
"z{+	c #8A554E",
"A{+	c #895E5B",
"B{+	c #815F5F",
"C{+	c #6F5557",
"D{+	c #4E3B3E",
"E{+	c #2D2123",
"F{+	c #161112",
"G{+	c #222120",
"H{+	c #343635",
"I{+	c #3D4140",
"J{+	c #061112",
"K{+	c #040F0F",
"L{+	c #050B0C",
"M{+	c #0E0C0F",
"N{+	c #151114",
"O{+	c #1D191B",
"P{+	c #2F2B2D",
"Q{+	c #444043",
"R{+	c #555254",
"S{+	c #565556",
"T{+	c #373737",
"U{+	c #161818",
"V{+	c #927870",
"W{+	c #977C74",
"X{+	c #664E49",
"Y{+	c #1A0C0E",
"Z{+	c #110A0F",
"`{+	c #0F0A10",
" ]+	c #0D080E",
".]+	c #0B080D",
"+]+	c #07080A",
"@]+	c #0E0F0A",
"#]+	c #0A0702",
"$]+	c #140500",
"%]+	c #1C0500",
"&]+	c #280801",
"*]+	c #360C04",
"=]+	c #45140B",
"-]+	c #531A13",
";]+	c #61211A",
">]+	c #732A21",
",]+	c #863627",
"']+	c #9D452F",
")]+	c #C66850",
"!]+	c #E8816A",
"~]+	c #F78877",
"{]+	c #EF7E71",
"]]+	c #D6685D",
"^]+	c #C15C53",
"/]+	c #AB564D",
"(]+	c #934F46",
"_]+	c #723F36",
":]+	c #47271E",
"<]+	c #CCB3AB",
"[]+	c #E8CDC4",
"}]+	c #F8DAD0",
"|]+	c #EFCCC1",
"1]+	c #D4A99C",
"2]+	c #AB8171",
"3]+	c #835946",
"4]+	c #653A27",
"5]+	c #4F210E",
"6]+	c #420F01",
"7]+	c #450C02",
"8]+	c #622314",
"9]+	c #874132",
"0]+	c #AB6152",
"a]+	c #AF6354",
"b]+	c #9D5445",
"c]+	c #854033",
"d]+	c #733931",
"e]+	c #704542",
"f]+	c #73504F",
"g]+	c #725353",
"h]+	c #634A4C",
"i]+	c #4B393A",
"j]+	c #2F2323",
"k]+	c #261E1C",
"l]+	c #2D2B29",
"m]+	c #353533",
"n]+	c #0C1111",
"o]+	c #020606",
"p]+	c #040806",
"q]+	c #0D0B0D",
"r]+	c #151013",
"s]+	c #241F20",
"t]+	c #352F31",
"u]+	c #433D40",
"v]+	c #474345",
"w]+	c #424041",
"x]+	c #91776F",
"y]+	c #977B74",
"z]+	c #1D0E0E",
"A]+	c #10090E",
"B]+	c #0F080C",
"C]+	c #0D070B",
"D]+	c #0A060A",
"E]+	c #090609",
"F]+	c #070608",
"G]+	c #070806",
"H]+	c #0D0D06",
"I]+	c #0C0801",
"J]+	c #160700",
"K]+	c #1F0700",
"L]+	c #2A0A01",
"M]+	c #380E04",
"N]+	c #47150B",
"O]+	c #561D14",
"P]+	c #65241C",
"Q]+	c #742B21",
"R]+	c #883727",
"S]+	c #A14932",
"T]+	c #C6684F",
"U]+	c #E57E67",
"V]+	c #F28572",
"W]+	c #EB7C6E",
"X]+	c #D4675D",
"Y]+	c #C05D54",
"Z]+	c #AA564D",
"`]+	c #8E4C44",
" ^+	c #6B3B32",
".^+	c #44261B",
"+^+	c #A28E87",
"@^+	c #DCC1B8",
"#^+	c #FAD9CE",
"$^+	c #F9D0C5",
"%^+	c #EABCAF",
"&^+	c #CF9F8F",
"*^+	c #AA7B69",
"=^+	c #875944",
"-^+	c #6D3F29",
";^+	c #542511",
">^+	c #440E00",
",^+	c #490F02",
"'^+	c #652414",
")^+	c #853E2C",
"!^+	c #A25745",
"~^+	c #A95C4A",
"{^+	c #9F5242",
"]^+	c #863D30",
"^^+	c #67261B",
"/^+	c #4F1B16",
"(^+	c #58312F",
"_^+	c #664342",
":^+	c #674B4C",
"<^+	c #594243",
"[^+	c #42302F",
"}^+	c #2C201C",
"|^+	c #2C2320",
"1^+	c #282222",
"2^+	c #1F1D1D",
"3^+	c #080A09",
"4^+	c #050806",
"5^+	c #050704",
"6^+	c #0F0C0D",
"7^+	c #100C0D",
"8^+	c #100B0C",
"9^+	c #161111",
"0^+	c #352E2F",
"a^+	c #3A3436",
"b^+	c #302B2C",
"c^+	c #1E1A1B",
"d^+	c #0D0B0B",
"e^+	c #957971",
"f^+	c #684F49",
"g^+	c #341A15",
"h^+	c #200E0D",
"i^+	c #15090B",
"j^+	c #13090B",
"k^+	c #100709",
"l^+	c #0E0608",
"m^+	c #0C0506",
"n^+	c #080404",
"o^+	c #070404",
"p^+	c #060403",
"q^+	c #060502",
"r^+	c #070701",
"s^+	c #0C0A03",
"t^+	c #100C03",
"u^+	c #120B02",
"v^+	c #1A0900",
"w^+	c #2C0B00",
"x^+	c #390E03",
"y^+	c #481508",
"z^+	c #581E13",
"A^+	c #68261C",
"B^+	c #752C20",
"C^+	c #883827",
"D^+	c #A24A32",
"E^+	c #BF6248",
"F^+	c #D7735B",
"G^+	c #E37966",
"H^+	c #E17668",
"I^+	c #D36C62",
"J^+	c #C1655C",
"K^+	c #A85A51",
"L^+	c #864840",
"M^+	c #63352D",
"N^+	c #3E2117",
"O^+	c #B9A29A",
"P^+	c #E3C6BC",
"Q^+	c #FDD8CC",
"R^+	c #F9CBBE",
"S^+	c #EAB5A6",
"T^+	c #D09A87",
"U^+	c #AB7763",
"V^+	c #89573F",
"W^+	c #703E26",
"X^+	c #58260F",
"Y^+	c #491100",
"Z^+	c #4E1201",
"`^+	c #672612",
" /+	c #863E2A",
"./+	c #A25642",
"+/+	c #AB5C48",
"@/+	c #A45442",
"#/+	c #8D4132",
"$/+	c #6E291D",
"%/+	c #4D130A",
"&/+	c #481B17",
"*/+	c #502A28",
"=/+	c #553534",
"-/+	c #533735",
";/+	c #4C3531",
">/+	c #442F2B",
",/+	c #3A2823",
"'/+	c #2E1F1B",
")/+	c #231716",
"!/+	c #181010",
"~/+	c #0B0907",
"{/+	c #0A0A06",
"]/+	c #080904",
"^/+	c #0A0905",
"//+	c #100B09",
"(/+	c #140E0C",
"_/+	c #1C1513",
":/+	c #282020",
"</+	c #302728",
"[/+	c #322A2B",
"}/+	c #2A2424",
"|/+	c #0C0A09",
"1/+	c #8B7069",
"2/+	c #91756D",
"3/+	c #654B45",
"4/+	c #321611",
"5/+	c #170A0A",
"6/+	c #140808",
"7/+	c #110606",
"8/+	c #0C0302",
"9/+	c #0A0201",
"0/+	c #070201",
"a/+	c #090501",
"b/+	c #130E05",
"c/+	c #191208",
"d/+	c #1A1105",
"e/+	c #1B0E02",
"f/+	c #1E0B00",
"g/+	c #230A00",
"h/+	c #2C0A00",
"i/+	c #390D01",
"j/+	c #481406",
"k/+	c #581D10",
"l/+	c #68271A",
"m/+	c #762E1F",
"n/+	c #873826",
"o/+	c #9D4730",
"p/+	c #AF533B",
"q/+	c #BF5F48",
"r/+	c #CE6957",
"s/+	c #D87466",
"t/+	c #D97A70",
"u/+	c #CA766D",
"v/+	c #AB645C",
"w/+	c #7B423A",
"x/+	c #562820",
"y/+	c #A28D87",
"z/+	c #CDB2AA",
"A/+	c #EBCABF",
"B/+	c #FDD4C7",
"C/+	c #F9C6B7",
"D/+	c #E8AF9E",
"E/+	c #CE927E",
"F/+	c #AC725C",
"G/+	c #8D553B",
"H/+	c #763F24",
"I/+	c #5F280F",
"J/+	c #501600",
"K/+	c #531501",
"L/+	c #692510",
"M/+	c #853C27",
"N/+	c #A0533D",
"O/+	c #AA5944",
"P/+	c #A55340",
"Q/+	c #914232",
"R/+	c #762D20",
"S/+	c #57180F",
"T/+	c #450E07",
"U/+	c #3F130E",
"V/+	c #401D1A",
"W/+	c #452824",
"X/+	c #492E29",
"Y/+	c #462D28",
"Z/+	c #3D2620",
"`/+	c #2D1914",
" (+	c #1F0D0B",
".(+	c #100C07",
"+(+	c #0C0A04",
"@(+	c #110A07",
"#(+	c #19110F",
"$(+	c #221917",
"%(+	c #281E1E",
"&(+	c #2A2021",
"*(+	c #292020",
"=(+	c #251F1E",
"-(+	c #1F1B19",
";(+	c #0F0C0B",
">(+	c #896F68",
",(+	c #90746C",
"'(+	c #634A44",
")(+	c #2E110C",
"!(+	c #210C09",
"~(+	c #1A0908",
"{(+	c #180909",
"](+	c #110303",
"^(+	c #0D0200",
"/(+	c #0D0500",
"((+	c #1C1207",
"_(+	c #1F1205",
":(+	c #281203",
"<(+	c #2E1204",
"[(+	c #371305",
"}(+	c #411406",
"|(+	c #4D1809",
"1(+	c #591E0F",
"2(+	c #672516",
"3(+	c #722A1A",
"4(+	c #7F311F",
"5(+	c #903C27",
"6(+	c #A44B35",
"7(+	c #B85C49",
"8(+	c #CC6F5F",
"9(+	c #D57A6D",
"0(+	c #D27D72",
"a(+	c #BB7067",
"b(+	c #995B52",
"c(+	c #6A3730",
"d(+	c #451A12",
"e(+	c #AA938D",
"f(+	c #D9BBB3",
"g(+	c #F0CBC0",
"h(+	c #FCCEC1",
"i(+	c #F8C0B1",
"j(+	c #E6A896",
"k(+	c #CA8973",
"l(+	c #AE6E55",
"m(+	c #95553A",
"n(+	c #7F4126",
"o(+	c #692D12",
"p(+	c #5A1C03",
"q(+	c #5A1A02",
"r(+	c #6C260F",
"s(+	c #843923",
"t(+	c #9C4D37",
"u(+	c #A6543E",
"v(+	c #A34F3B",
"w(+	c #92412F",
"x(+	c #7C3122",
"y(+	c #662318",
"z(+	c #50160D",
"A(+	c #3D0B04",
"B(+	c #36150F",
"C(+	c #3C1F17",
"D(+	c #3E221A",
"E(+	c #371D16",
"F(+	c #29110B",
"G(+	c #200806",
"H(+	c #1C0807",
"I(+	c #1E0D0D",
"J(+	c #1A0E0B",
"K(+	c #140D07",
"L(+	c #0F0C05",
"M(+	c #0C0702",
"N(+	c #120806",
"O(+	c #1D1310",
"P(+	c #261B19",
"Q(+	c #271C1B",
"R(+	c #251A19",
"S(+	c #201716",
"T(+	c #201917",
"U(+	c #1E1917",
"V(+	c #0F0C0A",
"W(+	c #8A7069",
"X(+	c #93776F",
"Y(+	c #644B45",
"Z(+	c #2C0D08",
"`(+	c #1F0906",
" _+	c #180605",
"._+	c #170606",
"+_+	c #160505",
"@_+	c #150404",
"#_+	c #130303",
"$_+	c #120301",
"%_+	c #120501",
"&_+	c #160A02",
"*_+	c #1B0D03",
"=_+	c #211103",
"-_+	c #281405",
";_+	c #301707",
">_+	c #391A09",
",_+	c #421C0B",
"'_+	c #4B1D0C",
")_+	c #531E0E",
"!_+	c #5B2110",
"~_+	c #642313",
"{_+	c #6B2513",
"]_+	c #752815",
"^_+	c #84321F",
"/_+	c #A14D3B",
"(_+	c #BE6756",
"__+	c #D17C6D",
":_+	c #D07F72",
"<_+	c #BC7368",
"[_+	c #9B5B52",
"}_+	c #764139",
"|_+	c #A68D87",
"1_+	c #D6B6AE",
"2_+	c #EBC3B8",
"3_+	c #F7C6B7",
"4_+	c #F8BCAA",
"5_+	c #E5A38F",
"6_+	c #C78169",
"7_+	c #B36B51",
"8_+	c #A0593D",
"9_+	c #8C462A",
"0_+	c #773419",
"a_+	c #68250B",
"b_+	c #662007",
"c_+	c #722810",
"d_+	c #863820",
"e_+	c #9A4930",
"f_+	c #A34E37",
"g_+	c #A14B36",
"h_+	c #923F2C",
"i_+	c #833525",
"j_+	c #753024",
"k_+	c #61241A",
"l_+	c #4A160B",
"m_+	c #370A02",
"n_+	c #2E0A02",
"o_+	c #2F0F07",
"p_+	c #2D1008",
"q_+	c #270B04",
"r_+	c #240906",
"s_+	c #240B0B",
"t_+	c #230F0E",
"u_+	c #1D0F0B",
"v_+	c #150D06",
"w_+	c #110C04",
"x_+	c #0E0802",
"y_+	c #0F0601",
"z_+	c #140905",
"A_+	c #1D110E",
"B_+	c #251916",
"C_+	c #261918",
"D_+	c #221715",
"E_+	c #1C1210",
"F_+	c #1A1311",
"G_+	c #191411",
"H_+	c #0E0A08",
"I_+	c #8D736C",
"J_+	c #987C74",
"K_+	c #694F4A",
"L_+	c #1D0604",
"M_+	c #150201",
"N_+	c #150302",
"O_+	c #150101",
"P_+	c #150203",
"Q_+	c #170503",
"R_+	c #180703",
"S_+	c #190904",
"T_+	c #1A0A03",
"U_+	c #190902",
"V_+	c #1C0A01",
"W_+	c #220E02",
"X_+	c #2B1305",
"Y_+	c #341809",
"Z_+	c #3E1D0C",
"`_+	c #47200E",
" :+	c #4F2110",
".:+	c #552211",
"+:+	c #5C2312",
"@:+	c #632413",
"#:+	c #692412",
"$:+	c #742A18",
"%:+	c #883928",
"&:+	c #A85849",
"*:+	c #C27262",
"=:+	c #C97D6F",
"-:+	c #B87367",
";:+	c #95584D",
">:+	c #734037",
",:+	c #542921",
"':+	c #A1867F",
"):+	c #D1AEA5",
"!:+	c #E4BAAE",
"~:+	c #F1BDAD",
"{:+	c #F5B5A2",
"]:+	c #E49D88",
"^:+	c #C97C63",
"/:+	c #BB6B50",
"(:+	c #AD5D41",
"_:+	c #9B4C30",
"::+	c #893C21",
"<:+	c #7A2F16",
"[:+	c #772B13",
"}:+	c #803119",
"|:+	c #8F3D25",
"1:+	c #A14C32",
"2:+	c #A85138",
"3:+	c #A74E38",
"4:+	c #9A4430",
"5:+	c #8C3C2B",
"6:+	c #7F382A",
"7:+	c #6E3024",
"8:+	c #5B261A",
"9:+	c #471D0F",
"0:+	c #371306",
"a:+	c #2D0C02",
"b:+	c #290900",
"c:+	c #270800",
"d:+	c #250800",
"e:+	c #240A08",
"f:+	c #220C0A",
"g:+	c #1B0C07",
"h:+	c #110B02",
"i:+	c #110A01",
"j:+	c #120902",
"k:+	c #150A05",
"l:+	c #1B0F0B",
"m:+	c #221411",
"n:+	c #241714",
"o:+	c #221614",
"p:+	c #1D1210",
"q:+	c #170F0D",
"r:+	c #120C0A",
"s:+	c #8B726A",
"t:+	c #967A73",
"u:+	c #6C524C",
"v:+	c #3A1F1A",
"w:+	c #200B07",
"x:+	c #140201",
"y:+	c #170203",
"z:+	c #180304",
"A:+	c #190404",
"B:+	c #1A0604",
"C:+	c #1B0804",
"D:+	c #1C0904",
"E:+	c #1D0A03",
"F:+	c #200B03",
"G:+	c #240E02",
"H:+	c #2A1104",
"I:+	c #321506",
"J:+	c #3A1908",
"K:+	c #4A1E0D",
"L:+	c #52210F",
"M:+	c #5B2412",
"N:+	c #642816",
"O:+	c #6C2A19",
"P:+	c #7C3627",
"Q:+	c #964A3D",
"R:+	c #A95C4F",
"S:+	c #B1685B",
"T:+	c #AA695C",
"U:+	c #935B50",
"V:+	c #6D3C31",
"W:+	c #4D2318",
"X:+	c #9C7F79",
"Y:+	c #CCA79E",
"Z:+	c #DFB1A4",
"`:+	c #EBB3A2",
" <+	c #EFAC97",
".<+	c #E29780",
"+<+	c #CE7B62",
"@<+	c #C56C51",
"#<+	c #BA5F44",
"$<+	c #AB5136",
"%<+	c #9A4329",
"&<+	c #8D3A21",
"*<+	c #8A3820",
"=<+	c #913E25",
"-<+	c #9F482F",
";<+	c #AE553B",
"><+	c #B55A41",
",<+	c #B25840",
"'<+	c #A64F3A",
")<+	c #964532",
"!<+	c #853C2D",
"~<+	c #773829",
"{<+	c #693424",
"]<+	c #572C1B",
"^<+	c #462210",
"/<+	c #371606",
"(<+	c #2E0E01",
"_<+	c #280900",
":<+	c #250700",
"<<+	c #220501",
"[<+	c #1F0401",
"}<+	c #1A0202",
"|<+	c #160601",
"1<+	c #130901",
"2<+	c #110A00",
"3<+	c #130B01",
"4<+	c #170B04",
"5<+	c #190C06",
"6<+	c #1D0F0A",
"7<+	c #221511",
"8<+	c #170E0C",
"9<+	c #846A62",
"0<+	c #8D7169",
"a<+	c #6D524B",
"b<+	c #472D27",
"c<+	c #26130F",
"d<+	c #180607",
"e<+	c #180405",
"f<+	c #170204",
"g<+	c #170104",
"h<+	c #180302",
"i<+	c #180402",
"j<+	c #200A05",
"k<+	c #250E07",
"l<+	c #260E04",
"m<+	c #280D02",
"n<+	c #2F0E01",
"o<+	c #361002",
"p<+	c #3F1404",
"q<+	c #4B1B0A",
"r<+	c #582312",
"s<+	c #652C19",
"t<+	c #6F3120",
"u<+	c #844033",
"v<+	c #A0564B",
"w<+	c #9E554B",
"x<+	c #8B483D",
"y<+	c #713A2F",
"z<+	c #592D23",
"A<+	c #441E14",
"B<+	c #9A7D75",
"C<+	c #CBA59A",
"D<+	c #DBAC9E",
"E<+	c #E4A998",
"F<+	c #E7A08B",
"G<+	c #E09078",
"H<+	c #D57D63",
"I<+	c #CE6D53",
"J<+	c #C35F45",
"K<+	c #B65338",
"L<+	c #A8492F",
"M<+	c #9E432B",
"N<+	c #9D442D",
"O<+	c #A44B33",
"P<+	c #B0553C",
"Q<+	c #BC6047",
"R<+	c #C1644B",
"S<+	c #BE624A",
"T<+	c #B35A43",
"U<+	c #A04F3A",
"V<+	c #89412E",
"W<+	c #7A3B29",
"X<+	c #6D3826",
"Y<+	c #5E321F",
"Z<+	c #4E2916",
"`<+	c #3F1F0C",
" [+	c #321403",
".[+	c #270A00",
"+[+	c #200400",
"@[+	c #1C0200",
"#[+	c #180000",
"$[+	c #110600",
"%[+	c #140A01",
"&[+	c #170B03",
"*[+	c #180B03",
"=[+	c #180A04",
"-[+	c #22140F",
";[+	c #241712",
">[+	c #1F1410",
",[+	c #190E0C",
"'[+	c #795D55",
")[+	c #674B44",
"![+	c #4F3530",
"~[+	c #2D1A17",
"{[+	c #1F100F",
"][+	c #1E1010",
"^[+	c #1C0C0E",
"/[+	c #1B080B",
"([+	c #190408",
"_[+	c #170105",
":[+	c #160003",
"<[+	c #150001",
"[[+	c #140101",
"}[+	c #230905",
"|[+	c #240903",
"1[+	c #250901",
"2[+	c #2B0900",
"3[+	c #310B00",
"4[+	c #391001",
"5[+	c #451706",
"6[+	c #521F0F",
"7[+	c #5F2817",
"8[+	c #6A2E1E",
"9[+	c #78372B",
"0[+	c #89433A",
"a[+	c #803D35",
"b[+	c #652922",
"c[+	c #46160D",
"d[+	c #2E0600",
"e[+	c #95776F",
"f[+	c #C49E93",
"g[+	c #D5A496",
"h[+	c #DEA18F",
"i[+	c #DE957E",
"j[+	c #DD896F",
"k[+	c #DB7D62",
"l[+	c #D56D53",
"m[+	c #CC5E45",
"n[+	c #C05339",
"o[+	c #B24B32",
"p[+	c #AA4830",
"q[+	c #A94B33",
"r[+	c #B1523A",
"s[+	c #BB5B42",
"t[+	c #C4654B",
"u[+	c #C6674D",
"v[+	c #C2644A",
"w[+	c #B55B43",
"x[+	c #A14F39",
"y[+	c #88402B",
"z[+	c #773925",
"A[+	c #693521",
"B[+	c #5A2F1B",
"C[+	c #4C2814",
"D[+	c #3E200B",
"E[+	c #311503",
"F[+	c #250900",
"G[+	c #150200",
"H[+	c #100300",
"I[+	c #160902",
"J[+	c #170A02",
"K[+	c #190B03",
"L[+	c #1D0E07",
"M[+	c #21130E",
"N[+	c #221510",
"O[+	c #1D120D",
"P[+	c #62453D",
"Q[+	c #5F423C",
"R[+	c #4E3530",
"S[+	c #2E1C1A",
"T[+	c #221414",
"U[+	c #201314",
"V[+	c #1E0E11",
"W[+	c #1C0A0E",
"X[+	c #1A050A",
"Y[+	c #170107",
"Z[+	c #150004",
"`[+	c #140002",
" }+	c #130001",
".}+	c #120000",
"+}+	c #1D0403",
"@}+	c #200502",
"#}+	c #240701",
"$}+	c #280902",
"%}+	c #2C0B02",
"&}+	c #310E02",
"*}+	c #381102",
"=}+	c #401505",
"-}+	c #4A1A0A",
";}+	c #532010",
">}+	c #5D2416",
",}+	c #63261B",
"'}+	c #65251D",
")}+	c #5A1D16",
"!}+	c #2F0703",
"~}+	c #1E0502",
"{}+	c #8A6B63",
"]}+	c #B68E84",
"^}+	c #CC9A8C",
"/}+	c #D89A88",
"(}+	c #D68B74",
"_}+	c #D88067",
":}+	c #DC795F",
"<}+	c #DA6B52",
"[}+	c #D25D45",
"}}+	c #C6523A",
"|}+	c #B94A33",
"1}+	c #B04732",
"2}+	c #AF4B34",
"3}+	c #B4523A",
"4}+	c #BB5940",
"5}+	c #C16045",
"6}+	c #C05F44",
"7}+	c #B8583E",
"8}+	c #A84E35",
"9}+	c #95432C",
"0}+	c #803823",
"a}+	c #6F311C",
"b}+	c #5E2A16",
"c}+	c #4C230E",
"d}+	c #3E1C07",
"e}+	c #321603",
"f}+	c #290E01",
"g}+	c #200600",
"h}+	c #1B0301",
"i}+	c #0F0100",
"j}+	c #100400",
"k}+	c #120500",
"l}+	c #150800",
"m}+	c #1C0D05",
"n}+	c #23120C",
"o}+	c #23130E",
"p}+	c #20120D",
"q}+	c #190C08",
"r}+	c #271616",
"s}+	c #1F1214",
"t}+	c #1D1014",
"u}+	c #1C0D11",
"v}+	c #1A090E",
"w}+	c #19050B",
"x}+	c #170109",
"y}+	c #170007",
"z}+	c #160005",
"A}+	c #160002",
"B}+	c #160001",
"C}+	c #180101",
"D}+	c #230603",
"E}+	c #2A0C05",
"F}+	c #301008",
"G}+	c #351207",
"H}+	c #391306",
"I}+	c #3C1304",
"J}+	c #3F1303",
"K}+	c #431404",
"L}+	c #491506",
"M}+	c #4A1307",
"N}+	c #450E08",
"O}+	c #410A06",
"P}+	c #3C0A04",
"Q}+	c #300F07",
"R}+	c #271208",
"S}+	c #A27D74",
"T}+	c #C09183",
"U}+	c #D19784",
"V}+	c #CD866F",
"W}+	c #D17A60",
"X}+	c #D7745A",
"Y}+	c #DA6A51",
"Z}+	c #D45E46",
"`}+	c #C8513A",
" |+	c #B94832",
".|+	c #AF4530",
"+|+	c #AE4831",
"@|+	c #B04D35",
"#|+	c #B35139",
"$|+	c #B5553B",
"%|+	c #B05137",
"&|+	c #A4482F",
"*|+	c #923B24",
"=|+	c #7F311C",
"-|+	c #6F2B17",
";|+	c #5F2512",
">|+	c #4F1F0B",
",|+	c #3E1804",
"'|+	c #270D00",
")|+	c #1D0700",
"!|+	c #1A0500",
"~|+	c #180300",
"{|+	c #170200",
"]|+	c #160200",
"^|+	c #120100",
"/|+	c #0E0100",
"(|+	c #0F0200",
"_|+	c #150600",
":|+	c #2A1913",
"<|+	c #251510",
"[|+	c #1E0F0B",
"}|+	c #1C1013",
"||+	c #180A0F",
"1|+	c #17070D",
"2|+	c #16050C",
"3|+	c #17030B",
"4|+	c #18040B",
"5|+	c #1A050B",
"6|+	c #1B050B",
"7|+	c #1C060B",
"8|+	c #1D060A",
"9|+	c #1A0305",
"0|+	c #190102",
"a|+	c #1E0303",
"b|+	c #230805",
"c|+	c #280D07",
"d|+	c #301006",
"e|+	c #321004",
"f|+	c #330F02",
"g|+	c #340D00",
"h|+	c #360B00",
"i|+	c #3A0900",
"j|+	c #3D0600",
"k|+	c #3D0301",
"l|+	c #3E0402",
"m|+	c #3C0904",
"n|+	c #281409",
"o|+	c #896A62",
"p|+	c #AE8779",
"q|+	c #C3917F",
"r|+	c #C2826B",
"s|+	c #C3755A",
"t|+	c #C96D51",
"u|+	c #D1684D",
"v|+	c #D05F46",
"w|+	c #C5523C",
"x|+	c #B64832",
"y|+	c #A9422C",
"z|+	c #A4412B",
"A|+	c #A3432C",
"B|+	c #A2462E",
"C|+	c #A0452D",
"D|+	c #963F27",
"E|+	c #87331D",
"F|+	c #742611",
"G|+	c #631C09",
"H|+	c #571A08",
"I|+	c #4B1706",
"J|+	c #310E01",
"K|+	c #250A00",
"L|+	c #1B0600",
"M|+	c #1A0700",
"N|+	c #1A0701",
"O|+	c #100101",
"P|+	c #0F0001",
"Q|+	c #110201",
"R|+	c #140303",
"S|+	c #1A0905",
"T|+	c #25140F",
"U|+	c #2D1B18",
"V|+	c #261512",
"W|+	c #1B0C09",
"X|+	c #13040C",
"Y|+	c #16050D",
"Z|+	c #19070E",
"`|+	c #1C080F",
" 1+	c #1E0A10",
".1+	c #200B11",
"+1+	c #210B10",
"@1+	c #1E070B",
"#1+	c #1D0406",
"$1+	c #1F0505",
"%1+	c #210805",
"&1+	c #230A06",
"*1+	c #240C05",
"=1+	c #240C03",
"-1+	c #250B01",
";1+	c #260900",
">1+	c #290800",
",1+	c #2C0600",
"'1+	c #310400",
")1+	c #3B0501",
"!1+	c #470804",
"~1+	c #4A0A05",
"{1+	c #460E08",
"]1+	c #31170D",
"^1+	c #91776A",
"/1+	c #A68272",
"(1+	c #AE7B64",
"_1+	c #AE6C51",
":1+	c #AF5D40",
"<1+	c #BE5F43",
"[1+	c #C45E44",
"}1+	c #C05740",
"|1+	c #B14C36",
"11+	c #9F3F29",
"21+	c #913620",
"31+	c #8B341E",
"41+	c #88351E",
"51+	c #82331D",
"61+	c #762C16",
"71+	c #66200B",
"81+	c #551504",
"91+	c #470D02",
"01+	c #3E0B02",
"a1+	c #350A01",
"b1+	c #2D0901",
"c1+	c #240700",
"d1+	c #1D0500",
"e1+	c #150400",
"f1+	c #130401",
"g1+	c #130402",
"h1+	c #110404",
"i1+	c #100305",
"j1+	c #100102",
"k1+	c #180404",
"l1+	c #1F0A0C",
"m1+	c #261112",
"n1+	c #2A1516",
"o1+	c #291616",
"p1+	c #221010",
"q1+	c #1C0B0F",
"r1+	c #200C0F",
"s1+	c #210A0C",
"t1+	c #1A0302",
"u1+	c #190502",
"v1+	c #180602",
"w1+	c #180701",
"x1+	c #180800",
"y1+	c #1D0400",
"z1+	c #220200",
"A1+	c #2B0100",
"B1+	c #3B0401",
"C1+	c #4E0C05",
"D1+	c #551109",
"E1+	c #55170F",
"F1+	c #4C1F15",
"G1+	c #442117",
"H1+	c #76685C",
"I1+	c #8E7565",
"J1+	c #A47A63",
"K1+	c #A46C51",
"L1+	c #9E5638",
"M1+	c #AD573B",
"N1+	c #B85B41",
"O1+	c #B95A42",
"P1+	c #AE513A",
"Q1+	c #9B432D",
"R1+	c #88341E",
"S1+	c #7B2B15",
"T1+	c #732812",
"U1+	c #69230E",
"V1+	c #5B1B07",
"W1+	c #4C1101",
"X1+	c #3F0A00",
"Y1+	c #350600",
"Z1+	c #2C0400",
"`1+	c #260400",
" 2+	c #210400",
".2+	c #1C0300",
"+2+	c #140200",
"@2+	c #0D0202",
"#2+	c #0B0205",
"$2+	c #0B0206",
"%2+	c #0D0205",
"&2+	c #170102",
"*2+	c #1E0608",
"=2+	c #250E11",
"-2+	c #2C1618",
";2+	c #2C1719",
">2+	c #271316",
",2+	c #200C10",
"'2+	c #1C0E10",
")2+	c #311E1F",
"!2+	c #1E080A",
"~2+	c #100701",
"{2+	c #100501",
"]2+	c #1C0100",
"^2+	c #290201",
"/2+	c #3E0804",
"(2+	c #541109",
"_2+	c #5F180E",
":2+	c #601D13",
"<2+	c #572319",
"[2+	c #4E2419",
"}2+	c #806B5B",
"|2+	c #A67F68",
"12+	c #A57359",
"22+	c #995739",
"32+	c #A15135",
"42+	c #AB543C",
"52+	c #B15840",
"62+	c #AA543C",
"72+	c #9B4932",
"82+	c #873823",
"92+	c #762B16",
"02+	c #67220E",
"a2+	c #5A1A07",
"b2+	c #4C1302",
"c2+	c #400D00",
"d2+	c #390B00",
"e2+	c #310900",
"f2+	c #280500",
"g2+	c #230500",
"h2+	c #190400",
"i2+	c #0C0002",
"j2+	c #090002",
"k2+	c #080003",
"l2+	c #060004",
"m2+	c #070005",
"n2+	c #090003",
"o2+	c #0E0001",
"p2+	c #140001",
"q2+	c #22080C",
"r2+	c #291115",
"s2+	c #2E181B",
"t2+	c #2D181B",
"u2+	c #281317",
"v2+	c #423031",
"w2+	c #412E30",
"x2+	c #2A1819",
"y2+	c #170505",
"z2+	c #0E0501",
"A2+	c #0B0402",
"B2+	c #1C0301",
"C2+	c #2B0604",
"D2+	c #5B160E",
"E2+	c #681F13",
"F2+	c #6A2418",
"G2+	c #5F261B",
"H2+	c #532419",
"I2+	c #7C6453",
"J2+	c #AE876F",
"K2+	c #A97960",
"L2+	c #945437",
"M2+	c #94482D",
"N2+	c #9C4A33",
"O2+	c #A5513A",
"P2+	c #A25039",
"Q2+	c #974832",
"R2+	c #843925",
"S2+	c #722B18",
"T2+	c #62200E",
"U2+	c #531705",
"V2+	c #471101",
"W2+	c #3E0E00",
"X2+	c #380E02",
"Y2+	c #320D02",
"Z2+	c #230701",
"`2+	c #1F0701",
" 3+	c #1A0601",
".3+	c #110301",
"+3+	c #0A0003",
"@3+	c #070104",
"#3+	c #070004",
"$3+	c #0F0002",
"%3+	c #160103",
"&3+	c #1D0507",
"*3+	c #260D11",
"=3+	c #311B1E",
"-3+	c #2F191D",
";3+	c #271217",
">3+	c #4B383A",
",3+	c #4B3739",
"'3+	c #3F2C2E",
")3+	c #2B1B1C",
"!3+	c #100402",
"~3+	c #0C0400",
"{3+	c #0D0701",
"]3+	c #1D0503",
"^3+	c #2D0806",
"/3+	c #44100B",
"(3+	c #5E1B11",
"_3+	c #70281C",
":3+	c #762F22",
"<3+	c #662B20",
"[3+	c #57251B",
"}3+	c #816654",
"|3+	c #B89078",
"13+	c #AD7F66",
"23+	c #8C4F33",
"33+	c #863D23",
"43+	c #8C3E29",
"53+	c #944530",
"63+	c #934631",
"73+	c #8B422D",
"83+	c #7D3623",
"93+	c #6E2C1A",
"03+	c #602312",
"a3+	c #541D0C",
"b3+	c #491808",
"c3+	c #411505",
"d3+	c #3B1406",
"e3+	c #341206",
"f3+	c #2C0F04",
"g3+	c #270E05",
"h3+	c #230D05",
"i3+	c #1F0C05",
"j3+	c #1A0A05",
"k3+	c #160805",
"l3+	c #0F0406",
"m3+	c #0C0407",
"n3+	c #0C0307",
"o3+	c #120204",
"p3+	c #180205",
"q3+	c #281014",
"r3+	c #2F181B",
"s3+	c #321C1F",
"t3+	c #2F1A1D",
"u3+	c #261116",
"v3+	c #584546",
"w3+	c #645253",
"x3+	c #4D3E3F",
"y3+	c #180C0B",
"z3+	c #0A0400",
"A3+	c #0A0501",
"B3+	c #0C0402",
"C3+	c #130403",
"D3+	c #1F0604",
"E3+	c #2C0906",
"F3+	c #43110B",
"G3+	c #5F1E13",
"H3+	c #7A3427",
"I3+	c #853F32",
"J3+	c #703428",
"K3+	c #5B271E",
"L3+	c #8D6F5C",
"M3+	c #C29981",
"N3+	c #AF826B",
"O3+	c #81472D",
"P3+	c #763118",
"Q3+	c #79311D",
"R3+	c #7E3522",
"S3+	c #7E3724",
"T3+	c #793523",
"U3+	c #70301E",
"V3+	c #672B1A",
"W3+	c #5E2716",
"X3+	c #552414",
"Y3+	c #4C2011",
"Z3+	c #431C0D",
"`3+	c #3C190C",
" 4+	c #36160A",
".4+	c #31150A",
"+4+	c #28140C",
"@4+	c #24120B",
"#4+	c #1F100A",
"$4+	c #1B0D0A",
"%4+	c #170C09",
"&4+	c #150A0A",
"*4+	c #13090A",
"=4+	c #12080B",
"-4+	c #11080B",
";4+	c #120809",
">4+	c #150506",
",4+	c #190507",
"'4+	c #200A0C",
")4+	c #291315",
"!4+	c #2F191C",
"~4+	c #311C1E",
"{4+	c #2D191C",
"]4+	c #231014",
"^4+	c #695859",
"/4+	c #877475",
"(4+	c #6B5B5B",
"_4+	c #281D1B",
":4+	c #070100",
"<4+	c #100704",
"[4+	c #170A06",
"}4+	c #1F0705",
"|4+	c #290705",
"14+	c #401008",
"24+	c #854235",
"34+	c #975143",
"44+	c #7D3F33",
"54+	c #612B21",
"64+	c #491D16",
"74+	c #8F705D",
"84+	c #C59C84",
"94+	c #AE826C",
"04+	c #743E27",
"a4+	c #652409",
"b4+	c #652411",
"c4+	c #682715",
"d4+	c #682918",
"e4+	c #662919",
"f4+	c #612718",
"g4+	c #5B2515",
"h4+	c #542313",
"i4+	c #4D2111",
"j4+	c #461E0F",
"k4+	c #3E1B0D",
"l4+	c #37180B",
"m4+	c #2F170B",
"n4+	c #24140C",
"o4+	c #1F120B",
"p4+	c #180E0A",
"q4+	c #170D0A",
"r4+	c #150C0B",
"s4+	c #140B0B",
"t4+	c #140A0B",
"u4+	c #1A0608",
"v4+	c #281315",
"w4+	c #291618",
"x4+	c #200E11",
"y4+	c #8C7A7A",
"z4+	c #746463",
"A4+	c #423633",
"B4+	c #201614",
"C4+	c #070101",
"D4+	c #180B07",
"E4+	c #1D0704",
"F4+	c #260603",
"G4+	c #3E1006",
"H4+	c #612518",
"I4+	c #915144",
"J4+	c #A96556",
"K4+	c #8B4C40",
"L4+	c #693027",
"M4+	c #4D1D16",
"N4+	c #90715F",
"O4+	c #C1977F",
"P4+	c #A87D68",
"Q4+	c #673521",
"R4+	c #531500",
"S4+	c #511706",
"T4+	c #531A0A",
"U4+	c #551D0F",
"V4+	c #551F11",
"W4+	c #521F11",
"X4+	c #4B1C0E",
"Y4+	c #44190B",
"Z4+	c #391609",
"`4+	c #331508",
" 5+	c #2E1306",
".5+	c #2A1508",
"+5+	c #231409",
"@5+	c #201209",
"#5+	c #1C1008",
"$5+	c #190E08",
"%5+	c #150C07",
"&5+	c #150B08",
"*5+	c #140A08",
"=5+	c #1A0808",
"-5+	c #251113",
";5+	c #281416",
">5+	c #271416",
",5+	c #231113",
"'5+	c #817070",
")5+	c #776766",
"!5+	c #605350",
"~5+	c #110704",
"{5+	c #170805",
"]5+	c #1B0603",
"^5+	c #230401",
"/5+	c #3D1106",
"(5+	c #632A1D",
"_5+	c #995A4C",
":5+	c #B37060",
"<5+	c #955549",
"[5+	c #71342C",
"}5+	c #947665",
"|5+	c #B58B75",
"15+	c #9C725E",
"25+	c #5C2C1B",
"35+	c #440A00",
"45+	c #400D02",
"55+	c #431104",
"65+	c #48170A",
"75+	c #491A0D",
"85+	c #44180B",
"95+	c #300B03",
"05+	c #280802",
"a5+	c #250702",
"b5+	c #240902",
"c5+	c #210B02",
"d5+	c #200D01",
"e5+	c #200F02",
"f5+	c #1E0F03",
"g5+	c #1B0E03",
"h5+	c #180D02",
"i5+	c #150B02",
"j5+	c #140A02",
"k5+	c #110802",
"l5+	c #110803",
"m5+	c #120804",
"n5+	c #130804",
"o5+	c #160807",
"p5+	c #1E0C0C",
"q5+	c #200D0E",
"r5+	c #210E10",
"s5+	c #1E0D0F",
"t5+	c #1C0B0D",
"u5+	c #5E4F4F",
"v5+	c #7A6C69",
"w5+	c #7C6F6C",
"x5+	c #4A413E",
"y5+	c #0A0000",
"z5+	c #0E0401",
"A5+	c #190401",
"B5+	c #3C1308",
"C5+	c #622D1F",
"D5+	c #965A4B",
"E5+	c #B06E5E",
"F5+	c #98564A",
"G5+	c #76372F",
"H5+	c #571E19",
"I5+	c #998074",
"J5+	c #A68778",
"K5+	c #AA816C",
"L5+	c #8D624E",
"M5+	c #542615",
"N5+	c #3C0700",
"O5+	c #350800",
"P5+	c #370C01",
"Q5+	c #3B1206",
"R5+	c #3C1409",
"S5+	c #371207",
"T5+	c #2D0B03",
"U5+	c #210200",
"V5+	c #190000",
"W5+	c #180100",
"X5+	c #1A0400",
"Y5+	c #190900",
"Z5+	c #180A00",
"`5+	c #170A00",
" 6+	c #140A00",
".6+	c #110700",
"+6+	c #100601",
"@6+	c #110701",
"#6+	c #120702",
"$6+	c #130803",
"%6+	c #1A0B0A",
"&6+	c #1B0B0A",
"*6+	c #1A0A0A",
"=6+	c #1A0809",
"-6+	c #180708",
";6+	c #7C6F6D",
">6+	c #837673",
",6+	c #524745",
"'6+	c #180A05",
")6+	c #120703",
"!6+	c #110100",
"~6+	c #381206",
"{6+	c #5A281A",
"]6+	c #854C3D",
"^6+	c #9D5D4D",
"/6+	c #8E4C40",
"(6+	c #77352D",
"_6+	c #5F221C",
":6+	c #B19689",
"<6+	c #BB9B8C",
"[6+	c #A27966",
"}6+	c #7C503B",
"|6+	c #4F2210",
"16+	c #390C00",
"26+	c #300901",
"36+	c #2F0C03",
"46+	c #2D0F05",
"56+	c #260A03",
"66+	c #1E0402",
"76+	c #1B0503",
"86+	c #1B0803",
"96+	c #1C0B03",
"06+	c #190B02",
"a6+	c #170A01",
"b6+	c #130800",
"c6+	c #100700",
"d6+	c #0F0700",
"e6+	c #0F0600",
"f6+	c #140902",
"g6+	c #140A03",
"h6+	c #150A04",
"i6+	c #190C07",
"j6+	c #1A0C0A",
"k6+	c #150706",
"l6+	c #120303",
"m6+	c #7B6E6B",
"n6+	c #7D706D",
"o6+	c #534744",
"p6+	c #251814",
"q6+	c #150905",
"r6+	c #100200",
"s6+	c #120101",
"t6+	c #320F03",
"u6+	c #4C1E0F",
"v6+	c #693324",
"w6+	c #7C3F30",
"x6+	c #7D392D",
"y6+	c #743027",
"z6+	c #672620",
"A6+	c #561C17",
"B6+	c #C3A396",
"C6+	c #CDAB9B",
"D6+	c #9E7664",
"E6+	c #6E412B",
"F6+	c #4C200E",
"G6+	c #3B1205",
"H6+	c #2F0E05",
"I6+	c #260701",
"J6+	c #230601",
"K6+	c #240802",
"L6+	c #260D05",
"M6+	c #250E06",
"N6+	c #231009",
"O6+	c #26170F",
"P6+	c #24170E",
"Q6+	c #1F1309",
"R6+	c #180E04",
"S6+	c #120A00",
"T6+	c #110900",
"U6+	c #120901",
"V6+	c #180E05",
"W6+	c #190F07",
"X6+	c #1A0F09",
"Y6+	c #1A0F0A",
"Z6+	c #160A07",
"`6+	c #6C5F5C",
" 7+	c #4E413E",
".7+	c #2F221F",
"+7+	c #170A07",
"@7+	c #140301",
"#7+	c #2B0A01",
"$7+	c #3C1204",
"%7+	c #4C1B0D",
"&7+	c #5C2316",
"*7+	c #6B281D",
"=7+	c #6F2A24",
"-7+	c #5F221D",
";7+	c #4F1713",
">7+	c #82655A",
",7+	c #C9A698",
"'7+	c #D3AD9E",
")7+	c #97705F",
"!7+	c #62331D",
"~7+	c #491D0C",
"{7+	c #3A1509",
"]7+	c #2E1109",
"^7+	c #220904",
"/7+	c #1B0501",
"(7+	c #1A0401",
"_7+	c #1D0803",
":7+	c #1E0B05",
"<7+	c #200F08",
"[7+	c #23140B",
"}7+	c #22160D",
"|7+	c #1C1208",
"17+	c #160E04",
"27+	c #130D02",
"37+	c #120D01",
"47+	c #120C01",
"57+	c #130B02",
"67+	c #140B02",
"77+	c #150C02",
"87+	c #160C03",
"97+	c #170D04",
"07+	c #190F06",
"a7+	c #1A0F07",
"b7+	c #473936",
"c7+	c #352724",
"d7+	c #150402",
"e7+	c #1D0502",
"f7+	c #250601",
"g7+	c #310A00",
"h7+	c #380800",
"i7+	c #480E03",
"j7+	c #621D15",
"k7+	c #742A24",
"l7+	c #7A322D",
"m7+	c #6D2B26",
"n7+	c #5D211C",
"o7+	c #9E7D70",
"p7+	c #CBA495",
"q7+	c #D0A797",
"r7+	c #906758",
"s7+	c #582811",
"t7+	c #441B0B",
"u7+	c #37150B",
"v7+	c #2D130C",
"w7+	c #220E09",
"x7+	c #1A0704",
"y7+	c #130501",
"z7+	c #120A01",
"A7+	c #110B01",
"B7+	c #110D02",
"C7+	c #120D03",
"D7+	c #130D04",
"E7+	c #140C03",
"F7+	c #150C03",
"G7+	c #170C05",
"H7+	c #3A2C2A",
"I7+	c #41322F",
"J7+	c #3A2A28",
"K7+	c #271614",
"L7+	c #1B0604",
"M7+	c #1E0300",
"N7+	c #2C0900",
"O7+	c #340900",
"P7+	c #450F06",
"Q7+	c #632019",
"R7+	c #7A302A",
"S7+	c #863A35",
"T7+	c #7B342F",
"U7+	c #6B2A24",
"V7+	c #BA9586",
"W7+	c #D3A999",
"X7+	c #CFA493",
"Y7+	c #8E6455",
"Z7+	c #572710",
"`7+	c #441B0C",
" 8+	c #35160D",
".8+	c #2A130E",
"+8+	c #200F0B",
"@8+	c #180805",
"#8+	c #120300",
"$8+	c #0E0500",
"%8+	c #100901",
"&8+	c #0F0902",
"*8+	c #0E0901",
"=8+	c #0D0900",
"-8+	c #0D0A01",
";8+	c #0E0A01",
">8+	c #0F0A02",
",8+	c #100A02",
"'8+	c #110901",
")8+	c #120801",
"!8+	c #2F201E",
"~8+	c #453432",
"{8+	c #443230",
"]8+	c #352221",
"^8+	c #220F0E",
"/8+	c #170402",
"(8+	c #1D0A07",
"_8+	c #180200",
":8+	c #45130A",
"<8+	c #692721",
"[8+	c #813631",
"}8+	c #8C3E3A",
"|8+	c #823732",
"18+	c #712B25",
"28+	c #521710",
"38+	c #D2A99A",
"48+	c #DBAD9C",
"58+	c #CB9D8C",
"68+	c #8C6051",
"78+	c #572712",
"88+	c #451C0E",
"98+	c #35160E",
"08+	c #28130F",
"a8+	c #1E0F0C",
"b8+	c #160806",
"c8+	c #0D0300",
"d8+	c #0E0601",
"e8+	c #0F0801",
"f8+	c #0F0903",
"g8+	c #0E0A03",
"h8+	c #0C0901",
"i8+	c #0B0800",
"j8+	c #090700",
"k8+	c #322423",
"l8+	c #503E3C",
"m8+	c #513E3C",
"n8+	c #453030",
"o8+	c #2F1C1B",
"p8+	c #1B0705",
"q8+	c #180603",
"r8+	c #290903",
"s8+	c #4A1C15",
"t8+	c #71312C",
"u8+	c #873D38",
"v8+	c #90423C",
"w8+	c #893B34",
"x8+	c #793028",
"y8+	c #612217",
"z8+	c #E5B8A8",
"A8+	c #DEAD9C",
"B8+	c #C18F7E",
"C8+	c #865748",
"D8+	c #582713",
"E8+	c #461D10",
"F8+	c #26120E",
"G8+	c #1D0D0C",
"H8+	c #150806",
"I8+	c #0F0402",
"J8+	c #0D0201",
"K8+	c #0E0603",
"L8+	c #0E0903",
"M8+	c #0A0801",
"N8+	c #080700",
"O8+	c #614F4D",
"P8+	c #624C4C",
"Q8+	c #553E3E",
"R8+	c #3B2727",
"S8+	c #160701",
"T8+	c #180401",
"U8+	c #2F120B",
"V8+	c #50251F",
"W8+	c #773935",
"X8+	c #8B423D",
"Y8+	c #91423C",
"Z8+	c #8F3F36",
"`8+	c #85382D",
" 9+	c #763022",
".9+	c #682B1B",
"+9+	c #B68E81",
"@9+	c #E6B6A6",
"#9+	c #D8A494",
"$9+	c #B27C6B",
"%9+	c #7D4C3D",
"&9+	c #552514",
"*9+	c #451D10",
"=9+	c #33150D",
"-9+	c #24100C",
";9+	c #1C0D0B",
">9+	c #140806",
",9+	c #0D0301",
"'9+	c #0E0402",
")9+	c #0E0704",
"!9+	c #0E0804",
"~9+	c #0D0904",
"{9+	c #090802",
"]9+	c #786463",
"^9+	c #725C5C",
"/9+	c #5E4646",
"(9+	c #412B2B",
"_9+	c #230E0C",
":9+	c #130600",
"<9+	c #140701",
"[9+	c #1B0A06",
"}9+	c #4C2420",
"|9+	c #6D3430",
"19+	c #803A35",
"29+	c #883A33",
"39+	c #8F3D32",
"49+	c #8F3E31",
"59+	c #893F2D",
"69+	c #7D3C29",
"79+	c #6E3823",
"89+	c #B18879",
"99+	c #DFAC9C",
"09+	c #CD9685",
"a9+	c #A16958",
"b9+	c #744131",
"c9+	c #522313",
"d9+	c #421B0F",
"e9+	c #31140C",
"f9+	c #230F0B",
"g9+	c #0E0503",
"h9+	c #0F0704",
"i9+	c #0E0905",
"j9+	c #8C7877",
"k9+	c #806B6A",
"l9+	c #604848",
"m9+	c #402829",
"n9+	c #210B0A",
"o9+	c #160502",
"p9+	c #130702",
"q9+	c #291411",
"r9+	c #3F1C19",
"s9+	c #5A2523",
"t9+	c #6D2A26",
"u9+	c #7D2F28",
"v9+	c #8F3B2F",
"w9+	c #9A4536",
"x9+	c #9B4B38",
"y9+	c #8E4832",
"z9+	c #7C402A",
"A9+	c #66311C",
"B9+	c #927363",
"C9+	c #B48A79",
"D9+	c #D59F8D",
"E9+	c #C08776",
"F9+	c #965A49",
"G9+	c #6E3929",
"H9+	c #502011",
"I9+	c #3E170B",
"J9+	c #210D08",
"K9+	c #190A07",
"L9+	c #100603",
"M9+	c #0F0805",
"N9+	c #0A0603",
"O9+	c #9A8685",
"P9+	c #8B7575",
"Q9+	c #5D4344",
"R9+	c #381F21",
"S9+	c #0F0502",
"T9+	c #190908",
"U9+	c #2A0B09",
"V9+	c #42120F",
"W9+	c #5B1B16",
"X9+	c #752921",
"Y9+	c #944033",
"Z9+	c #A74F3E",
"`9+	c #AC5641",
" 0+	c #9F513A",
".0+	c #89452E",
"+0+	c #6D321C",
"@0+	c #58210C",
"#0+	c #AF8E7E",
"$0+	c #C29785",
"%0+	c #CD9582",
"&0+	c #B57967",
"*0+	c #8C4F3D",
"=0+	c #6A3323",
"-0+	c #4D1E0F",
";0+	c #391207",
">0+	c #2B0D06",
",0+	c #110501",
"'0+	c #110805",
")0+	c #0D0704",
"!0+	c #6D5C5B",
"~0+	c #9F8989",
"{0+	c #8F7878",
"]0+	c #563C3E",
"^0+	c #2F1416",
"/0+	c #0C0406",
"(0+	c #340403",
"_0+	c #571913",
":0+	c #7D3228",
"<0+	c #A44F41",
"[0+	c #BA604D",
"}0+	c #BF654E",
"|0+	c #B25E45",
"10+	c #9A4F35",
"20+	c #7C3921",
"30+	c #642812",
"40+	c #C09E8D",
"50+	c #CEA391",
"60+	c #C68D79",
"70+	c #AA6B58",
"80+	c #834432",
"90+	c #652D1C",
"00+	c #4A1A0C",
"a0+	c #350E04",
"b0+	c #280A04",
"c0+	c #1F0905",
"d0+	c #180804",
"e0+	c #140502",
"f0+	c #120602",
"g0+	c #100805",
"h0+	c #6B5A59",
"i0+	c #9C8585",
"j0+	c #8B7475",
"k0+	c #4D3435",
"l0+	c #28080B",
"m0+	c #170100",
"n0+	c #0A0407",
"o0+	c #090205",
"p0+	c #1A0203",
"q0+	c #340707",
"r0+	c #5D201A",
"s0+	c #873C31",
"t0+	c #B15B4B",
"u0+	c #C96D57",
"v0+	c #CE7057",
"w0+	c #C2694D",
"x0+	c #AC5A3E",
"y0+	c #90472C",
"z0+	c #76341F",
"A0+	c #5F2617",
"B0+	c #C3A18F",
"C0+	c #D1A692",
"D0+	c #BA816D",
"E0+	c #9A5B47",
"F0+	c #763623",
"G0+	c #5E2414",
"H0+	c #461608",
"I0+	c #310A02",
"J0+	c #260803",
"K0+	c #1E0803",
"L0+	c #150501",
"M0+	c #130705",
"N0+	c #130906",
"O0+	c #110806",
"P0+	c #685655",
"Q0+	c #917B7A",
"R0+	c #816A6A",
"S0+	c #452D2E",
"T0+	c #260507",
"U0+	c #1B0303",
"V0+	c #0C090E",
"W0+	c #1D050A",
"X0+	c #380E0F",
"Y0+	c #5E221C",
"Z0+	c #853A2E",
"`0+	c #AC5744",
" a+	c #C56850",
".a+	c #CF6E53",
"+a+	c #CB6D4F",
"@a+	c #BD6547",
"#a+	c #A8573C",
"$a+	c #904832",
"%a+	c #783A2A",
"&a+	c #632E24",
"*a+	c #7C6557",
"=a+	c #BD9C8A",
"-a+	c #CAA08B",
";a+	c #AB745E",
">a+	c #884A36",
",a+	c #662714",
"'a+	c #541B09",
")a+	c #421204",
"!a+	c #2F0801",
"~a+	c #240702",
"{a+	c #140805",
"]a+	c #140907",
"^a+	c #120906",
"/a+	c #635251",
"(a+	c #846E6D",
"_a+	c #745E5E",
":a+	c #3F2728",
"<a+	c #29080B",
"[a+	c #220808",
"}a+	c #0F090F",
"|a+	c #1D070B",
"1a+	c #360E0E",
"2a+	c #531C16",
"3a+	c #732F23",
"4a+	c #964633",
"5a+	c #B0573F",
"6a+	c #BF6146",
"7a+	c #C6684A",
"8a+	c #C3684A",
"9a+	c #B76145",
"0a+	c #A55740",
"aa+	c #904B3A",
"ba+	c #773B30",
"ca+	c #612C27",
"da+	c #7C6656",
"ea+	c #B2927D",
"fa+	c #BA937C",
"ga+	c #97644E",
"ha+	c #743B26",
"ia+	c #561B06",
"ja+	c #4A1402",
"ka+	c #3D0E02",
"la+	c #2E0700",
"ma+	c #240601",
"na+	c #1C0602",
"oa+	c #180503",
"pa+	c #150502",
"qa+	c #130502",
"ra+	c #5F4F4D",
"sa+	c #7A6564",
"ta+	c #6B5656",
"ua+	c #3C2425",
"va+	c #2C0D10",
"wa+	c #1A0603",
"xa+	c #10090C",
"ya+	c #10080B",
"za+	c #2B0806",
"Aa+	c #3D0E05",
"Ba+	c #52180A",
"Ca+	c #6F2816",
"Da+	c #893A22",
"Ea+	c #9F4A2E",
"Fa+	c #B25B3C",
"Ga+	c #BC6445",
"Ha+	c #BB6448",
"Ia+	c #B36049",
"Ja+	c #A55746",
"Ka+	c #8E453A",
"La+	c #75332D",
"Ma+	c #5C2222",
"Na+	c #511B1D",
"Oa+	c #6B5744",
"Pa+	c #9F826A",
"Qa+	c #A38168",
"Ra+	c #794D39",
"Sa+	c #5F2A13",
"Ta+	c #521E07",
"Ua+	c #411002",
"Va+	c #370A01",
"Wa+	c #300A02",
"Xa+	c #1B0502",
"Ya+	c #170604",
"Za+	c #150604",
"`a+	c #140604",
" b+	c #130605",
".b+	c #120605",
"+b+	c #61504E",
"@b+	c #816E6D",
"#b+	c #725F5E",
"$b+	c #412A2B",
"%b+	c #2B0D0F",
"&b+	c #240809",
"*b+	c #1C0402",
"=b+	c #170401",
"-b+	c #150503",
";b+	c #2F0A00",
">b+	c #3E1000",
",b+	c #521B02",
"'b+	c #68280C",
")b+	c #7E381A",
"!b+	c #95482A",
"~b+	c #A75537",
"{b+	c #B15B3F",
"]b+	c #B55C44",
"^b+	c #B15644",
"/b+	c #A1473B",
"(b+	c #8E3830",
"_b+	c #7F2E2A",
":b+	c #7F3332",
"<b+	c #7E3736",
"[b+	c #7F6D56",
"}b+	c #A2876D",
"|b+	c #9D7E65",
"1b+	c #64412D",
"2b+	c #501D00",
"3b+	c #50210A",
"4b+	c #401404",
"5b+	c #350C02",
"6b+	c #300B02",
"7b+	c #160605",
"8b+	c #60504E",
"9b+	c #857271",
"0b+	c #776463",
"ab+	c #493232",
"bb+	c #2E1314",
"cb+	c #210506",
"db+	c #1B0201",
"eb+	c #1A0200",
"fb+	c #190300",
"gb+	c #160401",
"hb+	c #1E0700",
"ib+	c #270B00",
"jb+	c #321100",
"kb+	c #3F1800",
"lb+	c #4E2003",
"mb+	c #60290B",
"nb+	c #763618",
"ob+	c #8C4225",
"pb+	c #9E4C31",
"qb+	c #AB5039",
"rb+	c #AF4D3B",
"sb+	c #A74234",
"tb+	c #9D382E",
"ub+	c #96352F",
"vb+	c #983D3A",
"wb+	c #94423F",
"xb+	c #833C39",
"yb+	c #723531",
"zb+	c #90806A",
"Ab+	c #AB967E",
"Bb+	c #BDA186",
"Cb+	c #AE8F75",
"Db+	c #6D4C37",
"Eb+	c #4F2000",
"Fb+	c #4F220B",
"Gb+	c #461B09",
"Hb+	c #3A1205",
"Ib+	c #2C0801",
"Jb+	c #210500",
"Kb+	c #110605",
"Lb+	c #594947",
"Mb+	c #7C6968",
"Nb+	c #725E5D",
"Ob+	c #503A3A",
"Pb+	c #351E1E",
"Qb+	c #210708",
"Rb+	c #190201",
"Sb+	c #160400",
"Tb+	c #170500",
"Ub+	c #190700",
"Vb+	c #1F0B00",
"Wb+	c #270F00",
"Xb+	c #301400",
"Yb+	c #3C1A01",
"Zb+	c #4C2004",
"`b+	c #60290E",
" c+	c #743218",
".c+	c #873922",
"+c+	c #963D29",
"@c+	c #9E3C2B",
"#c+	c #9D3427",
"$c+	c #9E3227",
"%c+	c #A33830",
"&c+	c #AA443E",
"*c+	c #AA4C47",
"=c+	c #A04F48",
"-c+	c #8D473F",
";c+	c #763A31",
">c+	c #AA9581",
",c+	c #C2A890",
"'c+	c #BC9E83",
")c+	c #A38167",
"!c+	c #775038",
"~c+	c #62351C",
"{c+	c #5B2F1A",
"]c+	c #4E2312",
"^c+	c #3F170A",
"/c+	c #200500",
"(c+	c #180502",
"_c+	c #766362",
":c+	c #6F5B5A",
"<c+	c #574140",
"[c+	c #3C2626",
"}c+	c #1A0102",
"|c+	c #1D0200",
"1c+	c #170400",
"2c+	c #160600",
"3c+	c #190800",
"4c+	c #1E0C00",
"5c+	c #240E00",
"6c+	c #2C1100",
"7c+	c #381501",
"8c+	c #481B05",
"9c+	c #5A200B",
"0c+	c #6A2511",
"ac+	c #772716",
"bc+	c #83281A",
"cc+	c #902B20",
"dc+	c #A1392F",
"ec+	c #B1493F",
"fc+	c #B44D45",
"gc+	c #B05047",
"hc+	c #A95349",
"ic+	c #9A4F43",
"jc+	c #884738",
"kc+	c #6E3525",
"lc+	c #A28F80",
"mc+	c #BCA28F",
"nc+	c #CBAC94",
"oc+	c #AC8A72",
"pc+	c #896146",
"qc+	c #7B4E34",
"rc+	c #73442C",
"sc+	c #693C27",
"tc+	c #552A1A",
"uc+	c #300E06",
"vc+	c #200601",
"wc+	c #160402",
"xc+	c #110505",
"yc+	c #72615F",
"zc+	c #6D5A58",
"Ac+	c #5B4645",
"Bc+	c #412C2B",
"Cc+	c #280E0F",
"Dc+	c #200606",
"Ec+	c #140400",
"Fc+	c #130400",
"Gc+	c #140600",
"Hc+	c #170700",
"Ic+	c #1A0800",
"Jc+	c #1F0800",
"Kc+	c #260800",
"Lc+	c #3F0C01",
"Mc+	c #4C0F01",
"Nc+	c #540D00",
"Oc+	c #65140B",
"Pc+	c #842B22",
"Qc+	c #A14239",
"Rc+	c #B55349",
"Sc+	c #B14F45",
"Tc+	c #A84A3F",
"Uc+	c #A44D40",
"Vc+	c #A15242",
"Wc+	c #97503D",
"Xc+	c #7E3E29",
"Yc+	c #6C301A",
"Zc+	c #662E1B",
"`c+	c #BFA596",
" d+	c #CBAC99",
".d+	c #C7A18B",
"+d+	c #9B745E",
"@d+	c #73452C",
"#d+	c #79472E",
"$d+	c #7A4932",
"%d+	c #71432F",
"&d+	c #582E1F",
"*d+	c #411B11",
"=d+	c #301009",
"-d+	c #200603",
";d+	c #140707",
">d+	c #70605E",
",d+	c #6B5957",
"'d+	c #5B4746",
")d+	c #432E2D",
"!d+	c #2E1515",
"~d+	c #2B1010",
"{d+	c #220707",
"]d+	c #150300",
"^d+	c #110400",
"/d+	c #130500",
"(d+	c #2A0200",
"_d+	c #340300",
":d+	c #3E0000",
"<d+	c #56120D",
"[d+	c #80322A",
"}d+	c #9C453C",
"|d+	c #A94D44",
"1d+	c #9C4136",
"2d+	c #8F3528",
"3d+	c #943D2C",
"4d+	c #9F4E38",
"5d+	c #A4563D",
"6d+	c #974E32",
"7d+	c #8C462B",
"8d+	c #844029",
"9d+	c #773425",
"0d+	c #692620",
"ad+	c #95796D",
"bd+	c #C8A697",
"cd+	c #D6AE9B",
"dd+	c #CE9F89",
"ed+	c #A0715C",
"fd+	c #703C25",
"gd+	c #703E2A",
"hd+	c #6A3B2A",
"id+	c #562B1F",
"jd+	c #401A12",
"kd+	c #2C0C07",
"ld+	c #1D0402",
"md+	c #150605",
"nd+	c #685956",
"od+	c #655452",
"pd+	c #5A4645",
"qd+	c #442F2F",
"rd+	c #321A1A",
"sd+	c #321817",
"td+	c #260E0C",
"ud+	c #180201",
"vd+	c #110200",
"wd+	c #0F0300",
"xd+	c #230000",
"yd+	c #340302",
"zd+	c #501713",
"Ad+	c #76312A",
"Bd+	c #893C34",
"Cd+	c #8C3B32",
"Dd+	c #7E2B22",
"Ed+	c #7A2313",
"Fd+	c #8F3721",
"Gd+	c #A85339",
"Hd+	c #B76245",
"Id+	c #B36040",
"Jd+	c #A85737",
"Kd+	c #9A4B31",
"Ld+	c #924331",
"Md+	c #8A3B32",
"Nd+	c #81352F",
"Od+	c #752D28",
"Pd+	c #66251F",
"Qd+	c #A58074",
"Rd+	c #CEA293",
"Sd+	c #DEAC99",
"Td+	c #D8A18B",
"Ud+	c #B17963",
"Vd+	c #844933",
"Wd+	c #69301C",
"Xd+	c #5D2715",
"Yd+	c #592819",
"Zd+	c #4E2219",
"`d+	c #240502",
" e+	c #5A4C49",
".e+	c #5B4B49",
"+e+	c #574443",
"@e+	c #44302F",
"#e+	c #321B19",
"$e+	c #28110F",
"%e+	c #1C0603",
"&e+	c #0E0301",
"*e+	c #0F0503",
"=e+	c #0F0604",
"-e+	c #0F0101",
";e+	c #320B09",
">e+	c #4C1A16",
",e+	c #642923",
"'e+	c #692821",
")e+	c #5F1007",
"!e+	c #732312",
"~e+	c #974028",
"{e+	c #B55C40",
"]e+	c #C76D4D",
"^e+	c #C96D4A",
"/e+	c #BF6441",
"(e+	c #B15638",
"_e+	c #AF523E",
":e+	c #AB4F42",
"<e+	c #A04940",
"[e+	c #904039",
"}e+	c #7D372F",
"|e+	c #662A22",
"1e+	c #511F17",
"2e+	c #AD857D",
"3e+	c #C4978C",
"4e+	c #DDA999",
"5e+	c #E3A996",
"6e+	c #D59681",
"7e+	c #B67560",
"8e+	c #904F3A",
"9e+	c #6D311F",
"0e+	c #591F0F",
"ae+	c #4E1B0F",
"be+	c #42170F",
"ce+	c #320E09",
"de+	c #140202",
"ee+	c #4E3F3D",
"fe+	c #50403D",
"ge+	c #402E2D",
"he+	c #301B1A",
"ie+	c #2B1614",
"je+	c #27120E",
"ke+	c #210D09",
"le+	c #1A0804",
"me+	c #0D0403",
"ne+	c #0E0706",
"oe+	c #0F0908",
"pe+	c #0E0808",
"qe+	c #0D0506",
"re+	c #0E0304",
"se+	c #290A08",
"te+	c #3C1512",
"ue+	c #4B1B16",
"ve+	c #4C1711",
"we+	c #490803",
"xe+	c #5A1304",
"ye+	c #7C311E",
"ze+	c #A24E35",
"Ae+	c #B96042",
"Be+	c #C76A48",
"Ce+	c #CC6D48",
"De+	c #CA6844",
"Ee+	c #C36040",
"Fe+	c #C25D45",
"Ge+	c #C05D4C",
"He+	c #BB5D51",
"Ie+	c #B05A50",
"Je+	c #9E5348",
"Ke+	c #824338",
"Le+	c #653126",
"Me+	c #441B11",
"Ne+	c #B58F8A",
"Oe+	c #CEA098",
"Pe+	c #E1ABA0",
"Qe+	c #EBAE9E",
"Re+	c #E1A08D",
"Se+	c #C7826E",
"Te+	c #AD6651",
"Ue+	c #924C38",
"Ve+	c #783827",
"We+	c #612719",
"Xe+	c #4B180E",
"Ye+	c #380C07",
"Ze+	c #280403",
"`e+	c #403330",
" f+	c #453734",
".f+	c #382826",
"+f+	c #291615",
"@f+	c #230F0C",
"#f+	c #24100D",
"$f+	c #160603",
"%f+	c #0D0504",
"&f+	c #0E0A0C",
"*f+	c #0D0508",
"=f+	c #0E0305",
"-f+	c #120203",
";f+	c #1E0606",
">f+	c #320C08",
",f+	c #370905",
"'f+	c #410D05",
")f+	c #5F2212",
"!f+	c #823A26",
"~f+	c #A25138",
"{f+	c #B15A3C",
"]f+	c #BA5E3D",
"^f+	c #C2623E",
"/f+	c #C7633F",
"(f+	c #C76141",
"_f+	c #C55E44",
":f+	c #C45E4B",
"<f+	c #C36152",
"[f+	c #B96153",
"}f+	c #A7594C",
"|f+	c #89473A",
"1f+	c #673226",
"2f+	c #431A10",
"3f+	c #D5A9A3",
"4f+	c #EAB5AD",
"5f+	c #F6B8AC",
"6f+	c #F1AA9C",
"7f+	c #D88E7D",
"8f+	c #B16551",
"9f+	c #994C38",
"0f+	c #8C422F",
"af+	c #834030",
"bf+	c #6D3125",
"cf+	c #4F1B14",
"df+	c #360C09",
"ef+	c #240304",
"ff+	c #1B0103",
"gf+	c #120202",
"hf+	c #342623",
"if+	c #2A1B19",
"jf+	c #20100D",
"kf+	c #1C0B06",
"lf+	c #210F0A",
"mf+	c #23110D",
"nf+	c #170906",
"of+	c #110604",
"pf+	c #0E090B",
"qf+	c #0E090D",
"rf+	c #0D080C",
"sf+	c #0C070A",
"tf+	c #0F0305",
"uf+	c #150304",
"vf+	c #1B0403",
"wf+	c #300A03",
"xf+	c #45170B",
"yf+	c #632C1C",
"zf+	c #7E3C28",
"Af+	c #924730",
"Bf+	c #9C4B30",
"Cf+	c #A44C2D",
"Df+	c #AE502F",
"Ef+	c #B65433",
"Ff+	c #BA5738",
"Gf+	c #B9543A",
"Hf+	c #B7533E",
"If+	c #B35443",
"Jf+	c #A85242",
"Kf+	c #964B3B",
"Lf+	c #7B3B2C",
"Mf+	c #5C281B",
"Nf+	c #290902",
"Of+	c #BA918B",
"Pf+	c #E4B1AA",
"Qf+	c #F6BAB0",
"Rf+	c #F8B3A6",
"Sf+	c #E29788",
"Tf+	c #C47464",
"Uf+	c #A5513E",
"Vf+	c #974430",
"Wf+	c #904231",
"Xf+	c #854132",
"Yf+	c #6D3126",
"Zf+	c #4E1B15",
"`f+	c #3B1313",
" g+	c #2A0B0C",
".g+	c #180102",
"+g+	c #150606",
"@g+	c #1A0B07",
"#g+	c #1D0D08",
"$g+	c #1F0F0C",
"%g+	c #190B0A",
"&g+	c #120706",
"*g+	c #0F0403",
"=g+	c #0E080A",
"-g+	c #0E090C",
";g+	c #0C080A",
">g+	c #0B0609",
",g+	c #0C0304",
"'g+	c #1C0C09",
")g+	c #1C0703",
"!g+	c #2B0C03",
"~g+	c #41190D",
"{g+	c #572717",
"]g+	c #6B311E",
"^g+	c #7C3923",
"/g+	c #8B4028",
"(g+	c #964429",
"_g+	c #9C4326",
":g+	c #9E4224",
"<g+	c #9F4227",
"[g+	c #A4462D",
"}g+	c #A24630",
"|g+	c #98412E",
"1g+	c #893B2A",
"2g+	c #763223",
"3g+	c #5F2619",
"4g+	c #47180D",
"5g+	c #310C03",
"6g+	c #AB8781",
"7g+	c #CA9D95",
"8g+	c #EEB6AC",
"9g+	c #F9B7AB",
"0g+	c #F0A596",
"ag+	c #CF7E6E",
"bg+	c #B15A48",
"cg+	c #9F4734",
"dg+	c #9B4633",
"eg+	c #954535",
"fg+	c #843F32",
"gg+	c #692E24",
"hg+	c #4B1915",
"ig+	c #3D1617",
"jg+	c #2C0E11",
"kg+	c #160102",
"lg+	c #100000",
"mg+	c #140605",
"ng+	c #160703",
"og+	c #190A05",
"pg+	c #1A0B09",
"qg+	c #180B0A",
"rg+	c #0E0506",
"sg+	c #0D0708",
"tg+	c #0B0606",
"ug+	c #0C0503",
"vg+	c #1E100C",
"wg+	c #1C0B05",
"xg+	c #38170B",
"yg+	c #441C0D",
"zg+	c #522110",
"Ag+	c #622815",
"Bg+	c #773520",
"Cg+	c #853C25",
"Dg+	c #87371F",
"Eg+	c #832F16",
"Fg+	c #7F2A13",
"Gg+	c #86341F",
"Hg+	c #762916",
"Ig+	c #621D0B",
"Jg+	c #4E1102",
"Kg+	c #3D0A01",
"Lg+	c #2F0700",
"Mg+	c #260700",
"Ng+	c #BE958E",
"Og+	c #DDABA2",
"Pg+	c #F6B9AD",
"Qg+	c #F7B0A1",
"Rg+	c #E69685",
"Sg+	c #C56F5E",
"Tg+	c #AA4E3C",
"Ug+	c #9E4331",
"Vg+	c #9E4636",
"Wg+	c #984739",
"Xg+	c #823D32",
"Yg+	c #662C25",
"Zg+	c #481916",
"`g+	c #351112",
" h+	c #24080C",
".h+	c #160104",
"+h+	c #120002",
"@h+	c #120102",
"#h+	c #120403",
"$h+	c #100504",
"%h+	c #0C0202",
"&h+	c #0C0303",
"*h+	c #100905",
"=h+	c #140B05",
"-h+	c #170C06",
";h+	c #190B04",
">h+	c #210D04",
",h+	c #2B1106",
"'h+	c #351408",
")h+	c #40170A",
"!h+	c #5A2212",
"~h+	c #642615",
"{h+	c #6A2514",
"]h+	c #6B2312",
"^h+	c #6A2110",
"/h+	c #66200E",
"(h+	c #5E1C0A",
"_h+	c #501305",
":h+	c #420901",
"<h+	c #350400",
"[h+	c #2E0500",
"}h+	c #240C01",
"|h+	c #1D0B01",
"1h+	c #9D7E76",
"2h+	c #CA9F95",
"3h+	c #E8B2A6",
"4h+	c #F5B4A5",
"5h+	c #EAA08F",
"6h+	c #D37F6C",
"7h+	c #BC614E",
"8h+	c #AD4F3C",
"9h+	c #A84C3B",
"0h+	c #A44D3E",
"ah+	c #96473B",
"bh+	c #77342B",
"ch+	c #58221C",
"dh+	c #3B110E",
"eh+	c #290808",
"fh+	c #1B0305",
"gh+	c #140003",
"hh+	c #110302",
"ih+	c #0F0603",
"jh+	c #130B04",
"kh+	c #1C0D04",
"lh+	c #220E04",
"mh+	c #391006",
"nh+	c #3F1106",
"oh+	c #461207",
"ph+	c #4D1309",
"qh+	c #51160A",
"rh+	c #511609",
"sh+	c #491002",
"th+	c #3E0800",
"uh+	c #330300",
"vh+	c #2A0000",
"wh+	c #240600",
"xh+	c #230B02",
"yh+	c #200E03",
"zh+	c #8D746A",
"Ah+	c #AF8F83",
"Bh+	c #D7AA9D",
"Ch+	c #F0B6A7",
"Dh+	c #EFA998",
"Eh+	c #D98B79",
"Fh+	c #BC6550",
"Gh+	c #B2543F",
"Hh+	c #B0513D",
"Ih+	c #AE5342",
"Jh+	c #A54F42",
"Kh+	c #8E4338",
"Lh+	c #66271F",
"Mh+	c #430F0B",
"Nh+	c #270202",
"Oh+	c #1B0101",
"Ph+	c #100001",
"Qh+	c #110102",
"Rh+	c #110202",
"Sh+	c #0F0500",
"Th+	c #170E04",
"Uh+	c #190D04",
"Vh+	c #1C0C04",
"Wh+	c #1F0B03",
"Xh+	c #230A02",
"Yh+	c #2B0701",
"Zh+	c #2F0601",
"`h+	c #320501",
" i+	c #340501",
".i+	c #350601",
"+i+	c #330700",
"@i+	c #260300",
"#i+	c #1F0200",
"$i+	c #1C0400",
"%i+	c #1B0800",
"&i+	c #1B0C03",
"*i+	c #1A0E06",
"=i+	c #170E06",
"-i+	c #9B8175",
";i+	c #C6A394",
">i+	c #E8B9A8",
",i+	c #F6BCA9",
"'i+	c #E9A28D",
")i+	c #CC7D68",
"!i+	c #AE553E",
"~i+	c #A74832",
"{i+	c #A54734",
"]i+	c #A14837",
"^i+	c #934134",
"/i+	c #7B3329",
"(i+	c #551A14",
"_i+	c #370504",
":i+	c #130102",
"<i+	c #160E03",
"[i+	c #180801",
"}i+	c #190601",
"|i+	c #1A0300",
"1i+	c #1B0200",
"2i+	c #1D0100",
"3i+	c #1E0100",
"4i+	c #1A0600",
"5i+	c #140D03",
"6i+	c #130E06",
"7i+	c #857266",
"8i+	c #AD9183",
"9i+	c #D9B3A2",
"0i+	c #F3C2AD",
"ai+	c #F9BCA5",
"bi+	c #E49C83",
"ci+	c #C9775D",
"di+	c #AF543B",
"ei+	c #A64830",
"fi+	c #A04430",
"gi+	c #984131",
"hi+	c #87382C",
"ii+	c #702B23",
"ji+	c #501815",
"ki+	c #370B0B",
"li+	c #160506",
"mi+	c #140C02",
"ni+	c #120502",
"oi+	c #110204",
"pi+	c #110205",
"qi+	c #110304",
"ri+	c #120D02",
"si+	c #100E03",
"ti+	c #0E0E04",
"ui+	c #0C0D05",
"vi+	c #9F897C",
"wi+	c #C1A393",
"xi+	c #F8C4AB",
"yi+	c #F6B79B",
"zi+	c #E19779",
"Ai+	c #CB7759",
"Bi+	c #B85E42",
"Ci+	c #AD5139",
"Di+	c #A44B37",
"Ei+	c #994737",
"Fi+	c #893F34",
"Gi+	c #73332D",
"Hi+	c #56221F",
"Ii+	c #3E1516",
"Ji+	c #2D0F10",
"Ki+	c #1A0B0B",
"Li+	c #100302",
"Mi+	c #0E0600",
"Ni+	c #110804",
"Oi+	c #100707",
"Pi+	c #110609",
"Qi+	c #11060C",
"Ri+	c #11050E",
"Si+	c #11070B",
"Ti+	c #110A06",
"Ui+	c #100D03",
"Vi+	c #101003",
"Wi+	c #111104",
"Xi+	c #101206",
"Yi+	c #0E1006",
"Zi+	c #0C0E06",
"`i+	c #B49C8C",
" j+	c #D3B4A0",
".j+	c #EFC4AC",
"+j+	c #F5BFA2",
"@j+	c #EDAB8B",
"#j+	c #DA8F6D",
"$j+	c #CA7655",
"%j+	c #BD6446",
"&j+	c #B45A41",
"*j+	c #AC5642",
"=j+	c #A35546",
"-j+	c #7C423D",
";j+	c #5B2D2A",
">j+	c #3E1A19",
",j+	c #280D0E",
"'j+	c #1D0B0A",
")j+	c #150A08",
"!j+	c #120503",
"~j+	c #0E0702",
"{j+	c #0F0706",
"]j+	c #0F0809",
"^j+	c #10080C",
"/j+	c #10090F",
"(j+	c #100A11",
"_j+	c #100A13",
":j+	c #100B13",
"<j+	c #100B10",
"[j+	c #0D0A08",
"}j+	c #0B0B03",
"|j+	c #0D0F04",
"1j+	c #0E1207",
"2j+	c #0F1208",
"3j+	c #88766B",
"4j+	c #C4AB99",
"5j+	c #E2C1AA",
"6j+	c #F3C8AC",
"7j+	c #EFB898",
"8j+	c #E29E7B",
"9j+	c #D28560",
"0j+	c #C4704D",
"aj+	c #B86142",
"bj+	c #AD573D",
"cj+	c #A4533F",
"dj+	c #9A5244",
"ej+	c #8C4D45",
"fj+	c #76413D",
"gj+	c #552C29",
"hj+	c #371817",
"ij+	c #1F0708",
"jj+	c #140807",
"kj+	c #150B09",
"lj+	c #160909",
"mj+	c #0D0607",
"nj+	c #0F0A0D",
"oj+	c #100E15",
"pj+	c #0F0E13",
"qj+	c #070903",
"rj+	c #988479",
"sj+	c #D0B4A2",
"tj+	c #ECC9B0",
"uj+	c #F6C9AA",
"vj+	c #ECB390",
"wj+	c #DA956E",
"xj+	c #C97C55",
"yj+	c #B86640",
"zj+	c #A85332",
"Aj+	c #964428",
"Bj+	c #853824",
"Cj+	c #753226",
"Dj+	c #682E27",
"Ej+	c #572724",
"Fj+	c #401B19",
"Gj+	c #2A0E0E",
"Hj+	c #190504",
"Ij+	c #110402",
"Jj+	c #130806",
"Kj+	c #9B877B",
"Lj+	c #D1B5A2",
"Mj+	c #EFCAB0",
"Nj+	c #F7C9A7",
"Oj+	c #EDB38D",
"Pj+	c #DB956B",
"Qj+	c #C57A4F",
"Rj+	c #B05F37",
"Sj+	c #9B4825",
"Tj+	c #853517",
"Uj+	c #6F250C",
"Vj+	c #591707",
"Wj+	c #4A120A",
"Xj+	c #3E110D",
"Yj+	c #31100E",
"Zj+	c #260E0E",
"`j+	c #110905",
" k+	c #988477",
".k+	c #CDB09C",
"+k+	c #ECC7AC",
"@k+	c #F7C8A6",
"#k+	c #F3B890",
"$k+	c #E29D71",
"%k+	c #C77C50",
"&k+	c #AB5C32",
"*k+	c #94421F",
"=k+	c #87391D",
"-k+	c #793422",
";k+	c #682F25",
">k+	c #572822",
",k+	c #47201E",
"'k+	c #3A1B1A",
")k+	c #301818",
"!k+	c #271615",
"~k+	c #1D120E",
"{k+	c #140B06",
"]k+	c #917A6D",
"^k+	c #C7A894",
"/k+	c #E6BFA5",
"(k+	c #F6C6A5",
"_k+	c #F8BD96",
":k+	c #EBA77D",
"<k+	c #CC8258",
"[k+	c #AD5E36",
"}k+	c #994726",
"|k+	c #9E4E34",
"1k+	c #A05644",
"2k+	c #98584C",
"3k+	c #864E47",
"4k+	c #6E3F3C",
"5k+	c #57312F",
"6k+	c #442525",
"7k+	c #351D1D",
"8k+	c #271411",
"9k+	c #140A09",
"0k+	c #8B7466",
"ak+	c #C3A390",
"bk+	c #DDB69E",
"ck+	c #EDBD9F",
"dk+	c #F2B895",
"ek+	c #EDAA84",
"fk+	c #DD9470",
"gk+	c #C37655",
"hk+	c #AE5B3F",
"ik+	c #B46148",
"jk+	c #B86854",
"kk+	c #B4695C",
"lk+	c #A46058",
"mk+	c #8E524E",
"nk+	c #764341",
"ok+	c #623536",
"pk+	c #4F282A",
"qk+	c #3C1A1B",
"rk+	c #110908",
"sk+	c #BC9D8A",
"tk+	c #D0AC94",
"uk+	c #E2B499",
"vk+	c #E7B091",
"wk+	c #E9A888",
"xk+	c #E9A181",
"yk+	c #D98B6E",
"zk+	c #C57258",
"Ak+	c #C46F57",
"Bk+	c #C26E5B",
"Ck+	c #BC6B5D",
"Dk+	c #AF6259",
"Ek+	c #9D5752",
"Fk+	c #874948",
"Gk+	c #733C3C",
"Hk+	c #5F2E30",
"Ik+	c #4A1D21",
"Jk+	c #340D12",
"Kk+	c #1E0205",
"Lk+	c #140405",
"Mk+	c #0C0807",
"Nk+	c #0B0706",
"Ok+	c #997D6A",
"Pk+	c #BD9B85",
"Qk+	c #E1B69D",
"Rk+	c #E7B399",
"Sk+	c #E2A58A",
"Tk+	c #D89579",
"Uk+	c #D58A70",
"Vk+	c #D2826A",
"Wk+	c #C97761",
"Xk+	c #BD6A57",
"Yk+	c #AE5D4F",
"Zk+	c #9D4F45",
"`k+	c #89413B",
" l+	c #743431",
".l+	c #622929",
"+l+	c #531E20",
"@l+	c #441317",
"#l+	c #34090F",
"$l+	c #240308",
"%l+	c #170407",
"&l+	c #090807",
"*l+	c #AC8D79",
"=l+	c #D7B19A",
"-l+	c #E0B29A",
";l+	c #D9A38A",
">l+	c #C3876E",
",l+	c #C17D64",
"'l+	c #C47A65",
")l+	c #B66B57",
"!l+	c #A45846",
"~l+	c #904437",
"{l+	c #7D3429",
"]l+	c #581814",
"^l+	c #4A0F0E",
"/l+	c #400A0C",
"(l+	c #38070A",
"_l+	c #2E0408",
":l+	c #220307",
"<l+	c #C1A08B",
"[l+	c #D0A891",
"}l+	c #CEA089",
"|l+	c #B48069",
"1l+	c #A46852",
"2l+	c #995945",
"3l+	c #874533",
"4l+	c #733222",
"5l+	c #622116",
"6l+	c #55160D",
"7l+	c #490E07",
"8l+	c #3E0604",
"9l+	c #340303",
"0l+	c #2D0202",
"al+	c #290102",
"bl+	c #230102",
"cl+	c #1B0203",
"dl+	c #130405",
"el+	c #0C0606",
"fl+	c #080707",
"gl+	c #9E836F",
"hl+	c #B79581",
"il+	c #BF9883",
"jl+	c #B0846F",
"kl+	c #956552",
"ll+	c #723D2C",
"ml+	c #5C2515",
"nl+	c #4B1306",
"ol+	c #3E0600",
"pl+	c #370200",
"ql+	c #340100",
"rl+	c #2F0100",
"sl+	c #280000",
"tl+	c #220000",
"ul+	c #1F0000",
"vl+	c #160302",
"wl+	c #100404",
"xl+	c #997E6C",
"yl+	c #AA8B77",
"zl+	c #AA8774",
"Al+	c #8D6959",
"Bl+	c #5B3426",
"Cl+	c #42180C",
"Dl+	c #330802",
"El+	c #290300",
"Fl+	c #290200",
"Gl+	c #2A0300",
"Hl+	c #190301",
"Il+	c #130703",
"Jl+	c #887161",
"Kl+	c #9A8070",
"Ll+	c #876C5D",
"Ml+	c #614335",
"Nl+	c #49281C",
"Ol+	c #361409",
"Pl+	c #2A0801",
"Ql+	c #270600",
"Rl+	c #270801",
"Sl+	c #240A03",
"Tl+	c #1F0902",
"Ul+	c #1A0801",
"Vl+	c #170902",
"Wl+	c #150B04",
"Xl+	c #837062",
"Yl+	c #756053",
"Zl+	c #5A4237",
"`l+	c #452C21",
" m+	c #34190F",
".m+	c #280E04",
"+m+	c #240B02",
"@m+	c #220C03",
"#m+	c #1F0C03",
"$m+	c #1A0B02",
"%m+	c #130A01",
"&m+	c #120C04",
"*m+	c #4F4036",
"=m+	c #4B3931",
"-m+	c #3C2A21",
";m+	c #2D1B11",
">m+	c #231107",
",m+	c #1F0D05",
"'m+	c #1D0C04",
")m+	c #100900",
"                                                                                                                                                                                                                                                                                                                                                                                                                                                                                                                                                                                                                                                                                                                                                                                                                                                                                                                                    ",
"                                                                                                                                                                                                                                                                                                                                                                                                                                                                                                                                                                                                                                                                                                                                                                                                                                                                                                                                    ",
"                                                                                                                                                                                                                                                                                                                                                                                                                                                                                                                                                                                                                                                                                                                                                                                                                                                                                                                                    ",
"                                                                                                                                                                                                                                                                                                                                                                                                                                                                                                                                                                                                                                                                                                                                                                                                                                                                                                                                    ",
"                                                                                                                                                                                                                                                                                                                                                                                                                                                                                                                                                                                                                                                                                                                                                                                                                                                                                                                                    ",
"                                                                                                                                                                                                                                                                                                                                                                                                                                                                                                                                                                                                                                                                                                                                                                                                                                                                                                                                    ",
"                                                                                                                                                                                                                                                                                                                                                                                                                                                                                                                                                                                                                                                                                                                                                                                                                                                                                                                                    ",
"                                                                                                                                                                                                                                                                                                                                                                                                                                                                                                                                                                                                                                                                                                                                                                                                                                                                                                                                    ",
"                                                                                                                                                                                                                                                                                                                                                                                    .  +  @  #  $  %  &  *  =  -  ;  >  ,  '  )  !                                                                                                                                                                                                                                                                                                                                                                                                                                                                                                  ",
"                                                                                                                                                                                                                                                                                                                                                                              ~  {  ]  ^  /  (  _  :  <  [  }  |  1  2  3  4  5  6  7  8                                                                                                                                                                                                                                                                                                                                                                                                                                                                                            ",
"                                                                                                                                                                                                                                                                                                                                                                           9  0  a  b  c  d  e  f  g  h  i  j  k  l  m  n  o  p  q  r  s  t                                                                                                                                                                                                                                                                                                                                                                                                                                                                                         ",
"                                                                                                                                                                                                                                                                                                                                                                        u  v  w  x  y  z  A  B  C  D  E  F  G  H  I  J  K  L  M  N  O  P  Q  R  S                                                                                                                                                                                                                                                                                                                                                                                                                                                                                   ",
"                                                                                                                                                                                                                                                                                                                                                                     T  U  V  W  X  Y  Z  `   . .. +. @. #. $. %. &. J  *. =. -. ;. 3  >. ,. '. ).                                                                                                                                                                                                                                                                                                                                                                                                                                                                                  ",
"                                                                                                                                                                                                                                                                                                                                                                  !. ~. {. ]. ^. /. (. _. :. <. [. }. |. 1. 2. 3. 4. 5. 6. *. 7. 8. 9. 0. a. b. c. d.                                                                                                                                                                                                                                                                                                                                                                                                                                                                               ",
"                                                                                                                                                                                                                                                                                                                                                               e. f. g. h. i. j. k. l. m. n. o. p. q. r. s. t. u. v. w. 6. *. x. =. y. z. A. b. B. C. D.                                                                                                                                                                                                                                                                                                                                                                                                                                                                            ",
"                                                                                                                                                                                                                                                                                                                                                               E. F. G. H. I. J. K. L. M. N. O. P. Q. R. S. T. U. V. W. X. o  Y. Z. `.  + .+ ++ @+ #+ $+                                                                                                                                                                                                                                                                                                                                                                                                                                                                            ",
"                                                                                                                                                                                                                                                                                                                                                            %+ &+ *+ =+ -+ ;+ >+ ,+ '+ )+ !+ ~+ {+ ]+ ^+ /+ (+ U. _+ :+ <+ [+ }+ |+ 1+ 2+ 3+ 4+ 5+ 6+ 7+ 8+                                                                                                                                                                                                                                                                                                                                                                                                                                                                         ",
"                                                                                                                                                                                                                                                                                                                                                            9+ 0+ a+ b+ c+ d+ e+ f+ g+ h+ i+ j+ k+ l+ m+ n+ o+ p+ q+ r+ s+ t+ u+ v+ w+ x+ y+ z+ A+ B+ C+ D+                                                                                                                                                                                                                                                                                                                                                                                                                                                                         ",
"                                                                                                                                                                                                                                                                                                                                                            E+ F+ G+ H+ I+ J+ K+ L+ M+ N+ O+ P+ Q+ R+ S+ T+ U+ V+ W+ X+ Y+ Z+ `+  @ .@ +@ @@ #@ $@ %@ &@ *@                                                                                                                                                                                                                                                                                                                                                                                                                                                                         ",
"                                                                                                                                                                                                                                                                                                                                                         =@ -@ ;@ >@ ,@ '@ )@ !@ ~@ {@ ]@ ^@ /@ (@ _@ :@ T+ <@ [@ }@ |@ 1@ 2@ 3@ 4@ 5@ 6@ 7@ 8@ 9@ 0@ a@ b@ c@                                                                                                                                                                                                                                                                                                                                                                                                                                                                      ",
"                                                                                                                                                                                                                                                                                                                                                         =@ d@ e@ f@ g@ h@ i@ j@ k@ l@ m@ n@ o@ p@ q@ r@ s@ t@ u@ v@ w@ x@ y@ z@ A@ B@ C@ D@ E@ F@ 0@ G@ H@ I@                                                                                                                                                                                                                                                                                                                                                                                                                                                                      ",
"                                                                                                                                                                                                                                                                                                                                                         J@ d@ K@ L@ M@ N@ O@ P@ Q@ R@ S@ T@ U@ V@ W@ X@ Y@ Z@ `@  # .# +# @# ## $# %# &# *# =# -# ;# ># ,# '#                                                                                                                                                                                                                                                                                                                                                                                                                                                                      ",
"                                                                                                                                                                                                                                                                                                                                                         )# -@ !# ~# H+ {# ]# ^# /# (# _# :# <# (@ [# }# |# 1# 2# 3# 4# 5# 6# 7# 8# 9# 0# a# b# c# d# e# f# g# h#                                                                                                                                                                                                                                                                                                                                                                                                                                                                   ",
"                                                                                                                                                                                                                                                                                                                                                            i# j# k# l# m# n# e+ o# p# q# r# /@ s# t# u# }# v# w# x# y# z# A# B# C# D# E# F# G# H# I# J# K# L# M#                                                                                                                                                                                                                                                                                                                                                                                                                                                                   ",
"                                                                                                                                                                                                                                                                                                                                                            N# O# P# Q# R# S# T# U# V# S@ T@ W# X# Y# Z# `#  $ .$ +$ @$ #$ $$ %$ &$ *$ =$ -$ ;$ >$ ,$ '$ )$ !$ ~$                                                                                                                                                                                                                                                                                                                                                                                                                                                                   ",
"                                                                                                                                                                                                                                                                                                                                                            {$ -@ ]$ ^$ /$ ($ _$ :$ <$ [$ }$ |$ 1$ 2$ 3$ 4$ 5$ 6$ 7$ 8$ 9$ 0$ a$ b$ c$ d$ e$ f$ g$ h$ i$ )$ j$ ~$                                                                                                                                                                                                                                                                                                                                                                                                                                                                   ",
"                                                                                                                                                                                                                                                                                                                                                            k$ l$ m$ n$ o$ J+ p$ q$ r$ s$ t$ u$ v$ w$ x$ y$ z$ A$ B$ C$ D$ E$ F$ G$ H$ I$ J$ K$ L$ M$ N$ O$ j$ P$                                                                                                                                                                                                                                                                                                                                                                                                                                                                   ",
"                                                                                                                                                                                                                                                                                                                                                            Q$ R$ S$ T$ U$ V$ W$ X$ Y$ Z$ `$  % .% +% @% #% $% %% &% *% =% -% ;% >% ,% '% )% !% ~% {% e# ]% ^% /%                                                                                                                                                                                                                                                                                                                                                                                                                                                                   ",
"                                                                                                                                                                                                                                                                                                                                                            (% (% _% :% <% [% }% |% 1% 2% T@ 3% 4% 5% 6% 7% 8% 9% 0% a% b% c% d% e% f% g% h% i% j% k% l% m% n%                                                                                                                                                                                                                                                                                                                                                                                                                                                                      ",
"                                                                                                                                                                                                                                                                                                                                                         o% p% q% r% s% t% u% v% w% x% y% T@ z% A% B% C% D% E% F% G% H% I% J% K% L% M% N% O% 8# P% Q% R% S% T%                                                                                                                                                                                                                                                                                                                                                                                                                                                                      ",
"                                                                                                                                                                                                                                                                                                                                                         U% =@ V% W% X% Y% Z% `%  & .& q# ^@ +& @& #& $& %& && *& =& -& ;& >& x. ,& I% '& )& !& ~& {& ]& ^& /&                                                                                                                                                                                                                                                                                                                                                                                                                                                                      ",
"                                                                                                                                                                                                                                                                                                                                                         (& _& :& X% <& [& }& |& 1& 2& 3& 4& 5& 6& 7& 8& 9& 0& a& b& c& d& e& f& g& h& i& j& k& l& m& n& o& p&                                                                                                                                                                                                                                                                                                                                                                                                                                                                      ",
"                                                                                                                                                                                                                                                                                                                                                         q& r& s& t& u& v& w& x& y& z& A& B& C& D& E& F& G& H& I& J& K& L& M& N& O& P& Q& R& S& T& U& V& W& X&                                                                                                                                                                                                                                                                                                                                                                                                                                                                      ",
"                                                                                                                                                                                                                                                                                                                                                            Y& Z& `&  * .* +* @* #* $* %* &* ** =* -* ;* >* ,* '* )* !* ~* {* ]* ^* /* (* _* :* <* [* }* |*                                                                                                                                                                                                                                                                                                                                                                                                                                                                         ",
"                                                                                                                                                                                                                                                                                                                                                            1* 2* 3* 4* 5* 6* 7* 8* 9* 0* a* b* c* d* e* f* g* h* i* j* k* l* m* n* o* p* q* r* s* t* u* v*                                                                                                                                                                                                                                                                                                                                                                                                                                                                         ",
"                                                                                                                                                                                                                                                                                                                                                               w* x* y* z* A* B* C* D* E* F* G* H* I* J* K* L* M* N* O* P* Q* R* S* T* U* V* W* X* Y* Z* `*                                                                                                                                                                                                                                                                                                                                                                                                                                                                         ",
"                                                                                                                                                                                                                                                                                                                                                                = .= += @= #= $= %= &= *= == -= ;= >= ,= '= )= != ~= {= ]= ^= /= (= _= := <= [= }= |= 1= 2=                                                                                                                                                                                                                                                                                                                                                                                                                                                                         ",
"                                                                                                                                                                                                                                                                                                                                                            3= 4= 5= 6= 7= 8= 9= 0= a= b= c= d= e= f= g= h= i= j= k= l= m= n= o= p= q= r= s= t= u= v= w= x=                                                                                                                                                                                                                                                                                                                                                                                                                                                                         ",
"                                                                                                                                                                                                                                                                                                                                                   y= z= A= B= C= D= E= F= G= H= I= J= K= L= M= N= O= P= Q= R= S= T= U= V= W= X= Y= Z= `=  - .- +- @- #- $-                                     %- &- *- =- -- ;- >- ,- '- )-                                                                                                                                                                                                                                                                                                                                                                                                       ",
"                                                                                                                                                                                                                                                                                                                                          !- ~- {- ]- ^- /- (- _- :- <- [- }- |- 1- 2- 3- 4- 5- 6- 7- 8- 9- 0- a- b- c- d- e- f- g- h- i- j- k- l- m- n- o- p- q- r- s-                      t- u- v- w- x- y- z- A- B- C- D- E- F- G-                                                                                                                                                                                                                                                                                                                                                                                              ",
"                                                                                                                                                                                                                                                                                                                                    H- I- J- K- L- M- N- O- P- Q- R- S- T- U- V- W- X- Y- Z- `-  ; .; +; @; #; $; %; &; *; =; -; ;; >; ,; '; ); !; ~; {; ]; ^; /; (; _; :; <;          [; }; |; 1; 2; 3; 4; 5; 6; 7; 8; 9; 0; a; b; c; d; e;                                                                                                                                                                                                                                                                                                                                                                                        ",
"                                                                                                                                                                                                                                                                                                                           f; g; h; i; j; k; l; m; n; o; p; q; r; s; t; u; v; w; x; y; z; A; B; C; D; E; F; G; H; I; J; K; L; M; N; O; P; Q; R; S; T; U; V; W; X; Y; Z; `;  > .> +> @> #> $> %> &> *> => -> ;> >> ,> '> )> !> ~> {> ]> ^> /> (> _>                                                                                                                                                                                                                                                                                                                                                                                  ",
"                                                                                                                                                                                                                                                                                                               :> <> [> }> |> 1> 2> 3> 4> 5> 6> 7> 8> 9> 0> a> b> c> d> e> f> g> h> i> j> k> l> m> n> o> p> q> r> s> t> u> v> w> x> y> z> A> B> C> D> E> F> G> H> I> J> K> L> M> N> O> P> Q> R> S> T> U> V> W> X> Y> Z> `>  , ., +, @, #, $, %, &, *,                                                                                                                                                                                                                                                                                                                                                                               ",
"                                                                                                                                                                                                                                                                                                =, -, ;, >, ,, ', ), !, ~, {, ], ^, /, (, _, :, <, [, }, |, 1, 2, 3, 4, 5, 6, u; 7, 8, 9, 0, a, b, c, d, e, f, g, h, i, j, k, l, m, n, o, p, q, r, s, t, u, v, w, x, y, z, A, B, C, D, E, F, G, H, I, J, K, L, M, N, O, P, Q, R, S, T, U, V, W, X, Y, Z,                                                                                                                                                                                                                                                                                                                                                                            ",
"                                                                                                                                                                                                                                                                                       `,  ' .' +' @' #' +' $' %' &' *' =' -' ;' >' ,' '' )' !' ~' {' ]' ^' /' W@ (' _' :' <' [' }' |' 1' 2' 3' 4' 5' 6' 7' 8' 9' 0' a' b' c' d' e' f' g' h' i' j' s, k' l' m' n' o' p' q' r' s' t' u' v' w' x' y' z' A' B' C' D' E' F' G' H' I' J' K' L' M' N' O' P' Q' R' S'                                                                                                                                                                                                                                                                                                                                                                      ",
"                                                                                                                                                                                                                                                                                 T' U' V' W' X' Y' Z' `'  ) .) +) @) #) $) %) &) *) =) -) ;) >) ,) ') )) !) ~) {) (' ]) ^) /) () _) |' :) <) [) }) |) 1) 2) 3) 4) 5) 6) 7) 8) 9) 0) a) b) c) d) e) f) g) h) i) j) k) l) m) n) o) p) q) r) s) t) u) v) w) x) y) z) A) B) C) D) E) F) G) H) I) J) K) L) M) N) O) P)                                                                                                                                                                                                                                                                                                                                                                   ",
"                                                                                                                                                                                                                                                                           Q) R) S) T) U) V) W) X) Y) Z) `)  ! .! +! @! #! $! %! &! *! =! -! n' ;! >! ,! '! )! !! ~! {! ]! ^! /! (! _! :! <! [) [! }! |! 1! 2! 3! 4! 5! 6! 7! 8! 9! 0! a! b! c! d! e! f! g! h! i! j! k! l! m! n! o! p! q! r! s! t! u! v! w! x! y! z! A! B! C! D! E! F! G! H! I! J! K! L! M! N! O! P!                                                                                                                                                                                                                                                                                                                                                                ",
"                                                                                                                                                                                                                                                                     Q! R! S! T! U! V! W! X! Y! Z! `!  ~ V! .~ Y! +~ @~ #~ $~ %~ &~ *~ =~ -~ ;~ >~ ,~ '~ )~ !~ ~~ {~ ]~ ^~ /~ (~ _~ :~ <~ [~ }~ |~ 1~ 2~ 3~ 4~ 5~ 6~ 7~ 8~ 9~ 0~ a~ b~ c~ d~ e~ f~ g~ h~ i~ j~ k~ l~ m~ n~ o~ [~ p~ q~ r~ s~ t~ u~ v~ w~ x~ y~ z~ A~ B~ C~ D~ E~ F~ G~ H~ I~ J~ K~ L~ M~ N~ O~ P~ Q~ R~ S~                                                                                                                                                                                                                                                                                                                                                          ",
"                                                                                                                                                                                                                                                                  T~ U~ V~ W~ X~ Y~ Z~ `~  { .{ +{ @{ #{ ${ %{ &{ *{ ={ -{ ;{ >{ ,{ '{ ){ !{ ~{ {{ ]{ ^{ /{ ({ _{ :{ <{ [{ }{ |{ 1{ 2{ 3{ 4{ 5{ 6{ 7{ 8{ 9{ 0{ a{ b{ c{ d{ e{ f{ g{ h{ i{ j{ k{ l{ m{ n{ o{ p{ q{ r{ s{ t{ u{ v{ w{ x{ y{ z{ A{ B{ C{ D{ E{ F{ G{ H{ I{ J{ K{ L{ M{ N{ O{ P{ Q{ R{ S{ T{ U{ V{ W{ X{ Y{ Z{ `{                                                                                                                                                                                                                                                                                                                                                       ",
"                                                                                                                                                                                                                                                                ] .] +] @] #] $] %] &] *] =] -] ;] >] ,] '] )] !] ~] {] ]] ^] /] (] _] :] <] [] }] |] 1] 2] 3] 4] 5] 6] 7] 8] 9] 0] a] b] c] d] e] f] g] h] i] j] k] l] m] n] o] p] q] r] s] t] u] v] w] x] y] z] A] B] 3{ C] D] E] F] G] H] I] J] K] L] M] N] O] P] Q] R] S] T] U] V] W] X] Y] Z] `]  ^ .^ +^ @^ #^ $^ %^ &^ *^                                                                                                                                                                                                                                                                                                                                                    ",
"                                                                                                                                                                                                                                                         =^ -^ ;^ >^ ,^ '^ )^ !^ ~^ {^ ]^ ^^ /^ (^ _^ _^ :^ <^ [^ }^ |^ 1^ 2^ 3^ 4^ 5^ 6^ 7^ 8^ 9^ 0^ a^ b^ c^ d^ e^ f^ g^ h^ i^ j^ k^ l^ m^ n^ o^ p^ q^ r^ s^ t^ u^ v^ w^ x^ y^ z^ A^ B^ C^ D^ E^ F^ G^ H^ I^ J^ K^ L^ M^ N^ O^ P^ Q^ R^ S^ T^ U^ V^ W^ X^ Y^ Z^ `^  / ./ +/ @/ #/ $/ %/ &/ */ =/ -/ ;/ >/ ,/ '/ )/ !/ ~/ {/ ]/ ^/                                                                                                                                                                                                                                                                                                                                                 ",
"                                                                                                                                                                                                                                                      // (/ _/ :/ </ [/ }/ |/ 1/ 2/ 3/ 4/ 5/ 6/ 7/ 8/ 9/ 0/ a/ b/ c/ d/ e/ f/ g/ h/ i/ j/ k/ l/ m/ n/ o/ p/ q/ r/ s/ t/ u/ v/ w/ x/ y/ z/ A/ B/ C/ D/ E/ F/ G/ H/ I/ J/ K/ L/ M/ N/ O/ P/ Q/ R/ S/ T/ U/ V/ W/ h/ X/ Y/ Z/ `/  ( .( +( @( #( $( %( &( *( =( -( ;( >( ,( '( )( !( ~( {( ]( ^( /( (( _( :( <( [( }( |( 1( 2( 3( 4( 5( 6(                                                                                                                                                                                                                                                                                                                                              ",
"                                                                                                                                                                                                                                                      7( 8( 9( 0( a( b( c( d( e( f( g( h( i( j( k( l( m( n( o( p( q( r( s( t( u( v( w( x( y( z( A( B( C( D( E( F( G( H( I( J( K( L( M( N( O( P( Q( R( S( T( U( V( W( X( Y( Z( `(  _ ._ +_ @_ #_ $_ %_ &_ *_ =_ -_ l^ ;_ >_ ,_ '_ )_ !_ ~_ {_ ]_ ^_ /_ (_ __ :_ <_ [_ }_ |_ 1_ 2_ 3_ 4_ 5_ 6_ 7_ 8_ 9_ 0_ a_ b_ c_ d_ e_ f_ g_ h_ i_ j_ k_                                                                                                                                                                                                                                                                                                                                           ",
"                                                                                                                                                                                                                                                   l_ m_ n_ o_ p_ q_ r_ s_ t_ u_ v_ w_ x_ y_ z_ A_ B_ C_ D_ E_ F_ G_ H_ I_ J_ K_ L_ M_ N_ O_ P_ Q_ R_ S_ T_ U_ V_ W_ X_ Y_ Z_ `_  : .: +: @: #: $: %: &: *: =: -: ;: >: ,: ': ): !: ~: {: ]: ^: /: (: _: :: <: [: }: |: 1: 2: 3: 4: 5: 6: 7: 8: 9: 0: a: b: c: d: e: f: g: h: i: 1_ j: k: l: m: n: o: p: q: r: s: t: u: v: w: x: y: z: A:                                                                                                                                                                                                                                                                                                                                           ",
"                                                                                                                                                                                                                                                B: C: D: E: F: G: H: I: J: K: K# L: M: N: O: P: Q: R: S: T: U: V: W: X: Y: Z: `:  < .< +< @< #< $< %< &< *< =< -< ;< >< ,< '< 8* )< !< ~< {< ]< ^< /< (< _< :< << [< }< |< 1< 2< 3< 4< 5< 6< 7< 8< 9< 0< a< b< c< d< e< f< g< h< i< j< k< l< m< n< o< p< q< r< s< t< u< v< w< x< y< z< A< B< C< D< E< F< G< H< I< J< K< L< M< N< O< P< Q< R<                                                                                                                                                                                                                                                                                                                                        ",
"                                                                                                                                                                                                                                             S< T< U< V< W< X< Y< Z< `<  [ .[ +[ @[ @[ #[ $[ %[ &[ *[ =[ -[ ;[ >[ ,[ '[ )[ ![ ~[ {[ ][ ^[ /[ ([ _[ :[ <[ [[ }[ |[ 1[ 2[ 3[ 4[ 5[ 6[ 7[ 8[ 9[ 0[ a[ b[ c[ d[ e[ f[ g[ h[ i[ j[ k[ l[ m[ 6< n[ o[ p[ q[ r[ s[ t[ u[ v[ w[ x[ y[ z[ A[ B[ C[ D[ E[ F[ G[ H[ I[ J[ K[ L[ M[ N[ O[ P[ Q[ R[ S[ T[ U[ V[ W[ X[ Y[ Z[ `[  } .} +} @} #} $} %} &} *} =}                                                                                                                                                                                                                                                                                                                                     ",
"                                                                                                                                                                                                                                             -} ;} >} ,} '} )} !} ~} {} @[ ]} ^} /} /} (} _} :} <} [} }} |} 1} 2} 3} 4} 5} 6} 7} 8} 9} 0} a} b} c} d} e} |[ f} g} h} i} j} k} l} m} n} o} 1$ p} q} r} s} t} u} v} w} x} y} z} A} A} B} C} D} E} F} G} H} I} J} K} L} M} N} O} P} Q} R} S} T} U} V} W} X} Y} Z} `}  | .| +| @| #| $| %| &| *| =| -| ;| >| ,| '| )| !| ~| {| ]| ^| /| (| _| :| <| [|                                                                                                                                                                                                                                                                                                                                  ",
"                                                                                                                                                                                                                                          }| || 1| 2| 3| 4| 5| 6| 7| 8| 9| 0| a| b| c| d| e| f| g| h| i| j| k| l| m| n| o| p| q| r| s| t| u| v| w| x| y| z| %_ D} A| B| C| D| E| F| G| H| I| J| K| L| M| N| O| P| Q| R| S| T| U| V| W| X| Y| Z| `|  1 G} .1 +1 @1 #1 $1 %1 &1 *1 =1 -1 ;1 >1 ,1 '1 )1 !1 ~1 {1 ]1 ^1 /1 (1 _1 :1 <1 [1 }1 |1 11 21 31 41 51 61 71 81 91 01 a1 b1 c1 d1 e1 f1 g1 h1 i1                                                                                                                                                                                                                                                                                                                               ",
"                                                                                                                                                                                                                                          j1 k1 l1 m1 n1 o1 p1 q1 r1 s1 t1 u1 v1 w1 x1 y1 z1 A1 B1 C1 D1 E1 F1 G1 H1 I1 J1 K1 L1 M1 N1 O1 P1 Q1 R1 S1 T1 U1 V1 W1 X1 Y1 Z1 `1  2 .2 +2 @2 #2 $2 %2 &2 *2 =2 -2 M+ ;2 >2 ,2 '2 )2 !2 ~2 {2 ]2 ^2 /2 (2 *< _2 :2 <2 [2 }2 |2 12 22 32 42 52 62 72 82 92 02 a2 b2 c2 d2 e2 f2 g2 h2 i2 j2 k2 l2 m2 n2 o2 p2 q2 r2 s2 t2 u2 v2 w2 x2 y2 z2 A2 B2 C2 D2 E2 F2                                                                                                                                                                                                                                                                                                                            ",
"                                                                                                                                                                                                                                       G2 H2 I2 J2 K2 L2 M2 N2 O2 P2 Q2 R2 S2 T2 U2 V2 W2 X2 Y2 Z2 `2  3 .3 +3 @3 #3 $3 %3 &3 *3 =3 -3 ;3 >3 ,3 '3 )3 !3 ~3 {3 a] ]3 ^3 P_ /3 (3 _3 :3 <3 [3 }3 |3 13 23 33 43 i> 53 ]3 63 E( 73 83 93 03 a3 b3 c3 d3 e3 f3 f3 g3 h3 i3 n[ j3 k3 l3 m3 n3 o3 p3 q3 r3 s3 t3 u3 v3 w3 x3 y3 z3 h2 A3 B3 C3 D3 E3 F3 G3 H3 I3 J3 K3 L3 M3 N3 O3 P3 Q3 R3 S3 T3 U3 V3 W3 X3 Y3                                                                                                                                                                                                                                                                                                                         ",
"                                                                                                                                                                                                                                       Z3 `3  4 .4 +4 @4 #4 $4 %4 &4 *4 =4 -4 ;4 >4 X2 ,4 '4 )4 !4 ~4 {4 ]4 ^4 /4 (4 _4 :4 <4 [4 }4 |4 14 #* 24 34 44 54 64 74 84 94 94 04 a4 94 b4 c4 d4 e4 f4 g4 h4 i4 j4 k4 l4 l4 m4 n4 o4 p4 D( 73 q4 r4 s4 t4 u4 v4 w4 x4 y4 z4 A4 B4 C4 D4 E4 F4 G4 H4 I4 J4 K4 L4 M4 N4 O4 P4 Q4 R4 S4 :1 T4 U4 V4 W4 X4 Y4 Z4 `4  5 .5 +5 @5 #5 $5 %5 &5 *5 =5 -5 ;5 >5 ,5 '5 )5 !5                                                                                                                                                                                                                                                                                                                         ",
"                                                                                                                                                                                                                                    ~5 {5 ]5 ^5 /5 (5 _5 :5 <5 [5 }5 |5 15 25 35 45 55 65 75 '4 85 95 05 a5 b5 c5 d5 e5 f5 <4 g5 h5 i5 j5 k5 l5 m5 n5 o5 p5 q5 r5 s5 (! t5 u5 v5 w5 x5 y5 z5 A5 B5 C5 D5 E5 F5 G5 H5 K_ I5 J5 K5 v( L5 M5 N5 c} O5 P5 U_ Q5 R5 S5 T5 %_ U5 V5 W5 X5 Y5 Z5 `5  6 .6 +6 @6 #6 $6 %6 &6 *6 =6 -6 ;6 >6 ,6 '6 )6 m2 !6 ~6 {6 ]6 ^6 /6 (6 _6 :6 <6 [6 }6 |6 16 26 36 46 56 66 76 86                                                                                                                                                                                                                                                                                                                      ",
"                                                                                                                                                                                                                                    96 06 a6 b6 c6 d6 e6 :5 f6 g6 h6 i6 j6 k6 l6 m6 n6 o6 p6 q6 r6 s6 t6 u6 b5 v6 w6 x6 y6 z6 A6 B6 C6 D6 E6 F6 G6 H6 I6 J6 K6 L6 M6 N6 O6 P6 Q6 R6 S6 T6 U6 V6 W6 X6 Y6 Z6 x5 `6  7 .7 +7 @7 #7 $7 %7 &7 *7 =7 -7 ;7 >7 ,7 '7 )7 !7 ~7 c3 e} {7 ]7 ^7 /7 (7 _7 :7 <7 [7 }7 |7 17 27 37 47 57 67 77 87 97 07 a7 b7 c7 d7 e7 f7 g7 h7 i7 j7 k7 l7 m7 n7 o7 p7 q7 r7 s7 t7 u7 v7 w7                                                                                                                                                                                                                                                                                                                   ",
"                                                                                                                                                                                                                                    x7 y7 z7 A7 '' B7 C7 D7 E7 F7 G7 H7 I7 J7 K7 L7 M7 N7 O7 P7 Q7 R7 t6 3$ S7 >* T7 U7 V7 W7 X7 $= Y7 Z7 `7  8 .8 +8 @8 #8 $8 %8 &8 *8 =8 -8 ;8 >8 ,8 '8 )8 !8 ~8 {8 ]8 ^8 /8 (8 _8 _8 :8 <8 q5 [8 }8 |8 18 28 @: 38 *7 48 58 68 78 88 x| 98 08 a8 b8 c8 d8 e8 f8 g8 h8 i8 j8 k8 l8 m8 n8 o8 p8 q8 r8 s8 t8 u8 v8 w8 x8 y8 z8 A8 B8 C8 D8 E8 F8 G8 H8 I8 J8 K8 L8 M8 N8 O8 P8 Q8 R8                                                                                                                                                                                                                                                                                                                ",
"                                                                                                                                                                                                                                 S8 T8 U8 V8 W8 .4 X8 Y8 Z8 `8  9 .9 +9 @9 #9 $9 %9 &9 *9 =9 -9 ;9 >9 ,9 '9 )9 !9 ~9 {9 ]9 ^9 /9 (9 a= _9 :9 <9 [9 }9 |9 19 29 39 49 59 69 79 89 99 4, 09 a9 b9 c9 d9 e9 f9 g9 h9 i9 j9 k9 l9 m9 n9 o9 p9 q9 r9 N| N| s9 t9 u9 v9 Q1 w9 x9 y9 z9 A9 B9 C9 D9 E9 F9 G9 H9 I9 J9 K9 L9 M9 N9 O9 P9 Q9 R9 S9 T9 U9 V9 W9 X9 Y9 Z9 `9  0 .0 +0 @0 #0 $0 %0 &0 *0 =0 -0 ;0 >0 ,0 '0 )0 !0                                                                                                                                                                                                                                                                                                                ",
"                                                                                                                                                                                                                                 ~0 {0 ]0 ^0 /0 (0 ^; _0 :0 <0 [0 }0 j| |0 10 20 30 40 50 60 70 80 90 00 a0 b0 c0 d0 e0 f0 g0 h0 i0 j0 k0 l0 m0 n0 o0 p0 q0 r0 s0 o0 t0 a0 t# u0 ]+ v0 w0 x0 y0 z0 A0 B0 C0 D0 E0 F0 G0 H0 I0 J0 K0 L0 M0 N0 O0 P0 Q0 R0 S0 T0 U0 V0 *7 W0 X0 Y0 Z0 `0  a D9 E9 .a +a @a #a $a %a &a *a =a -a ;a >a ,a 'a )a !a ~a {a ]a ^a /a (a _a S8 :a <a [a }a |a 1a 2a 3a 4a 5a 6a 7a 8a 9a 0a aa                                                                                                                                                                                                                                                                                                             ",
"                                                                                                                                                                                                                                 ba ca da ea fa ga ha ia ja ka la ma na oa pa qa ra sa r0 ta ua va wa xa ya za Aa Ba Ca Da Ea E6 Fa Ga Ha Ia Ja Ka La Ma Na Oa Pa Qa Ra Sa Ta Ua Va Wa Xa Ya Za `a  b .b +b @b #b $b %b &b *b =b -b ;b >b ,b 'b )b !b ~b {b ]b ^b c4 /b (b _b N5 :b <b [b }b |b 1b 2b 3b 4b 5b 6b 7b 8b 9b 0b ab bb cb db eb fb gb hb ib jb kb lb mb nb ob pb qb rb sb tb ub vb wb xb yb zb Ab Bb Cb Db Eb                                                                                                                                                                                                                                                                                                          ",
"                                                                                                                                                                                                                              Fb Gb Hb Ib Jb Kb Lb Mb Nb Ob Pb Qb Rb Sb Tb Ub Vb Wb Xb Yb Zb `b m0  c .c +c @c #c $c %c &c *c =c -c ;c >c ,c 'c *9 )c !c ~c {c ]c ^c /c (c _c :c <c [c }c |c 1c 2c 3c 4c 5c 6c 7c 8c ]c 9c 0c ac bc cc dc ec fc gc hc ic jc kc k9 lc mc nc oc pc qc rc sc tc uc vc wc xc yc zc Ac Bc Cc Dc Ec Fc Gc Hc Ic Jc Kc Lc Mc Nc Oc Pc Qc Rc Sc Tc Uc Vc Wc Xc Yc Zc `c  d .d +d @d #d >' $d %d &d *d                                                                                                                                                                                                                                                                                                       ",
"                                                                                                                                                                                                                           =d -d ;d >d ,d ;d 'd )d !d ~d {d ]d ^d /d (d _d :d <d [d }d |d 1d :d 2d 3d 4d 5d 6d 7d 8d 9d 0d ad bd cd dd ed fd gd hd id jd kd ld md nd od pd qd rd sd td ud vd wd xd yd zd Ad Bd Cd Dd Ed Fd Gd Hd Id Jd Kd Ld Md Nd Od Pd Qd Rd Sd Td Ud Vd Wd Xd Yd Zd `d  e .e +e @e #e $e %e &e *e =e -e ;e >e ,e 'e )e !e ~e {e ]e ^e /e (e _e :e <e [e }e |e 1e 2e 3e 4e 5e 6e 7e 8e 9e 0e ae Y! be ce de                                                                                                                                                                                                                                                                                                       ",
"                                                                                                                                                                                                                        ee fe ge he ie je ke le me ne oe pe qe re se te ue ve ve we xe ye ze Ae Be Ce De Ee Ee Fe Ge He Ie Je Ke Le Me Ne Oe Pe Qe Re Se Te Ue Ve We Xe Ye Ze `e  f .f 95 +f @f #f $f %f &f *f =f -f ;f >f ,f 'f )f !f ~f {f ]f ^f /f (f _f :f Zb <f [f }f |f 1f 2f 3f 4f 5f 6f 7f 8f 9f 0f af bf cf df ef ff gf hf if jf kf lf mf nf of pf qf rf sf tf uf vf wf xf yf zf Af Bf Cf Df Ef Ff Gf Hf If Jf Kf Lf Mf                                                                                                                                                                                                                                                                                                    ",
"                                                                                                                                                                                                                     Nf Of Pf Qf Rf Sf Tf Uf Vf Wf Xf Yf Zf `f  g  g .g +g @g #g $g  8 %g &g *g %g =g -g ;g >g ,g 'g )g !g ~g {g (c ]g ^g /g (g _g :g <g [g }g Ue |g 1g 2g 3g 4g 5g 6g 7g 8g 9g 0g ag bg cg dg eg fg gg hg ig jg kg lg mg ng og pg qg rg sg tg ug vg wg n0 xg E& {3 yg zg Ag Bg Cg Dg Eg Fg Gg Hg Ig Jg Kg Lg Mg Ng Og Pg Qg Rg Sg Tg Ug Vg Wg Xg Yg Zg `g  h .h +h @h #h $h %h &h *h =h -h ;h >h ,h 'h )h !h ~h {h                                                                                                                                                                                                                                                                                                 ",
"                                                                                                                                                                                                                  ]h ^h /h (h _h :h <h [h }h |h 1h 2h 3h 4h 5h 6h 7h w; =g z% 8h 9h 0h ah bh ch dh 5& eh fh gh 6h hh ih jh kh '9 lh mh nh oh ph qh rh sh th uh vh wh xh v# yh zh Ah Bh Ch Dh Eh Fh Gh Hh Ih Jh Kh Lh Mh Nh Oh Ph Qh Rh Sh Th Uh Vh Wh Xh Yh D1 Zh ua Ja `h  i .i +i @i #i $i %i &i *i =i -i ;i >i ,i 'i )i !i ~i {i ]i ^i /i (i _i :i <i [i }i |i 1i 2i 3i 4i 5i 6i 7i 8i 9i 0i ai bi ci di ei fi gi hi ii ji ki li                                                                                                                                                                                                                                                                                                 ",
"                                                                                                                                                                                                               mi ni oi pi qi ri :; si ti ui vi wi xi yi zi Ai gh B& Bi Ci Di +: Ei Fi Gi Hi Ii Ji Ki &* P+ Li g> Mi Ni Oi Pi Ia Qi Ri Si Ti Ui Vi Wi Xi Yi Zi 8c `i  j .j +j @j #j $j Ah %j &j *j =j -j ;j >j ,j 'j )j !j ~j {j ]j ^j /j (j _j :j <j [j }j |j 1j /c 2j 3j  i 4j 5j 6j 7j 8j 9j 0j aj bj cj dj ej fj gj hj ij jj kj lj mj nj oj pj qj rj sj tj uj vj wj xj yj zj Aj Bj Cj Dj Ej Fj Gj Hj Ij Jj Kj Lj Mj Nj Oj Pj Qj Rj                                                                                                                                                                                                                                                                                              ",
"                                                                                                                                                                                                               Sf Sj Tj Uj Vj Wj Xj Yj Zj `j  k .k +k @k #k $k %k &k *k =k -k ;k >k ,k 'k l5 )k >k !k ~k {k ]k B& &k ^k /k (k wa _k :k <k [k }k |k 1k 2k 3k 35 4k 5k 6k 7k 8k 9k 0k ak bk G7 ck dk ek fk gk hk ik jk kk lk mk nk ok -. pk (j qk rk sk tk uk vk /c wk xk yk zk Ak {< Bk Ck Dk Ek Fk Gk Hk Ik Jk Kk Lk Mk Nk Ok Pk Qk Rk Sk Tk Uk Vk Wk Xk Yk Zk `k  l .l +l @l #l $l %l &l *l =l -l ;l >l ,l Uj 'l )l !l ~l {l ]l ^l /l (l                                                                                                                                                                                                                                                                                           ",
"                                                                                                                                                                                                            _l :l <l [l }l |l 1l 2l 3l 4l 5l 6l 7l 8l 9l 0l al bl cl _# dl el fl gl hl il z& jl kl ll ml nl ol pl ql rl sl tl ul vl wl xl yl zl Al Bl Cl Dl El Fl Gl Hl Il Jl Kl Ll Ml Nl Ol Pl Ql Rl Sl Tl Ul Vl Wl Xl Yl Zl `l pk  m .m +m @m #m $m %m &m *m 3j =m -m ;m h9 >m 44 ,m 'm )m !m ~m {m ]m ^m /m (m _m :m <m [m }m |m 1m 2m 3m 4m 5m 6m 7m 8m 9m 0m am bm cm dm em fm gm hm im jm km lm mm nm om pm v< qm rm sm tm um vm wm                                                                                                                                                                                                                                                                                           ",
"                                                                                                                                                                                                            xm ym zm O) Am Bm Cm Dm Em Fm Gm Hm Im Jm Km Lm Mm Nm Om Pm Qm Rm Sm Tm Um Vm Wm Xm Ym Zm s$ `m m5  n al 1f .n +n @n #n $n %n &n *n =n -n ;n >n ,n 'n )n !n ~n {n ]n ^n /n (n _n :n <n [n }n |n 1n Ph 2n 3n 4n 5n 6n 7n qk 8n 9n 0n an bn cc ^c Qd cn o0 {! [d I0 dn en fn gn hn in jn kn ln mn nn on pn qn rn sn tn un vn wn xn yn zn An Bn Cn Dn En Fn Gn Hn In Jn Kn Ln Mn Nn On Pn Qn Rn Sn Tn Un Vn Wn Xn Yn Zn `n  o .o +o                                                                                                                                                                                                                                                                                        ",
"                                                                                                                                                                                                         @o ri x  #o $o %o &o *o =o -o ;o >o ,o 'o )o !o ~o {o ]o ^o /o Sm (o _o :o <o [o }o |o 1o 2o 3o 4o 5o 6o 7o 8o 9o 0o ao bo co do eo fo go ho io jo ko lo mo no oo po qo ro so to uo vo wo xo yo zo Ao Bo Co Do Eo Fo Sh Go Ho Io Jo Ko Lo Mo No E0 Oo >b Po Qo Ro Sd So To Uo Vo Wo Xo Yo Zo `o  p .p +p @p #p $p %p &p *p =p -p ;p >p ,p 'p )p !p ~p {p ]p ^p /p (p _p :p <p [p }p |p 1p 2p 3p 4p 5p 6p 7p 8p 9p 0p ap bp cp dp ep fp                                                                                                                                                                                                                                                                                     ",
"                                                                                                                                                                                                         gp hp ip jp Am kp lp mp np op pp qp rp sp tp up vp wp 44 p# xp yp zp Ap Bp Cp Dp Ep Fp Gp Hp Ip Jp Kp s9 =2 Lp Mp Np Op Pp Qp Rp Sp Tp Up Vp Wp Xp Yp Zp `p  q .q +q @q #q $q %q &q *q =q -q ;q >q ,q 'q )q !q ~q {q ]q ^q /q (q _q :q <q [q }q [q |q 1q 2q 3q 4q 5q 6q 7q 8q 9q 0q aq bq cq dq eq fq gq hq iq jq kq lq mq nq oq pq qq rq sq tq uq vq wq xq yq zq Aq Bq Cq Dq Eq Fq Gq Hq Iq Jq Kq Lq Mq Nq Oq Pq Qq Rq Sq Tq Uq Vq Xj                                                                                                                                                                                                                                                                                     ",
"                                                                                                                                                                                                      Wq Tf Xq oi X  Yq Zq `q  r .r +r @r #r $r %r &r *r s} =r -r ;r >r ,r 'r )r !r !r ~r {r ]r ^r /r (r _r m4 :r <r [r }r |r 1r 2r 3r 4r 5r 6r 7r 8r 9r 0r ar br cr dr er fr gr hr ir jr kr lr mr nr or pr qr rr sr tr ur vr wr xr yr zr Ar Br Cr Dr Er Fr Gr Hr Ir Jr Kr L6 Lr Mr Nr Or Pr Qr Rr cq Sr Tr Ur Vr Wr Xr Yr Zr `r  s .s +s @s #s $s %s &s *s =s -s ;s >s ,s 's )s !s ~s {s ]s ^s /s (s _s :s <s [s }s |s 1s 2s 3s 4s 5s 6s 7s 8s 9s                                                                                                                                                                                                                                                                                  ",
"                                                                                                                                                                                                      0s as bs cs ds Em es fs gs hs is js ks ls ms ns os ps qs X0 rs >r ss Dp ts us vs ws ts xs ys ^r zs As l4 Bs Cs Ds Es Fs Gs Hs Is Js Ks Ls Ms Ns Os Ps Qs Rs Ss Ts Us Vs Ws Xs Ys Zs `s  t .t +t @t #t $t %t &t *t J7 =t -t ;t >t ,t 't [f I0 2q ~b Hr N0 )t !t ~t {t ]t ^t x9 /t (t _t :t <t kn [t }t |t 1t 2t 3t 4t 5t 6t 7t 8t 9t 0t at bt ct dt et ft gt ht it jt kt lt mt nt ot pt qt rt st tt ut vt wt xt yt zt At Bt Ct Dt Et Ft Gt Ht                                                                                                                                                                                                                                                                                  ",
"                                                                                                                                                                                                   It Jt Kt Lt Mt Nt Ot Pt  r Qt Rt +r St Tt Ut Vt Wt Xt Yt Zt `t  u yp Ap .u +u @u #u $u vs %u &u *u =u C( -u ;u Cs >u ,u Es 'u )u !u ~u {u ]u ^u /u (u _u :u <u [u }u |u 1u 2u 3u 4u 5u 6u 7u 8u 9u 0u au bu cu du x1 eu fu gu hu iu ju Qo Xb ku <{ lu D& mu Lr nu ou pu qu t9 ru su S/ tu uu vu wu xu yu zu Au Bu Cu Du Eu Fu Gu Hu Iu Ju Ku Lu Mu Nu Ou Pu Qu Ru Su Tu Uu Vu Wu Xu Yu Zu `u  v .v +v @v #v $v %v &v *v =v -v ;v >v ,v 'v )v !v ~v                                                                                                                                                                                                                                                                               ",
"                                                                                                                                                                                             {v ]v ^v /v (v _v qi :v <v [v }v |v 1v 2v 3v 4v 5v 6v 7v 8v 9v 0v Kp av bv cv k} dv ev fv ev gv hv iv jv kv lv mv t} nv ov pv qv rv sv tv uv vv wv xv yv zv Av Bv Cv Dv Ev Fv Gv Hv Iv Jv Kv Lv Mv Nv Ov Pv Qv Rv Sv Tv Uv Vv Wv Xv Yv Zv `v  w .w +w @w #w $w %w &w *w *w =w -w ([ ;w :b >w ,w 'w )w !w ~w {w ]w ^w /w (w _w :w <w [w }w |w 1w 2w 3w 4w 5w 6w 7w 8w 9w 0w aw bw cw dw ew fw gw hw iw jw kw lw mw nw ow pw qw rw sw tw uw vw ww xw yw ge                                                                                                                                                                                                                                                                               ",
"                                                                                                                                                                                    zw Aw Bw Cw Dw Ew Fw Gw Hw Iw Jw Kw Lw Mw Nw Ow Pw Qw Rw Sw Tw Uw Vw Ww Xw Yw X- Zw `w  x .x +x @x #x $x %x &x *x =x -x ;x >x ,x 'x )x !x ~x {x ]x ^x /x (x _x :x <x [x }x |x 1x le 2x 3x 4x %~ ^0 5x 6x 7x 8x 9x y< 0x ax bx cx dx ex fx gx hx ix jx kx lx mx nx ox px qx _3 rx sx tx ux vx wx xx yx zx Ax Bx Cx ~w Dx Ex Fx Gx Hx Ix Jx Kx Lx Mx Nx Ox Px Qx Rx Sx Tx Ux Vx Wx Xx Yx Zx `x  y .y +y @y #y $y %y &y *y =y -y ;y >y )( ,y 'y )y !y ~y {y ]y Nv ^y /y                                                                                                                                                                                                                                                                            ",
"                                                                                                                                                                              (y _y :y <y [y }y |y 1y 2y 3y 4y 5y 6y 7y 8y 9y 0y ay by cy dy ey fy gy hy e* iy jy ky ly ]@ my ny oy py hl hl qy ry sy ty d^ uy vy wy xy yy zy j4 Ay By Cy Dy Ey Fy Gy Hy Iy  r Jy Ky Ly My Ny Oy Py Qy Ry Sy Ty Uy 8x Vy Wy Xy Yy Zy `y  z .z +z @z #z $z %z &z &z *z =z -z ;z s/ &7 >z ,z 'z )z !z ~z {z ]z ^z /z (z kn _z :z <z [z }z |z 1z 2z 3z 4z 5z 6z 7z 8z 9z 0z az rq bz cz dz ez fz gz hz iz jz kz lz mz nz oz pz qz rz bs sz tz uz vz wz xz yz xw zz Az Bz Cz                                                                                                                                                                                                                                                                            ",
"                                                                                                                                                                           Dz Ez Fz Gz Hz Iz Jz Kz Lz Mz Nz Nj Oz Pz Qz Rz _u Sz Tz Uz Vz Wz Xz Yz Zz `z {t  A .A +A @A #A $A #A |{ %A &A *A =A -A ;A >A ,A 'A )A {t wy !A 8v ~A 9} {A ]A ^A /A (A _A :A <A [A }A |A mi 1A 2A 3A 4A 5A 6A 7A 8A 9A 0A aA bA cA dA eA fA gA hA fs iA jA kA lA mA nA oA oA pA qA rA O( sA tA uA vA wA xA yA zA AA BA CA Yo DA EA FA GA HA IA JA KA LA MA NA OA PA QA RA SA TA UA VA WA XA YA ZA `A  B .B +B @B #B $B %B &B *B =B -B ;B ;B >B 8p Vn Xn Xn ,B 'B g: A3 )B !B Rf                                                                                                                                                                                                                                                                         ",
"                                                                                                                                                                  ~B {B ]B ^B /B (B _B :B <B [B }B |B 1B 2B 3B 4B 5B 6B 7B 8B 9B 0B aB bB cB dB eB K0 ![ fB gB hB H6 iB jB kB H6 lB mB nB oB pB [8 qB rB sB rB tB uB vB wB xB yB zB AB 9} BB CB DB EB FB GB HB IB JB KB LB MB NB OB PB QB RB SB TB UB VB WB Vj XB YB ZB `B  C .C +C -u @C [- #C $C %C %C &C X- *C =C =7 ru -C ;C >C ,C 'C )C !C ~C {C ]C ^C /C Fg (C _C :C <C [C }C |C 1C 0  2C 3C 4C 5C 6C 7C 8C 9C 0C aC bC cC dC eC fC gC hC iC jC kC lC 3s mC nC oC pC qC rC 7p 8p Xn ,B sC tC )B uC vC wC                                                                                                                                                                                                                                                                      ",
"                                                                                                                                                         xC yC zC AC BC CC DC EC FC GC HC IC JC KC LC MC NC OC PC QC RC SC TC UC VC WC XC YC ZC `C 5, So wy uB lB H6  D  D I6 pB rl lB rl I6 +8 {t .D sB hy .D tB +D @D sB #D $D %D &D *D =D -D ;D >D ,D 'D )D !D ~D {D ]D ^D /D (D _D :D <D [D }D |D 1D 2D 3D 4D 5D 6D 7D 8D 9D 0D {3 ^3 aD bD cD dD ;k eD P_ fD gD >z hD iD jD kD lD mD nD oD pD qD rD sD tD uD vD wD xD yD zD AD BD CD DD ED FD GD HD ID JD KD LD MD ND OD PD QD RD SD TD UD VD WD XD YD ZD `D  E .E +E @E rC rC 7p Xn #E ,B tC )B $E %E &E                                                                                                                                                                                                                                                                      ",
"                                                                                                                                                   *E =E -E ;E >E ,E 'E )E !E ~E {E ]E ^E /E (E _E :E <E [E }E |E 1E 2E 3E 4E 5E 6E 7E 8E 9E 0E aE bE cE uB 1f pB dE I6 I6 I6 I6  D eE lB pB fE gE L6 .D hE hE .D L6 #w )t iE jE kE lB lE c4 mE nE oE pE qE rE sE tE uE vE wE xE yE zE AE BE CE DE EE FE GE HE IE JE KE LE ME NE X0 OE ly PE PE ky *k cl QE ly RE SE TE UE VE WE XE YE ZE `E  F .F +F @F #F $F %F &F *F =F -F ;F >F ,F 'F )F !F ~F {F ]F ^F /F (F _F :F <F [F }F |F 1F 2F 3F 4F 5F 6F 7F 8F 9F Vn 8p 8p 8p 8p 8p 7p 8p Xn #E 0F A3 A3 A3 uC aF bF                                                                                                                                                                                                                                                                   ",
"                                                                                                                                             cF dF eF fF gF hF iF jF kF lF mF nF oF pF qF rF sF tF uF vF wF xF 3a yF zF AF BF CF DF EF FF GF HF IF 3d .8 dE JF KF LF MF iB  D iB NF oB rl H6 OF I6 gE )t Z: PF QF w5 ~t @D RF SF TF TF UF VF WF XF YF ZF `F  G .G +G @G #G $G %G &G *G =G -G ;G >G ,G 'G )G !G ~G {G pp ]G ^G /G (G _G :G en +2 bl <G bl [G }G OE |G W0 1G 2G 3G 4G 5G 6G 7G 8G 9G 0G aG bG cG dG eG fG gG +; hG iG jG kG lG mG nG oG pG qG rG sG tG uG vG wG xG yG zG AG BG CG DG EG FG GG HG Xn Xn Xn Xn Xn Xn Vn Vn #E ,B IG Az JG JG Az KG LG                                                                                                                                                                                                                                                                   ",
"                                                                                                                                          MG NG OG PG QG RG SG TG UG VG WG XG YG ZG `G  H .H +H @H #H $H %H &H *H =H -H ;H >H ,H 'H )H !H ~H {H ]H ^H kB /H (H _H (H :H <H kB [H }H }H H6 [H /H :H pB  A qB |H 1H 2H 3H mu ze 4H 5H 6H 7H 8H 9H 0H aH bH cH dH eH fH gH hH iH jH kH lH mH nH oH pH qH rH sH tH uH vH wH xH oB :3  n yH yH zH AH G6 BH CH al DH EH |8 O_ +i FH GH HH IH JH KH $u LH MH NH OH PH QH RH SH TH UH VH WH XH YH ZH `H  I .I +I @I #I $I %I &I *I =I -I ;I >I ,I 'I )I !I ~I Sq {I #E #E ]I Yn ^I /I #E #E Xn ^I (I _I Az 4s 4s 4s :I ke <I                                                                                                                                                                                                                                                                ",
"                                                                                                                                       [I }I |I 1I 2I 3I 4I 5I 6I 7I 8I 9I 0I aI bI cI dI eI fI gI hI iI jI kI lI mI nI oI pI qI rI sI tI uI vI wI xI ]o yI zI AI zI BI @A CI DI EI DI }H       FI yI &w GI HI II JI KI LI MI NI OI PI QI )9 RI SI TI UI VI WI XI YI ZI `I  J .J +J @J #J $J %J &J 5= *J iA =J -J ;J >J ,J 'J )J /! 'J @D !J ~J pB G6 +A {J n5 CI {J px ou ]J &z ^J /J (J _J dv :J <J [J }J |J 1J 2J 3J 4J 5J 6J 7J 8J 9J 0J aJ bJ cJ dJ eJ fJ gJ hJ iJ jJ kJ lJ mJ nJ oJ pJ qJ rJ sJ tJ uJ sC 0F vJ wJ xJ 5F yJ zJ ,B -B AJ BJ CJ 4s JG 4s )B DJ EJ                                                                                                                                                                                                                                                                ",
"                                                                                                                                    FJ GJ HJ IJ JJ KJ LJ MJ NJ OJ PJ QJ RJ SJ TJ UJ VJ WJ XJ YJ ZJ `J  K .K +K @K #K $K %K &K *K =K -K ;K >K ,K 'K +:  n )K !K {o {o !K p5 ~K {K ]K n5             ^K &w /K >x (K _K :K <K [K }K |K 1K 2K 3K 4K 5K 6K 7K 8K 9K 0K aK bK cK dK eK fK gK hK iK jK kK lK mK nK oK pK qK rK sK tK uK uK vK VF wK xK pB yK {J zK yK AK ]t lx BK CK DK EK FK GK HK IK JK KK LK MK NK OK PK QK RK SK TK UK VK WK XK YK ZK `K  L .L +L @L #L $L %L &L *L =L -L ;L >L ,L 'L )L !L ~L {L ]L UD ^L tC /L (L <1 _L :L _I g: CJ 4s JG A3 )B <L as [L                                                                                                                                                                                                                                                             ",
"                                                                                                                                 }L |L 1L 2L 3L 4L 5L 6L 7L 8L 9L 0L aL bL cL dL eL fL gL hL iL jL kL lL mL nL oL pL qL rL sL tL uL vL wL xL yL zL &C 04 AL c= BL CL DL EL FL GL                      HL M_ M_ IL JL KL LL ML NL OL PL QL RL SL TL UL VL WL XL YL ZL `L  M .M +M @M #M #M $M %M &M *M =M -M ;M >M ,M 'M )M !M ~M {M ]M ^M /M +8 (M _M kE :M _M _M <M [M }M |M 1M 2M 3M 4M 5M 6M 7M 8M 9M 0M aM bM cM dM eM fM gM hM iM jM OB kM lM mM nM oM pM qM rM sM tM uM vM wM xM yM zM AM BM CM DM EM FM GM HM IM JM KM LM MM NM yJ Az OM Az JG JG OM PM Az QM RM                                                                                                                                                                                                                                                             ",
"                                                                                                                                 SM TM UM 3L VM WM XM YM ZM `M  N .N +N dL @N #N $N %N &N *N =N -N ;N >N ,N 'N )N !N ~N {N ]N ^N /N (N _N :N <N [N }N |N 1N 2N 2N 3N 4N 5N 43                         6N 7N 8N 9N K5 0N aN bN cN dN eN fN gN hN iN jN kN lN mN nN oN pN qN rN m4 vx sN tN uN vN wN xN yN zN AN BN CN DN EN FN bE /M GN HN IN JN KN LN MN NN ON PN n9 QN RN SN TN UN VN 1$ WN k^ XN YN ZN `N  O .O +O @O #O $O %O &O *O =O -O ;O >O ,O 'O )O !O ~O {O ]O ^O /O (O _O :O <O [O }O |O 1O 2O 3O 4O 5O 6O 7O 8O 9O `] z< $| 0O JG Az Az JG JG A3 )B Az aO bO                                                                                                                                                                                                                                                             ",
"                                                                                                                              cO dO eO fO gO hO iO jO kO lO mO nO oO pO qO rO sO tO uO vO wO xO yO zO AO BO CO DO EO FO GO HO IO JO KO LO MO NO OO PO QO RO SO TO UO VO                               WO XO YO ZO `O  P .P +P @P #P $P %P &P *P =P -P ;P >P ,P 'P )P &z &w yI !P ~P {P ]P ^P /P (P _P +< :P <P 4q {~ [P }P |P 1P 0H GN 2P 3P 4P 5P 6P 7P 8P 6P 9P 0P aP t# bP cP dP RN 2P pB ~P eP fP gP hP iP jP kP lP mP nP oP pP qP rP sP tP uP vP wP xP yP zP AP BP CP DP EP FP GP HP IP JP KP Te LP MP NP OP PP QP RP SP TP j: $| UP Az JG JG JG 4s Az Az JG !B ge VP                                                                                                                                                                                                                                                          ",
"                                                                                                                              WP XP YP ZP `P  Q .Q +Q @Q #Q $Q %Q &Q *Q =Q -Q ;Q >Q ,Q 'Q )Q !Q ~Q {Q ]Q ^Q /Q (Q _Q :Q <Q [Q }Q |Q 1Q 2Q 3Q 4Q 5Q 6Q 7Q 8Q 9Q 0Q                                     aQ bQ cQ dQ VE eQ fQ gQ hQ iQ jQ w6 kQ lQ mQ nQ oQ pQ qQ WN &A rQ sQ FI tQ uQ vQ wQ xQ yQ zQ AQ BQ CQ DQ EQ FQ GQ HQ ]+ IQ JQ KQ DQ LQ MQ NQ OQ PQ PQ QQ RQ SQ TQ UQ VQ QI WQ XQ YQ ZQ `Q  R .R 9G +R @R #R $R %R &R *R =R -R ;R >R ,R 'R )R !R Q$ ~R {R ]R ^R /R (R _R :R <R [R }R |R 1R 2R 3R 4R 5R 6R 7R 8R 9R 0R aR bR cR dR eR UP JG JG JG Az Az Az A3 fR EJ VP gR                                                                                                                                                                                                                                                       ",
"                                                                                                                           hR iR jR kR lR mR nR oR pR qR rR sR tR uR vR wR xR yR zR AR BR CR DR ER FR GR HR IR JR KR LR MR NR OR PR QR RR SR TR UR VR WR                                              XR YR ZR `R  S .S RE E* +S @S #S $S %S &S *S =S -S ;S >S ,S 'S )S )S !S tQ ~S vQ {S ]S ^S /S (S `Q _S MF :S <S [S ~M }S |S 1S 2S lB 3S 4S 5S 6S 7S 8S 9S ,u 0S aS bS cS dS ;* Vd eS fS gS O5 hS iS jS kS lS mS nS oS pS qS rS sS tS uS vS wS xS yS zS AS BS CS DS ES FS GS HS IS JS KS LS MS NS OS PS QS RS SS TS US VS WS XS YS )B OM JG A3 PM <L PM )B Bz QM ZS `S  T                                                                                                                                                                                                                                                       ",
"                                                                                                                           .T +T @T #T $T %T &T *T =T -T ;T >T ,T 'T )T !T ~T {T ]T ^T /T (T _T :T <T [T }T |T 1T 2T 3T 4T 5T 6T 7T 8T 9T 0T aT bT                                                    cT dT eT fT gT hT iT 5M jT kT lT mT nT oT pT !< k5 qT ,S =k rT sT sT t| tT uT vT wT xT yT zT AT uQ BT CT DT ET @c FT @g ih GT {J HT IT JT KT LT MT NT OT PT QT RT ST TT UT VT WT XT YT ZT `T  U .U +U @U #U $U %U &U *U =U -U ;U >U ,U 'U )R )U '{ !U ~U {U ]U ^U /U (U _U :U <U [U }U |U 1U 2U 3U 4U 5U 6U 7U 8U 9U 0U aU bU cU uz OM A3 OM )B PM PM <L :I QM dU bF eU                                                                                                                                                                                                                                                       ",
"                                                                                                                           fU gU hU iU jU kU lU mU nU oU pU qU rU sU tU uU vU wU xU yU zU AU BU CU DU EU FU GU rc HU IU JU KU LU MU NU h=                                                                OU PU QU RU SU TU 6M UU VU WU &3 XU YU ZU `U  V .V q# q# +V /o ;r z/ @V @V #V $V %V xT &V *V =V -w -V ;V >V  8 @c ,V 'V )V ]K !V ~V {V ]V ^V ^V /V (V _V qs :V <V [V }V |V 1V 2V 3V 4V 5V 6V 7V 8V 9V 0V aV bV F4 cV dV eV fV gV hV iV jV kV lV mV nV oV pV qV rV sV tV uV vV wV xV yV zV AV BV CV DV EV FV GV HV IV JV KV LV )B A3 PM A3 JG Az PM $E )B ^y MV <h NV OV                                                                                                                                                                                                                                                    ",
"                                                                                                                           PV QV RV SV TV UV VV WV XV YV ZV `V  W .W +W @W #W $W %W &W *W =W -W ;W >W ,W 'W )W !W ~W {W ]W ^W /W (W _W                                                                   :W <W [W }W |W 1W 2W IK 3W 4W 5W 6W 7W 8W 9W 0W zp aW aW bW cW dW eW .S fW fW #V gW VE TE hW iW 3G jW oA bl kW lW mW BH nW OE $V oW pW qW rW sW tW qW uW vW wW xW Fa yW 4K zW AW BW CW DW EW FW GW HW IW JW KW LW MW NW OW PW QW RW SW TW UW VW WW XW YW ZW `W  X .X +X @X #X $X %X &X *X =X -X ;X >X ,X 'X )X !X ~X {X ee Pf Q[ A3 $E A3 4s A3 Bz O~ uC ]X ^X /X (X _X                                                                                                                                                                                                                                                    ",
"                                                                                                                        :X <X [X }X |X 1X 2X 3X 4X 5X 6X 7X 8X 9X 0X aX bX cX dX eX fX gX hX Bx iX jX kX lX mX nX oX pX qX rX sX tX                                                                         uX vX wX xX yX zX AX BX CX DX DX EX FX GX HX IX JX KX LX MX NX OX PX Q1 Q1 QX gD =C @V RX @V SX SX 38 TX q# UX VX ]@ WX XX YX ZX `X  Y .Y +Y @Y #Y $Y %Y sT &Y *Y =Y -Y ;Y >Y ,Y 'Y )Y !Y ~Y {Y ]Y ^Y /Y (Y _Y :Y <Y [Y }Y |Y 1Y 2Y 3Y 4Y 5Y 6Y 7Y 8Y 9Y 0Y aY bY cY dY eY fY gY hY iY jY kY lY mY nY oY pY qY rY sY ]h ke tY uY <L PM <L :I KG vY wY xY yY zY AY BY CY                                                                                                                                                                                                                                                 ",
"                                                                                                                        DY EY FY GY HY IY JY KY LY MY NY OY PY QY RY SY TY UY VY WY XY Bx YY ZY `Y  Z .Z +Z @Z #Z $Z %Z &Z *Z =Z -Z                                                                         ;Z >Z ,Z 'Z )Z !Z ~Z {Z ]Z ^Z /Z (Z _Z :Z <Z [Z }Z |Z 1Z 2Z 3Z 4Z 5Z 6Z 7Z ,2 8Z =C .S =C .S 9Z 0Z aZ bZ cZ dZ eZ fZ gZ hZ iZ jZ kZ lZ mZ nZ oZ pZ qZ rZ sZ tZ uZ vZ wZ xZ yZ zZ AZ BZ CZ DZ EZ FZ GZ HZ IZ JZ KZ LZ MZ NZ OZ PZ QZ RZ SZ TZ UZ VZ WZ XZ YZ ZZ `Z  ` .` +` @` #` $` %` &` *` =` -` ;` >` ,` (d '` )` IB !` ~` {` OM uC fR DJ wY ]` ^` /` (` zY )F _` :`                                                                                                                                                                                                                                                 ",
"                                                                                                                        <` [` }` |` 1` 2` 3` 4` 5` 6` 7` 8` 9` 0` a` b` c` d` e` f` g` h` i` j` k` l` m` n` o` p` q` r` s` t` u`                                                                               v` w` x` y` z` A` on B` C` D` E` F` G` H` I` J` K` L` M` N` O` P` Q` R` S` T` av U` V` W` X` Y` JX Z` ``   .. .  .+ .@ .# .$ .% .& .* .= .= .- .; .> ., .' .) .! .~ .{ .] .^ ./ .( ._ .: .< .[ .} .| .1 .2 .3 .4 .5 .6 .7 .8 .9 .0 .a .b .c .d .e .f .g .h .i .j .k .l .m .n .o .p .q .r .R6 s .t .u .v .{) w .x .y .z .A .3s B .C .wY D .E .^` F .yY G .H .)F <h wC                                                                                                                                                                                                                                                 ",
"                                                                                                                     I .J .K .L .M .N .O .P .Q .R .S .T .U .V .W .X .Y .Z .` . .....+..@..#..$..%..&..*..=..-..;..>..,..'..)..                                                                                    !..~..{..]..^../..(.._..:..<..[..}..|..1..2..3..4..iS 5..6..7..8..9..0..a..b..c..d..e..f..g..h..i..j..k..l..m..n..o..p..q..r..s..t..u..v..w..r` x..y..z..A..B..C..D..E..F..G..H..I..J..K..L..M..N..O..P..Q..R..S..T..CU U..V..W..X..Y..Z..`.. +..+.++.@+.#+.$+.%+.&+.*+.=+.-+.;+.>+.,+.'+.)+.!+.~+.{+.]+.^+./+.(+._+.:+.NM <+.fR QM E .[+.}+.&E (` /y |+.AY /X |+.1+.                                                                                                                                                                                                                                             ",
"                                                                                                                     2+.3+.4+.5+.6+.7+.8+.9+.0+.a+.b+.c+.d+.e+.f+.g+.h+.i+.j+.k+.l+.m+.n+.)w o+.p+.q+.r+.s+.t+.u+.v+.w+.x+.                                                                                          y+.z+.A+.B+.C+.D+.E+.F+.G+.H+.I+.J+.K+.L+.M+.N+.O+.P+.Q+.R+.S+.T+.U+.V+.W+.X+.Y+.Z+.`+.t&  @..@.+@.@@.#@.$@.%@.A4 &@.*@.=@.-@.;@.>@.,@.'@.)@.!@.~@.{@.]@.^@./@.(@._@.:@.<@.[@.I..}@.|@.1@.2@.3@.4@.5@.6@.7@.8@.9@.0@.a@.b@.c@.d@.e@.f@.g@.h@.i@.j@.k@.l@.m@.n@.o@.p@.q@.r@.s@.t@.u@.v@.w@.x@.~! y@.z@.;X A@.B@.C@.D@.E@.F@.G@.D .as H@.MV LG `S I@.J@.K@.ee )F L@.                                                                                                                                                                                                                                             ",
"                                                                                                                     M@.N@.O@.P@.Q@.R@.S@.T@.U@.V@.W@.X@.Y@.Z@.`@. #..#.+#.@#.##.$#.%#.&#.*#.=#.-#.;#.>#.,#.'#.)#.!#.~#.                                                                                                {#.]#.^#./#.(#._#.:#.<#.[#.}#.|#.1#.2#.3#.+U 4#.5#.6#.7#.8#.9#.0#.a#.b#.c#.d#.e#.f#.g#.h#.i#.j#.k#.l#.m#.n#.o#.p#.q#.r#.s#.t#.u#.v#.w#.x#.y#.z#.A#.B#.C#.D#.V& E#.F#.G#.H#.I#.J#.K#.   L#.M#.N#.O#.P#.Q#.R#.S#.T..T#....U#.V#.W#.X#.Y#.Z#.`#. $..$.+$.@$.#$.$$.%$.&$.*$.=$.-$.;$.>$.,$.'$.)$.!$.~$.{$.]$.^$./$.($._$.:$.<$.%E ^` ZS [$.}$. T CY |$.1$.mi _` }$.                                                                                                                                                                                                                                             ",
"                                                                                                                  2$.3$.4$.5$.6$.7$.8$.9$.0$.a$.b$.c$.d$.e$.f$.g$.h$.i$.j$.k$.l$.m$.n$.o$.p$.q$.r$.s$.t$.u$.v$.w$.x$.y$.                                                                                                z$.A$.B$.C$.D$.E$.F$.G$.H$.I$.J$.4f K$.L$.D` M$.N$.O$.P$.Q$.R$.S$.T$.U$.V$.W$.X$.Y$.Z$.`$. %..%.+%.@%.#%.$%.%%.&%.*%.=%.-%.;%.>%.,%.'%.)%.!%.~%.{%.]%.^%./%.(%._%.:%.<%.[%.}%.|%.         1%.2%.3%.4%.5%.6%.7%.8%.CU 9%.0%.a%.b%.c%.d%.e%.f%.g%.h%.i%.j%.k%.l%.m%.n%.o%.p%.q%.r%.s%.t%.u%.v%.w%.x%.y%.z%.A%.B%.C%.D%.E%.F%.G%.H%.yY I%.J%.K%.L%.M%.N%.O%.)F }$.P%.                                                                                                                                                                                                                                          ",
"                                                                                                                  Q%.R%.S%.T%.U%.V%.W%.X%.Y%.Z%.`%. &..&.+&.@&.#&.$&.l+.%&.&&.*&.=&.-&.;&.>&.,&.'&.)&.!&.~&.{&.]&.^&.                                                                                                      /&.(&._&.:&.<&.[&.}&.|&.1&.2&.3&.4&.5&.6&.7&.8&.9&.0&.a&.b&.c&.d&.e&.f&.g&.h&.i&.W% j&.k&.l&.m&.n#.4..n&.o&.p&.q&.r&.s&.t&.u&.v&.w&.x&.y&.z&.A&.B&.C&.D&.E&.F&.G&.H&.I&.J&.K&.         L&.M&.N&.O&.P&.Q&.R&.S&.T&.U&.V&.W&.X&.Y&.Z&.Y#.`&. *..*.+*.@*.#*.$*.%*.&*.**.=*.-*.;*.>*.,*.'*.)*.!*.~*.{*.]*.^*./*.(*._*.:*.<*.H%.[*.}*.|*.1*.2*.3*.4*.5*.6*.Wq 7*.8*.                                                                                                                                                                                                                                          ",
"                                                                                                            9*.0*.a*.b*.c*.d*.e*.f*.g*.h*.i*.j*.k*.l*.m*.n*.o*.p*.q*.r*.s*.t*.u*.v*.w*.x*.y*.z*.A*.B*.C*.D*.E*.F*.^&.                                                                                                         G*.H*.I*.J*.K*.L*.M*.N*.O*.P*.Q*.R*.S*.T*.U*.V*.W*.X*.Y*.Z*.`*. =..=.+=.@=.#=.$=.%=.&=.*=.==.-=.;=.>=.,=.'=.)=.!=.~=.{=.]=.^=./=.(=._=.:=.<=.[=.}=.|=.1=.2=.3=.4=.5=.6=.7=.            8=.9=.0=.a=.b=.OH c=.d=.e=.f=.Bx g=.h=.i=.j=.k=.l=.m=.n=.o=.p=.q=.r=.s=.t=.u=.v=.w=.x=.y=.z=.A=.B=.C=.D=.E=.F=.G=.H=.I=.J=.K=.L=.M=.N=.O=.P=.Q=.R=.S=.T=.U=.V=.W=.X=.Y=.                                                                                                                                                                                                                                       ",
"                                                                                                      Z=.`=. -..-.+-.@-.#-.$-.%-.&-.*-.=-.--.;-.>-.,-.'-.)-.!-.~-.{-.]-.^-./-.(-._-.:-.<-.[-.}-.|-.1-.2-.3-.4-.5-.                                                                                                            6-.7-.8-.9-.0-.a-.b-.c-.d-.e-.f-.g-.h-.i-.j-.k-.l-.=: m-.n-.o-.p-.q-.r-.s-.t-.u-.v-.w-.x-.y-.z-.A-.B-.C-.D-.E-.F-.G-.~=.H-.I-.J-.K-.L-.M-.N-.hV O-.P-.Q-.R-.S-.T-.U-.V-.               D4 W-.X-.Y-.Z-.`-. ;..;.+;.@;.#;.$;.%;.&;.*;.=;.-;.;;.bm >;.,;.';.);.!;.~;.{;.];.^;./;.(;._;.:;.<;.cP [;.};.|;.1;.2;.3;.4;.5;.6;.7;.8;.9;.0;.fW a;.R=.b;.c;.d;.e;.f;.g;.                                                                                                                                                                                                                                       ",
"                                                                                                   h;.i;.j;.k;.l;.m;.n;.o;.p;.q;.r;.s;.t;.u;.v;.w;.x;.y;.z;.A;.B;.C;.D;.E;.F;.G;.H;.I;.J;.K;.L;.M;.N;.O;.P;.Q;.R;.                                                                                                            S;.T;.U;.V;.W;.X;.Y;.k-.Z;.`;. >..>. >.+>.@>.#>.$>.%>.&>.*>.=>.->.;>.>>.,>.'>.)>.!>.~>.{>.]>.^>./>.(>._>.:>.<>.[>.}>.|>.H-.1>.2>.3>.4>.5>.6>.7>.8>.9>.0>.a>.b>.c>.d>.e>.                  f>.g>.h>.i>.j>.k>.l>.m>.n>.o>.p>.q>.r>.s>.t>.u>.v>.w>.x>.y>.z>.A>.B>.C>.D>.E>.F>.G>.H>.I>.J>.K>.L>.M>.N>.O>.P>.Q>.R>.S>.T>.U>.V>.W>.X>.Y>.Z>.Mr `>. ,..,.+,.@,.#,.$,.                                                                                                                                                                                                                                       ",
"                                                                                                   %,.&,.*,.=,.-,.;,.>,.,,.',.),.!,.~,.{,.],.^,./,.(,._,.:,.<,.[,.},.|,.1,.2,.3,.4,.5,.6,.7,.8,.9,.0,.a,.b,.c,.                                                                                                                  d,.e,.f,.R# g,.h,.i,.j,.k,.l,.m,.n,.o,.p,.q,.r,.u] s,.t,.l- u,.v,.w,.x,.y,.&* z,.A,.B,.C,.D,.E,.F,.G,.H,.I,.J,.K,.L,.G-.M,.N,.O,.P,.Q,.R,.S,.T,.U,.V,.W,.X,.Y,.Z,.`,.                   '..'.+'.@'.#'.$'.%'.&'.*'.='.-'.;'.>'.,'.''.u>.)'.!'.~'.{'.]'.^'./'.('._'.:'.<'.['.}'.|'.1'.2'.3'.4'.5'.6'.7'.8'.9'.0'.a'.b'.c'.d'.e'.wT f'.g'.SX h'.i'.j'.k'.l'.m'.n'.                                                                                                                                                                                                                                    ",
"                                                                                                o'.p'.q'.r'.s'.t'.u'.v'.w'.x'.y'.z'.A'.B'.C'.D'.E'.F'.G'.H'.I'.J'.K'.L'.M'.N'.O'.P'.Q'.R'.S'.T'.U'.V'.W'.X'.                                                                                                                     Y'.Z'.`'. )..).+).@).#).$).%).&).*).*).=).-).;).>).,).').)).!).~).{).]).^).8] IL /).()._).:).<).[).}).|).1).2).3).4).5).6).7).8).9).0).a).b).c).d).e).f).g).h).i).j).                     k).l).m).n).o).p).q).r).s).t).u).-$.v).w).x).y).z).A).B).C).D).E). e F).G).H).I).J).K).L).M).N).,g 6, t0 O).P).Q).R).S).T).U).V).W).X).Y).Z).W0 dW `). !..!.+!.@!.#!.                                                                                                                                                                                                                                    ",
"                                                                                                $!.%!.&!.*!.=!.-!.;!.>!.,!.'!.)!.!!.~!.{!.]!.^!./!.(!._!.:!.<!.[!.}!.|!.1!.2!.3!.4!.5!.6!.7!.8!.9!.0!.a!.                                                                                                                        b!.c!.d!.e!.f!.g!.hG h!.i!.j!.k!.l!.m!.n!.o!.p!.q!.r!.s!.t!.u!.v!.w!.x!.y!.z!.== A!.B!.C!.D!.E!.F!.G!.H!.I!.J!.K!.L!.M!.N!.O!.P!.Q!.R!.S!.T!.U!.z$.V!.W!.X!.Y!.Z!.`!.                      ~..~.+~.@~.j>.#~.$~.%~.&~.t).*~.=~.-~.;~.>~.,~.'~.)~.!~.~~.{~.]~.^~./~.(~._~.:~.<~.[~.}~.q[ |~.1~.2~.3~.4~.5~.6~.7~.8~.9~.0~.a~.BQ ,x wp b~.5o c~.d~.e~.f~.g~.h~.i~.                                                                                                                                                                                                                                    ",
"                                                                                             j~.k~.l~.m~.n~.o~.p~.q~.r~.s~.t~.u~.v~.w~.x~.y~.z~.A~.B~.C~.D~.E~.F~.G~.H~.I~.J~.K~.L~.M~.N~.O~.P~.Q~.R~.                                                                                                                           S~.T~.f,.U~.V~.W~.X~.Y~.Z~.`~. {..{.n!.+{.@{.#{.${.t,.%{.&{.*{.={.-{.;{.>{.,{.'{.){.!{.~{.{{.]{.^{./{.({._{.:{.<{.'w [{.}{.|{.1{.2{.3{.4{.5{.6{.7{.8{.9{.0{.a{.b{.c{.                        d{.e{.f{.g{.h{.i{.j{.m>.k{.l{.U&.m{.n{.o{.p{.q{.r{.s{.t{.u{.v{.w{.x{.y{.z{.A{.B{.C{.D{.E{.F{.#< G{.H{.I{.J{.K{.L{.M{.9;.N{.O{.-V <8 P{.Q{.FL en X_ R{.S{.T{.U{.V{.                                                                                                                                                                                                                                    ",
"                                                                                          W{.X{.Y{.Z{.`{. ]..].+].@].#].$].%].&].*].=].-].;].>].,].'].)].!].~].{].]].^]./].(]._].:].<].[].}].|].1].                                                                                                                              2].3].4].5].6].7].8].9].0].a].b].c].d].e].f].g].h].i].j].k].l].3Q m].n].o].,{.p].q].r].s].t].u].v].w].x].y].z].A].B].C].D].E].F].G].H].I].J].K].L].M].N].O].P].Q].R].                        S].T].U].V].W].X].Y].Z].`].fq  ^..^.+^.@^.#^.$^.%^.&^.*^.=^.-^.;^.>^.,^.'^.)^.!^.~^.{^.]^.E{.^^.vx /^.(^._^.:^.LE <^.[^.d[ Mm }^.|^.1^.2^.3^.4^.5^.6^.7^.f~.8^.9^.0^.                                                                                                                                                                                                                                 ",
"                                                                                          a^.b^.c^.d^.e^.f^.g^.h^.i^.j^.k^.l^.m^.n^.o^.=I p^.q^.r^.s^.t^.u^.v^.w^.x^.y^.z^.A^.B^.C^.D^.E^.                                                                                                                                       F^.G^.H^.I^.J^.K^.L^.M^.N^.O^.P^.Q^.R^.Q^.S^.^{.T^.U^.V^.W^.X^.Y^.Z^.`^.sY  /.p/ ./.+/.s].@/.#/.$/.o!.%/.&/.*/.=/.-/.;/.>/.,/.'/.)/.!/.~/.{/.]/.^/.//.(/._/.:/.</.[/.                           {-.}/.|/.1/.2/.3/.4/.5/.##.U&.6/.7/.8/.9/.0/.a/.b/.c/.ej d/.e/.f/.g/.h/.i/.j/.k/.l/.m/.8- n/.o/.p/.q/.r/.s/.t/.u/.L= `t v/.w/.x/.^! ya Li y/.2- M1 z/.A/.B/.C/.D/.                                                                                                                                                                                                                                 ",
"                                                                                          E/.F/.G/.H/.I/.J/.K/.L/.M/.N/.O/.P/.Q/.R/.S/.T/.U/.V/.W/.X/.Y/.Z/.`/. (..(.+(.@(.#(.                                                                                                                                                      $(.%(.&(.*(.=(.-(.;(.>(.,(.'(.)(.!(.~(.{(.](.^(./(.((._(.:(.<(.[(.}(.|(.1(.2(.3(.4(.5(.6(.7(.8(.4@.l!.*/.9(.0(.a(.b(.c(.d(.e(.f(.g(.h(.i(.j(.k(.l(.m(.n(.o(.p(.q(.                           r(.s(.t(.u(.v(.w(.x(.y(.z(.A(.B(.C(.D(.E(.F(.G(.H(.I(.J(.K(.L(.M(.N(.O(.P(.Q(.R(.k/.S(.T(.U(.V(.W(.X(.Y(.Z(.`(. _.._.+_.@_.#_.4d $_.<S 0h %_.%C &_.*_.=_.-_.;_.>_.                                                                                                                                                                                                                                 ",
"                                                                                          ,_.'_.)_.!_.~_.{_.]_.^_./_.(_.__.:_.<_.[_.}_.|_.1_.2_.3_.4_.5_.6_.7_.8_.9_.                                                                                                                                                               0_.a_.b_.c_.d_.e_.f_.g_.h_.i_.j_.k_.l_.](.m_.n_.o_.p_.q_.r_.TR s_.t_.u_.#C v_.w_.x_.y_.z_.A_.B_.C_.D_.E_.F_.G_.H_.I_.J_.K_.L_.8(.M_.N_.O_.P_.Q_.R_.S_.T_.U_.V_.W_.                              X_.Y_.|/.Z_.`_. :..:.+:.@:.#:. a $:.%:.&:.*:.=:.-:.;:.>:.,:.':.):.!:.~:.{:.]:.^:./:.(:._:.::.<:.[:.}:.|:.1:.2:.3:.ol %_.=g $_.4:.jh 5:.6:.QE Q_ 7:.8:.9:.0:.a:.b:.                                                                                                                                                                                                                              ",
"                                                                                          c:.d:.e:.f:.g:.h:.i:.j:.k:.l:.m:.n:.o:.p:.q:.r:.s:.t:.u:.=F v:.w:.x:.y:.z:.                                                                                                                                                               A:.B:.C:.D:.E:.F:.i).G:.H:.I:.J:.K:.L:.c] M:.N:.O:.P:.Q:.R:.S:.h'.c..sy T:.U:.V:.W:.X:.Y:.Z:.`:. <..<.+<.@<.#<.$<.%<.&<.*<.=<.o_.-<.;<.><.,<.'<.W).)<.!<.~<.{<.]<.                              ^<.s(./<.(<._<.IZ :<.<<.[<.}<.|<.1<.2<.3<.4<.5<.6<.7<.8<.9<.0<.a<.b<.c<.d<.e<.i/.f<.g<.h<.i<.j<.k<.l<.m<.n<.o<.p<.%C 6:.za q<.3d r<.s<.t<.u<.|~.7:.v<.w<.x<.y<.z<.                                                                                                                                                                                                                              ",
"                                                                                          A<.B<.d*.C<.=N D<.E<.F<.G<.H<.I<.J<.K<.L<.G_.M<.N<.O<.P<.Q<.R<.S<.T<.U<.V<.                                                                                                                                                               W<.X<.Y<.Z<.`<. [..[.+[.@[.#[.$[.%[.&[.*[.=[.-[.;[.>[.,[.`% '[.)[.![.~[.{[.][.^[./[.([._[.:[.<[.A-.[[.}[.S/ |[.1[.2[.3[.4[.5[.6[.7[.R=.8[.L= vx 9[.0[.a[.b[.c[.d[.                                 ^<.e[.f[.g[.h[.i[.j[.k[.l[.m[.n[.o[.p[.q[.r[.s[.t[.u[.v[.w[.x[.y[.z[.A[.B[.C[.D[.E[.F[.G[.H[.I[.J[.K[.L[.M[.}(.3o BH ah N[.X# X# O[.P[.Q[.R[.S[.T[.U[.w* V[.W[.                                                                                                                                                                                                                              ",
"                                                                                          X[.Y[.Z[.`[. }..}.+}.@}.#}.$}.%}.&}.*}.=}.-}.;}.N+.>}.f>.,}.'}.)}.!}.~}.                                                                                                                                                                  {}.]}.^}./}.(}._}.:}.<}.[}.}}.|}.1}.2}.c{.3}.4}.5}.6}.7}.8}.9}.0}.a}.53 b}.c}.d}.e}.f}.g}.t4 ,m h}.3[.%<.Z0 i}.j}.k}.[[ l}.m}.n}.o}.p}.q}.7N 0v s} %D nv r}.s}.t}.u}.                                 ^<.v}.w}.x}.y}.z}.A}.B}.C}.D}.E}.F}.G}.H}.I}.J}.K}.L}.M}.N}.O}.P}.Q}.R}.S}.T}.U}.V}.W}.X}.Y}.Z}.A-.`}. |..|.Zw +|.bl @|.H{.#|.FL _3 $|.%|.6[.&|.*|.=|.-|.;|.                                                                                                                                                                                                                              ",
"                                                                                          >|.,|.'|.)|.!|.~|.{|.]|.^|./|.(|._|.:|.<|.[|.DX }|.||.1|.2|.3|.4|.5|.6|.                                                                                                                                                                     7|.8|.9|.0|.a|.b|.c|.d|.e|.f|.g|.h|.i|.j|.k|.n}.l|.m|.n|.o|.p|.q|.r|.s|.t|.u|.v|.w|.x|.y|.z|.A|.B|.C|.m{ D|.5* E|.F|.e} G|.=7 H|.I|.mv J|.nv q} K|.L|.M|.N|.O|.P|.Q|.                                 R|.S|.T|.U|.#&.V|.W|.X|.Y|.Z|.`|. 1..1.+1.@1.#1.$1.%1.&1.*1.=1.-1.;1.>1.,1.'1.)1.!1.~1.{1.]1.^1./1.y4 (1._1.:1.A( <1.[1.[1.`t WE 2f }1.|1.11.21.31.41.51.                                                                                                                                                                                                                              ",
"                                                                                          61.71.81.91.01.a1.b1.c1.d1.e1.f1.g1.h1.i1.j1.k1.ev l1.m1.n1.o1.p1.q1.                                                                                                                                                                        r1.s1.t1.u1.v1.w1.x1.c|.y1.z1.A1.B1.C1.D1.n}.E1.F1.G1.H1.I1.V/ J1.K1.K1.L1.M1.N1.O1.P1.Q1.R1.S1.T1.U1.V1.W1.X1.Y1.Z1.`1. 2.-r .2.+2.t5 @2.#2.$2.%2.Rw Qw &2.*2.=2.-2.;2.                              W5 >2.,2.'2.$&.)2.!2.~2.{2.]2.^2./2.(2._2.:2.<2.[2.}2.|2.12.22.32.42.52.62.72.82.U}.92.02.a2.b2.c2.d2.e2.f2.g2.6}.h2.U` b} y9 ;w z; i2.j2.k2.l2.m2.n2.o2.p2.                                                                                                                                                                                                                           ",
"                                                                                          q2.r2.s2.t2.u2.v2.w2.x2.y2.z2.A2.B2.C2.D2.E2.F2.G2.H2.I2.J2.K2.L2.                                                                                                                                                                        M2.N2.O2.P2.Q2.R2.S2.T2.0;.wN Y- U2.V2.W2.X2.Y2.R1 w| Z2.`2. 3..3.0D +3.@3.#3.$3.%3.&3.*3.=3.-3.;3.>3.,3.'3.)3.!3.Fp ~3.{3.iT ]3.^3./3.hE (3._3.:3.<3.[3.ar }3.|3.13.23.33.                                 =}.43.53.63.73.*U 83.93.03.a3.b3.c3.d3.e3.f3.g3.h3.i3.j3.k3.l3.m3.n3.o3.p3.72.q3.r3.s3.t3.u3.v3.w3.x3.y3.z3.su A3.B3.C3.D3.q[ E3.F3.G3.H3.I3.J3.K3.L3.M3.                                                                                                                                                                                                                           ",
"                                                                                          N3.O3.P3.Q3.R3.S3.T3.U3.V3.bG W3.X3.Y3.Z3.`3. 4..4.+4.@4.#4.$4.                                                                                                                                                                           %4.&4.*4.=4.-4.;4.>4.:~ ,4.'4.c}.)4.!4.!4.~4.QX -7 Mr L= {4.]4.^4./4.(4._4.:4.<4.[4.}4.|4.14.24.34.44.54.64.74.84.94.04.a4.b4.'V c4.d4.e4.f4.g4.h4.i4.j4.k4.l4.m4.n4.o4.p4.                                 q4.r4.I[.p#.s4.*~.t4.u4.v4.w4.^m x4.y4.z4.A4.B4.lV C4.D4.E4.F4.G4.H4.n3.I4.J4.K4.L4.M4.N4.O4.P4.Q4.R4.S4.I_.T4.U4.V4.W4.X4.Y4.Z4.`4. 5.S/ .5.+5.@5.#5.$5.                                                                                                                                                                                                                           ",
"                                                                                          %5.&5.*5.=5.-5.;5.>5.,5.'5.)5.!5.~5.{5.]5.^5./5.(5.#4._5._5.                                                                                                                                                                              :5.<5.[5.}5.|5.15.25.35.25.45.p}.b} .S 55.55.QX =C n4 65.75.^4.85.95.05.a5._W b5.c5.d5.e5.f5.g5.h5.=3.i5.j5.k5.l5.m5.+V n5.|{ GT o5.[# Sd p5.q5.r5.s5.t5.u5.v5.w5.x5.y5.z5.A5.                                 B5.C5.D5.E5.F5.G5.H5.I5.J5.K5.L5.M5.Y;.N5.O5.P5.Q5.R5.S5.T5.U5.V5.W5.X5.Y5.Z5.`5. 6..6.+6.@6.CU #6.$6.%6.&6.p!.T4.*6.=6.-6. <.j<.C_.;6.>6.,6.'6.)6.0>.                                                                                                                                                                                                                           ",
"                                                                                             !6.~6.{6.]6.^6./6.(6.!=._6. {.:6.<6.<6.<6.[6.}6.|6.                                                                                                                                                                                    16.26.36.46.56.66.76.86.96.06.a6.b6.$|.SE u| u| z/ 1G c6.dQ d6.e6.f6.g6.h6.i6.j6.k6.O1.l6.m6.n6.o6.p6.*u q6.r6.s6.t6.)k u6.v6.w6.x6.y6.z6.A6.B6.C6.D6.E6.F6.G6.H6.I6.J6.K6.L6.                                    M6.N6.O6.8j P6.Q6.R6.S6.T6.U6.V6.W6.X6.Y6.Z6.`6. 7..7.+7.@7.#7.$7.%7.&7.*7.=7.-7.;7.>7.,7.Q'.'7.6 .)7.!7.~7.{7.]7.^7./7..5.(7._7.:7.<7.[7.}7.|7.V,.17.                                                                                                                                                                                                                        ",
"                                                                                                27.37.47.57.67.77.87.97.07.a7.b7.c7.c7.                                                                                                                                                                                             d7.e7.hA f7.g7.h7.i7.j7.k7.l7.'{.l4 m7.n7.o7.p7.)3 gW ux q7.r7.s7.t7.u7.v7.w7.x7.y7.,[.^r ,*.z7.A7.B7.C7.D7.E7.F7.G7.H7.^H 1$ b0 I7.J7.K7.L7.M7.N7.do O7.P7.Q7.R7.S7.T7.U7.V7.W7.                                 X7.Y7.Z7._<.`7. 8..8.+8.@8.#8.$8.%8.&8.*8.=8.-8.;8.>8.,8.'8.)8.!8.~8.{8.]8.^8./8.(8._8.:8.<8.[8.}8.|8.)w 18.28.38.48.58.68.78.88.98.08.a8.b8.c8.d8.e8.                                                                                                                                                                                                                        ",
"                                                                                                   f8.g8.h8.~=.i8.j8.k8.l8.m8.n8.o8.                                                                                                                                                                                                p8.q8.Zq r8.s8.t8.u8.v8.w8.x8.y8.z8.;z A8.p7.p7.B8.pc 8N C8.D8.E8.F8.G8.H8.N1.I8.J8.K8.jv L8.M8.N8.O8.P8.Q8.R8.S8.T8.U8.V8.W8.X8.Y8.Z8.`8. 9..9.+9.@9.#9.$9.%9.&9.*9.=9.-9.;9.>9.,9.'9.)9.                           !9.~9.{9.]9.^9./9.(9._9.:9.<9.[9.}9.|9.19.29.39.49.59.69.79.89.99.09.a9.@; b9.c9.d9.e9.f9.g9.h9.i9.|8.j9.O4.k9.l9.:t :t m9.n9.o9.p9.q9.r9.s9.t9.u9.                                                                                                                                                                                                                        ",
"                                                                                                      v9.w9.x9.y9.z9.A9.g} {7                                                                                                                                                                                                       B9.36.C9.`q D9.E9.F9.YF G9.H9.I9.J9.K9.L9.M9.p7.!3 uT N9.O9.P9.Q9.R9.S9.</.T9.U9.V9.W9.X9.Y9.Z9.`9. 0..0.+0.@0.#0.$0.%0.&0.*0.=0.-0.;0.>0.,0.'0.)0.!0.;4 ~0.{0.]0.^0./0.(0._0.:0.<0.[0.}0.|0.                           B5.10.20.30.40.50.q=.60.70.80.90.00.a0.b0.c0.d0.e0.f0.g0.h0.i0.j0.k0.l0.m0.n0.o0.p0.q0.r0.s0.t0.i9.u0.v0.w0.x0.)7.y0.z0.A0.B0.C0.D0.E0.F0.G0.H0.                                                                                                                                                                                                                        ",
"                                                                                                         I0.J0.K0.L0.C4 M0.                                                                                                                                                                                                      N0.O0.P0.kp Q0.R0.S0.T0.U0.f^ V0.W0.X0.nl +_.Y0.OE !3 v9 @V Z0.`0.Y>. a.o/.i|.4}..a.+a.@a.#a.$a.%a.&a.*a.=a.-a.;a.#0.>a.,a.'a.)a.!a.~a.{a.]a.^a./a.(a._a.:a.<a.[a.}a.|a.1a.2a.3a.4a.5a.6a.7a.8a.9a.                        0a.aa.ba.ca.da.ea.fa.ga.ha.ia.ja.ka.la.ma.na.oa.'8.69.pa.g0.V% qa.ra.sa.ta.ua.va.wa.xa.ya.za.Aa.U/.Ba.Ca.Da.+6.Ea.Fa.Ga.Ha.Ia.Ja.Ka.La.Ma.Na.Oa.                                                                                                                                                                                                                        ",
"                                                                                                                                                                                                                                                                                                                                 Pa.Qa.Yq Ra.Kw Sa.Ta.Ua.Va.Wa.Xa.Ya.2~.%_.+2 bl {< Za.`a.vW pc  b..b.tN +b.@b.!7 #b.$b.%b.Fp &b.*b.k5.=b.-b.;b.>b.,b.'b.)b.bS !b.~b.{b.]b.^b./b.(b._b.:b.<b.[b.Ve }b.|b.1b.2b.3b.4b.5b.6b.7b.8b.9b.0b.                        ab.bb.HW cb.Q'.db.eb.fb.gb.hb.ib.jb.kb.lb.mb.nb.ob.pb.qb.rb.sb.tb.ub.vb.wb.xb.yb.zb.Ab.Bb.Cb.Db.Eb.Fb.Gb.Hb.Ib.Jb.Kb.#:.Lb.Mb.Nb.Ob.Pb.Qb.Rb.                                                                                                                                                                                                                        ",
"                                                                                                                                                                                                                                                                                                                              Sb.Tb.Ub.Vb.Wb.R0.Xb.Yb.Zb.`b. c..c.-8 69 6& vK +c.'V }H FI @c.#c.$c.%c.*7 Q1 &c.*c.n}.=c.h'.-c.;c.C* 8* >c.Vm 9* ,c.'c.)c./@ v; !c.~c.{c.Qa ]c.^c./c.(c._c.:c.<c.[c.}c.|c.1c.2c.3c.4c.5c.6c.7c. [ 8c.9c.0c.                        ac.bc.cc.:T dc.ec.fc.gc.hc.ic.jc.kc.lc.mc.nc.oc.pc.qc.rc.sc.tc.uc.vc.wc.xc.yc.zc.Ac.Bc.Cc.Dc.Ec.Fc.Gc.Hc.Ic.Jc._-.Kc.Lc.Mc.Nc.Oc.Pc.Qc.Rc.Sc.                                                                                                                                                                                                                     ",
"                                                                                                                                                                                                                                                                                                                              Tc.Uc.Vc.Wc.Xc.Yc.Zc.`c. d..d.+d.@d.#d.$d.}f %d.W8.jh xK &d.FI *d.=d.zI -d.RE ;d.>d.,d.'d.)d.!d.~d.{d.]d.z& ^d.n@ !< /d.(d.+: _d.B& :d.<d.[d.}d.|d.1d.09 2d.3d.4d.Ho 5d.6d.7d.8d.9d.0d.ad.bd.cd.dd.ed.fd.gd.hd.                     id.jd.kd.ld.md.nd.od.pd.qd.rd.sd.td.ud.vd.wd.xd.yd.zd.Ad.Bd.Cd.Dd.Ed.Fd.Gd.nc.Hd.Id.Jd.Kd.Ld.Md.Nd.Od.Pd.#*.Qd.Rd.Sd.Td.Ud.Vd.Wd.Xd.Yd.Zd.`d.                                                                                                                                                                                                                     ",
"                                                                                                                                                                                                                                                                                                                            e..e.+e.@e.#e.$e.%e.&e.*e.=e.-e.b9 ;e.>e.,e.'e.)e.xa !e.~e./~  D BI NF {e.]e.A8.^e./e.(e._e.:e.<e.[e.3:.3:.my m@ y/ >k >k }e.N+ |e.1e.2e.3e.)P 4e.5e.6e.(' ^b.7e.#m 8e.9e.0e.ae.be.ce.de.ee.fe.ge.he.ie.je.ke.le.me.                     ne.oe.pe.qe.re.se.zc.te.ue.ve.we.xe.ye.ze.Ae.Be.Ce.De.Ee.Fe.Ge.He.Ie.Je.Ke.Le.Me.Ne.Oe.Pe.Qe.Re.Se.Te.Ue.Ve.We.Xe.Ye.Ze.`e. f..f.+f.@f.#f.                                                                                                                                                                                                                     ",
"                                                                                                                                                                                                                                                                                                                           $f.%f.&f.*f.=f.-f.;f.>f.,f.'f.)f.!f./a.~f.{f.]f. i ^f./f.(f.Ae A% _f.I6 :f.<f.Y0.[f.]@ m/ }f.|f.1f.[$ 2f.3f.[$ 4f.[f.m/ m/ m/ y( %C 5f.bD 6f.7f.8f.9f.0f.]c.%b r6 af.bf.cf.9e.df.ef.ff.gf.hf.if.jf.kf.lf.mf.nf.of.pf.qf.rf.                  ^<.sf.tf.uf.}Y vf.wf.xf.yf.zf.Af.Bf.Cf.Df.Ef.Ff.Gf.Hf.If.Jf.Kf.Lf.Mf.Nf.Of.Pf.Qf.Rf.Sf.Tf.Uf.Vf.Wf.Qd.Xf.Yf.Zf.`f. g..g.+g.@g.#g.$g.%g.                                                                                                                                                                                                                     ",
"                                                                                                                                                                                                                                                                                                                        &g.*g.=g.-g.;g.>g.,g.'g.)g.!g.~g.{g.]g.*n ^g./g.(g._g.:g.<g.B% [g.1S Ni }g.jB #A Y0.Om |g.Pm 2% 1g.h+ 2g.2f.3g.]@ ]@ +|.y( y( y( 2- %C 4g.$C bD 5g.}f.^J =8 Qa ud 6g.7g.8g.#m wr ]f 9g.0g.ag.bg.cg.dg.eg.fg.gg.hg.ig.jg.|3.kg.lg.mg.               p1.ng.S*.og.pg.qg.rg.Gc.sg.tg.ug.vg.wg.xg.yg.zg.Ag.Bg.Cg.Dg.Eg.Fg.Gg.Hg.Ig.Jg.Kg.Lg.Mg.Ng.Og.Pg.l[.Qg.Rg.Sg.Tg.Ug.Vg.Wg.Xg.Yg.Zg.`g.                                                                                                                                                                                                                     ",
"                                                                                                                                                                                                                                                                                                                         h..h.+h.aa @h.#h.$h.%h.&h.*h.=h.-h.;h.>h.,h.'h.Ko Wa )h.!h.ve ~h.[g.UF lB {h.)V ]h.^h.S@ 4f.$C 7f./h.(h.|g.(h._h.+|.y( %C %C %C %C %C :h.4g.5f.h+ bD <h.}S [h.}h.|h.1h.2h.3h.4h.5h.6h.7h.%t 8h.9h.0h.ah.bh.ch.dh.de.eh.fh.gh.hh.ih.jh.kh.            R|.lh.mh.I).nh.oh.ph.qh.rh.sh.th.uh.vh.wh.xh.yh.zh.Ah.Bh.Ch.Dh.Eh.Nf.Fh.Gh.Hh.Ih.Jh.Kh.Lh.Mh.Nh.Oh.Ph.Qh.Rh.Sh.Th.Uh.Vh.Wh.Xh.Yh.                                                                                                                                                                                                                     ",
"                                                                                                                                                                                                                                                                                                                     Zh.`h. i..i.+i.@i.#i.$i.%i.&i.*i.=i.-i.;i.>i.,i.+b 'i.)i.!i.~i.{i.^! Ae ]i.@2 ox ^i./i.(i.2g.4f._i.:i.1f.%C y( m/ y( y( 2- :h.:h.:h.:h.%C %C %C :h.4g.$C x; s# <i.[i.}i.|i.1i.2i.3i.4i.5i.Id 6i.7i.8i.9i.0i.ai.bi.ci.di.ei.fi.gi.hi.ii.ji.ki.li.         :b I[.k8.mi.ni.oi.pi.qi.ri.si.ti.ui.vi.wi.xi.yi.zi.Ai.Bi.Ci.Di.Ei.Fi.Gi.Hi.Ii.Ji.Ki.Li.Mi.Ni.Oi.Pi.Qi.Ri.Si.Ti.Ui.Vi.Wi.Xi.Yi.Zi.                                                                                                                                                                                                                     ",
"                                                                                                                                                                                                                                                                                                                     `i. j..j.+j.@j.#j.$j.%j.&j.*j.=j.-j.;j.>j.,j.'j.p6 )j.!j.~j.!b.{j.[g.]M ,V ql ]j.yH ^j.z( +V ]@ /j.(j._j./j.:j.5f.:h.2- 2- %C :h.4g.4g.:h.%C 2- 2- %C 4g.<j.[j.}j.|j.1j.2j.3j.4j.5j.6j.7j.7j.8j.9j.0j.aj.bj.cj.dj.ej.fj.gj.hj.ij.jj.kj.lj.mj.nj.oj.pj.      qj.rj.sj.tj.uj.vj.wj.xj.yj.zj.Ca.Aj.Bj.Cj.Dj.Ej.Fj.Gj.Hj.Ij.Jj.Kj.Lj.Mj.Nj.Oj.Pj.Qj.Rj.Sj.Tj.Uj.Vj.Wj.Xj.Yj.Zj.`j. k..k.+k.@k.                                                                                                                                                                                                                     ",
"                                                                                                                                                                                                                                                                                                                  #k.$k.%k.&k.*k.=k.-k.;k.>k.,k.'k.)k.!k.~k.{k.]k.^k./k.(k.Mo ~j._k./) JQ :k.$k ]k yH FL ]3.TX <k._h.[k.sY }k.|k.[- 1k.4g.2- y( 2- %C 4g.5f.4g.:h.%C %C :h.$C 2k.3k.4k.5k.6k.7k.8k.9k.0k.ak.bk.ck.ck.dk.ek.fk.gk.ig hk.ik.jk.kk.lk.mk.nk.kk.ok.pk.#@ qk.rk.sk.      Q].tk.'_ uk.vk.wk.xk.yk.zk.Ak.Bk.Ck.Ea.Dk.Ek.Fk.Gk.Hk.Ik.Jk.Kk.Lk.Mk.Nk.Nk.Ok.Pk.Qk.Rk.Sk.Tk.Uk.Vk.Wk.Xk.Yk.Zk.`k. l..l.+l.                                                                                                                                                                                                                     ",
"                                                                                                                                                                                                                                                                                                                  @l.#l.%k.$l.%l.&l.*l.=l.-l.;l.>l.,l.'l.)l.!l.~l.Yi {l.]l.^l.!i./l.8H 6& /! nx %w =z en (l._l.+|.m/ :l.<l.[l.(j._j./j.5f.y( +|.m/ 2- 4g.5f.5f.4g.:h.:h.5f.bD }l.|l.Lo 1l.2l.3l.3l.4l.5l.6l.7l.8l.8l.9l.0l.al.bl.cl.cl.Jh dl.el.fl.gl.hl.il.jl.kl.ll.ml.U7.nl.ol.pl.ql.rl.sl.tl.ul.vl.wl.xl.yl.zl.Al.Bl.Cl.Dl.El.Fl.Gl.Hl.Il.Jl.Kl.Ll.Ml.Nl.Jj.Ol.Pl.Ql.Rl.Sl.Tl.Ul.Vl.Wl.Xl.Yl.Zl.`l. m..m.+m.                                                                                                                                                                                                                     ",
"                                                                                                                                                                                                                                                                                                               @m.#m.$m.$k.%m.&m.*m.=m.-m.;m.>m.,m.'m.)m.!m.~m.{m.]m.^m.{f /m.(m._m.:m.6& RT nu qx O_ u<.QE <m.m/ _h.[m.}m.}m.|f.:i.1f.4g.y( _h.<k.m/ :h.$C $C $C 5f.$C bD }f.|m.1m.2m.3m.4m.5m.6m.7m.8m.9m.0m.9m.am.bm.cm.dm.em.fm.gm.hm.im.jm.km.lm.mm.nm.om.pm.qm.rm.sm.tm.um.vm.wm.xm.ym.zm.Am.Bm.Cm.Dm.Em.Fm.Gm.Hm.Im.Jm.Km.Lm.Mm.Nm.Om.Pm.Qm.Rm.Sm.Tm.Um.Vm.Wm.Xm.Ym.Zm.`m. n..n.+n.@n.#n.$n.%n.&n.*n.=n.                                                                                                                                                                                                                     ",
"                                                                                                                                                                                                                                                                                                               -n.;n.>n.,n.'n.)n.!n.~n.{n.]n.^n./n.(n._n.:n.<n.[n.}n.|n.1n.2n.3n./l.;* 3~.4n.pl 5n._3 `t PE 6n.y( (h.2% 7n.7n._j.[- bD %C m/ ]@ +V +|.%C $C h+ h+ h+ bD 8n.:i.9n.p. 0n.an.bn.cn.dn.en.fn.gn.hn.in.jn.kn.ln.mn.nn.on.pn.qn.rn.sn.sn.tn.un.vn.wn.xn.yn.zn.An.Bn.Cn.Dn.En.Fn.Gn.Hn.In.Jn.Kn.Ln.Mn.Nn.On.Pn.Qn.Rn.Sn.sh.+8.Tn.Un.Vn.Wn.Xn.Yn.Zn.`n. o..o.+o.Ol.={ @o.#o.$o.%o.&o.*o.=o.-o.;o.>o.,o.                                                                                                                                                                                                                     ",
"                                                                                                                                                                                                                                                                                                            'o.)o.!o.@  ~o.{o.]o.^o./o.(o.5k _o.:o.<o.[o.}o.|o.1o.2o.3o.4o.5o.Va 6o.7o.GT {h.:3 N_ 8o.9o.0o.5f..2 4f.:h.[- 7f.}f.1f.$C y( +|.(h.4f.<k.2- $C :j.:j.bD 1f.[- 7n.ao.bo.!j.co.do.eo.fo.go.ho.io.jo.ko.lo.mo.no.oo.po.qo.ro.so.to.uo.vo.wo.xo.yo.zo.Ao.Bo.Co.Do.Eo.Fo.Go.Ho.Io.Jo.Ko.Lo.Mo.No.Oo.Po.Qo.Ro.So.To.Uo.Vo.Wo.Xo.Yo.Zo.`o. p..p.+p.@p.#p.$p.%p.&p.*p.=p.-p.;p.>p.,p.'p.)p.!p.~p.{p.]p.^p.                                                                                                                                                                                                                     ",
"                                                                                                                                                                                                                                                                                                         /p.(p._p.:p.<p.[p.}p.|p.1p.2p.3p.4p.5p.6p.7p.8p.9p.0p.ap.bp.cp.dp.ep.fp.5H v; =g gp.m5 hp.43 y; ip.:h.+|.jp.N+ h+ :j.h+ 5f.%C m/ +|.<k.]@ _h.y( :h.5f.$C h+ kp.}f._j.lp.4h Qa mp.np.op.pp.qp.rp.rp.sp.tp.up.vp.wp.xp.yp.zp.Ap.Bp.Cp.Dp.Ep.Fp.Gp.Hp.Ip.Jp.Kp.Ao.Lp.Mp.Np.Op.Pp.Qp.Rp.Sp.Tp.Up.Vp.Wp.({.Xp.Yp.Zp.`p.#8. q.pd..q.+q.@q.#q.$q.%q.&q.*q.=q.-q.;q.>q.,q.'q.)q.!q.~q.{q.]q.^q./q.f<.(q._q.:q.                                                                                                                                                                                                                     ",
"                                                                                                                                                                                                                                                                                                         <q.[q.}q.|q.1q.2q.3q.4q.5q.6q.7q.8q.9q.0q.aq.bq.cq.dq.eq.fq.gq.hq.iq.Va jq.kq.lq.mq.(l.nq.-r Q[.(3 m/ <k.+V <k.m/ y( y( m/ +|._h._h.+|.+|.+|.+|.m/ y( 2- 4g.h+ kp.}f.W0.=8 x6.oq.pq.qq.rq.sq.tq.uq.vq.wq.xq.yq.zq.Aq.Bq.Cq.Dq.Eq.Fq.Gq.Hq.Iq.Jq.Kq.Lq.Mq.Nq.Oq.Pq.Qq.Rq.Sq.Tq.Uq.Vq.Wq.Xq.Yq.Zq.`q. r..r.+r.@r.#r.To.$r.%r.&r.*r.=r.-r.;r.>r.,r.'r.)r.!r.~r.{r.]r.^r./r.(r._r.:r.<r.[r.}r.|r.1r.2r.3r.                                                                                                                                                                                                                     ",
"                                                                                                                                                                                                                                                                                                      4r.5r.6r.7r.8r.9r.0r.ar.br.cr.dr.er.Do fr.gr.hr.ir.jr.kr.lr.mr.nr.or.pr.qr.jq.}S lq.^i.u<.-r 38 -r P_ /e.]@ +V ]@ _h.m/ m/ +|._h.<k._h._h.+|._h.rr.+|.m/ y( %C 5f.:j.kp.sr.w/.tr.ur.vr.wr.xr.yr.zr.Ar.Br.Cr.Dr.Er.Fr.no.Gr.Hr.Ir.Jr.Kr.Lr.Mr.Nr.Or.Pr.Qr.Rr.Sr.Tr.Ur.Vr.Wr.Xr.Yr.Zr.`r. s..s.+s.@s.#s.$s.%s.&s.F[.vj.*s.=s.-s.;s.>s.,s.'s.)s.!s.~s.{s.]s.^s./s.(s._s.:s.<s.[s.}s.|s.1s.2s.3s.4s.5s.6s.                                                                                                                                                                                                                        ",
"                                                                                                                                                                                                                                                                                                      7s.8s.-n.9s.0s.9r.as.bs.cs.ds.es.fs.gs.hs.is.js.ks.ls.ms.ns.eq.os.or.ps.)i.(m.}S qs.^i.u<.-r 38 *C rs.ss.]@ [$ +V _h.m/ m/ +|.<k.<k.<k.<k.<k.<k._h.+|._l.y( 2- :h.4g.$C nA ts.us.vs.ws.xs.ys.zs.As.Bs.Cs.Ds.Es.Fs.tp.Gs.Hs.Is.Js.Ks.Ls.Ms.Ns.Os.Ps.Qs.Rs.Ss.Ts.Us.Vs.Ws.Xs.Ys.Zs.`s. t..t.+t.@t.#t.$t.%t.&t.Am.*t.=t.-t.;t.>t.,t.'t.)t.!t.~t.{t.]t.^t./t.(t._t.:t.<t.[t.}t.|t.1t.2t.3t.4t.5t.6t.7t.8t.                                                                                                                                                                                                                        ",
"                                                                                                                                                                                                                                                                                                   9t.0t.at.}q.^  bt.9r.ct.dt.cr.et.ft.gt.ht.it.jt.kt.lt.mt.nt.ot.pt.qt.rt.ps.)i.(m.C& st.=z u<.*C fD *C rA 34 +V 4f.q# <k.rr.+|.<k.]@ ]@ ]@ +V +V (h.<k._h.+|.m/ y( y( y( y( y( tt.0H ut.vt.wt.xt.yt.zt.At.Bt.}i.Ct.do.Dt.Et.Ft.Gt.Ht.It.Jt.Kt.Lt.Mt.Nt.Ot.Pt.Qt.Rt.St.Tt.Ut.Vt.Wt.Xt.Yt.Zt.`t. u..u.+u.@u.#u.$u.%u.&u.*u.=u.-u.;u.>u.,u.'u.)u.!u.~u.{u.]u.^u./u.(u._u.Rd.:u.<u.[u.}u.|u.1u.2u.3u.4u.5u.6u.                                                                                                                                                                                                                        ",
"                                                                                                                                                                                                                                                                                                   7u.8u.9u.c  (p.0u.au.bu.cu.du.eu.fu.gu.hu.iu.ju.ku.lu.mu.nu.ou.pu.qt.rt.ps.)i.(m.C& st.K9.rs.qu.ru.ru.*C su.[$ S@ 4f.]@ _h._h.<k.Pm +V +V [$ 4f.[$ +V <k._h.+|.+|._h.<k.]@ ^h.nW tu.wK _f.uu.vu.wu. i xu.yu.zu.Au.Bu.Cu.Du.Eu.Fu.Gu.Hu.Iu.Ju.Ku.Lu.Mu.Nu.Ou.Pu.Qu.Ru.Su.Tu.Uu.Vu.Wu.Xu.Yu.Zu.`u. v..v.+v.@v.#v.$v.%v.3: &v.*v.=v.-v.;v.ue.>v.,v.'v.)v.!v.~v.{v.]v.^v./v.(v._v.:v.<v.[v.}v.|v.1v.2v.3v.4v.                                                                                                                                                                                                                        ",
"                                                                                                                                                                                                                                                                                                5v.6v.7v.8v.7r.9v.0v.av.bv.cv.dv.ev.fv.gv.hv.iv.jv.kv.lv.mv.nv.ov.pv.qt.rt.qv.)i.(m.C& st.rv.rs.=7 -7 ru.fD /o S@ m@ S@ +V <k.<k.]@ [$ [$ [$ 4f.S@ S@ [$ +V <k.<k.]@ +V [$ S@ 'S sv.tv.uv.~J +8 {M <9 vv.wv.80 xv.yv.wr.pq.zv.Av.Bv.Cv.Dv.Ev.Fv.Gv.Hv.Iv.Jv.Kv.Lv.Mv.Nv.Ov.Pv.Qv.Rv.Sv.Tv.Uv.Vv.Wv.Xv.Yv.Zv.`v. w..w.+w.@w.#w.$w.%w.&w.*w.Bg =w.-w.;w.>w.,w.'w.)w.!w.~w.{w.]w.^w./w.(w._w.:w.<w.[w.}w.|w.                                                                                                                                                                                                                           ",
"                                                                                                                                                                                                                                                                                                1w.2w.6v.3w.^  4w.0v.5w.6w.7w.8w.9w.0w.aw.bw.cw.dw.ew.fw.gw.hw.iw.jw.kw.lw.mw.)i.(m.nw.v/.X- rs.qu.dW dW ow.pw.m@ 2f.S@ [$ ]@ ]@ [$ 4f.4f.4f.S@ m@ S@ 4f.[$ ]@ ]@ +V 4f.m@ qw.rw.sw.tw.uw.vw.@A CI {h.ww.xw.19 wv.yw.zw.Aw.Bw.Cw.Dw.Ew.Fw.Gu.Ev.Gw.Hw.Iw.Jw.Kw.Lw.Mw.Nw.Ow.Pw.Qw.Rw.Sw.Sw.Tw.Uw.Vw.Ww.Xw.Yw.Zw.ih.`w. x..x.+x.@x.#x.NH $x.%x.&x.*x.=x.-x.;x.>x.,x.'x.)x.!x.~x.{x.]x.^x./x.(x._x.:x.<x.[b                                                                                                                                                                                                                            ",
"                                                                                                                                                                                                                                                                                                [x.}x.|x.1x.(p.4w.2x.dr 3x.4x.5x.6x.7x.8x.9x.0x.ax.bx.cx.dx.ex.fx.gx.hx.ix.mw.)i.jq.nw.jx.X- rs.$< dW MX kx.2& lx.qw.lx.4f.[$ [$ 4f.S@ m@ S@ m@ m@ WX 4f.4f.[$ [$ 4f.S@ 2f.mx.sw.nx.ox.px.px.p7.(G qx.CT hB rx.}9 19 sx.tx.ux.vx.Cw.wx.xx.yx.zx.Ax.Bx.Cx.Dx.Ex.Fx.Gx.Hx.Ix.Jx.Kx.Lx.Mx.Nx.Ox.Px.Qx.Rx.Sx.Tx.Ux.Vx.Wx.Xx.Yx.Zx.`x. y..y.68.+y.@y.#y.$y.%y.R'.=*.&y.*y.=y.-y.;y.>y.,y.'y.)y.!y.~y.{y.]y.^y.                                                                                                                                                                                                                           ",
"                                                                                                                                                                                                                                                                                             /y.(y.2w._y.9u :y.9v.<y.[y.}y.|y.1y.2y.3y.4y.5y.6y.7y.8y.9y.0y.ay.by.cy.hx.dy.mw.)i.(m.nw.jx.X- ey.$< MX fy.;r 2g.2f.rw.qw.S@ 4f.4f.S@ m@ 2f.m@ m@ m@ S@ S@ 4f.4f.S@ S@ m@ 2f.2f.wW ,3 gy.hy.iy.jy.=C ky.nq.*w 7o RF ly.my.ny.oy.py.Bw.qy.ry.sy.ty.uy.vy.wy.xy.yy.zy.Ay.By.Cy.Dy.Ey.Fy.Gy.Hy.Iy.Jy.Ky.Ly.My.Ny.Oy.Py.Qy.Ry.Sy.Ty.Uy.Vy.{7 Wy.Xy.Yy.Zy.`y. z..z.+z.@z.#z.$z.%z.&z.*z.=z.-z.;z.>z.,z.'z.)z.                                                                                                                                                                                                                              ",
"                                                                                                                                                                                                                                                                                             !z.~z.~z.{z.8s.:y.^  ]z.^z./z.(z._z.:z.<z.[z.}z.|z.1z.2z.3z.4z.5z.6z.7z.hx.ix.mw.)i.jq.nw.1e.X- ey.$< MX ;d.8z.n5.rw.oy qw.m@ 4f.4f.m@ 2f.mx.2f.m@ S@ S@ S@ m@ m@ m@ 9z.m@ m@ m@ 3f.0z.az.bz.cz.dz.+b.R1 v| ez.fz.gz.+D ly.hz.iz.jz.kz.lz.mz.nz.oz.pz.qz.rz.sz.tz.uz.vz.wz.xz.yz.zz.Az.Bz.Cz.Dz.Ez.Fz.Gz.Hz.Iz.Jz.fu.Kz.Lz.Mz.Nz.Oz.   Pz.Qz.Rz.Sz.Tz.Uz.Vz.Wz.Xz.Yz.Zz.`z. A..A.+A.@A.#A.$A.%A.&A.*A.                                                                                                                                                                                                                                 ",
"                                                                                                                                                                                                                                                                                          =A.-A.;A.]  >A.,A.'A.)A.!A.~A.{A.]A.^A./A.(A._A.:A.<A.[A.}A.|A.1A.2A.3A.4A.hx.ix.5A.qr.6A.nw.1~.rv.rs.qu.7A.eW k^ 8A.oy sw.ny lx.S@ 9A.9z.qw.qw.qw.3f.2& my 3:.lx.0A.qw.qw.lx.3:.2& aA.bZ Q` bA.cA.s4 x| E1.R_ dA.-2 :G .A TF 19 eA.fA.gA.hA.iA.jA.kA.lA.mA.nA.oA.pA.qA.rA.sA.tA.uA.vA.wA.xA.Ts.yA.zA.AA.BA.CA.DA.EA.FA.GA.HA.IA.JA.KA.         LA.07.MA.NA.OA.PA.QA.RA.SA.TA.UA.VA.WA.XA.YA.ZA.`A. B.                                                                                                                                                                                                                                    ",
"                                                                                                                                                                                                                                                                                          .B.+B.@B.#B.$B.%B.&B.*B.=B.-B.;B.>B.,B.'B.)B.!B.~B.{B.]B.^B./B.(B._B.:B.<B.[B.}B.|B.1B.5H kq.st.^i.(l.n7.2B.._.o7.3B.4B.5B.nx.k5 6B.6B.7B.^d.ny ^d.6B.k^ 8B.3B.8A.9B.k5 0B.8A.(# aB.bB.cB.dB.eB.fB.73 :1.:1.Q_ P_ en ky gB.E& hB.iB.jB.kB.lB.mB.nB.oB.rp.pB.qB.rB.sB.tB.uB.vB.wB.xB.yB.zB.AB.BB.CB.DB.EB.FB.GB.HB.IB.JB.KB.LB.MB.IA.NB.OB.            PB.QB.RB.SB.[>.TB.UB.VB.WB.XB.YB.ZB.`B. C..C.+C.                                                                                                                                                                                                                                    ",
"                                                                                                                                                                                                                                                                                       {# @C.#C.$C.%C.&C.*C.=C.-C.;C.>C.,C.'C.)C.!C.~C.{C.]C.^C./C.(C._C.:C.<C.[C.}C.|C.1C.2C.3C.4C.5C.6C.7C.^k 8C.9C.T0 38 04.0C.0Z aC.bC.cC.cC.hl dC.eC.il fC.0z.gC.hC.>r N1 iC.>r jC.jC.bZ cB.kC.lC.0C.mC.nC.y% oC.l/ =k 0] pC.qC.rC.7& [9 sC.sx.O>.tx.tC.uC.vC.wC.xC.yC.zC.AC.BC.CC.DC.EC.FC.GC.HC.IC.JC.KC.LC.MC.NC.NC.OC.PC.QC.RC.SC.TC.UC.VC.WC.               XC.YC.ZC.`C. D..D.+D.@D.#D.$D.%D.#F                                                                                                                                                                                                                                           ",
"                                                                                                                                                                                                                                                                                       &D.*D.=D.-D.;D.>D.,D.'D.)D.!D.~D.{D.]D.^D./D.(D._D.:D.<D.[D.}D.|D.1D.2D.3D.4D.5D.6D.7D.8D.9D.0D.EQ /k aD.bD.cD.dD.eD.cB.fD.gD.                                 hD.7Z iD.jD.R` kD.d~.W` lD.cB.8B.my m5.mD.nD.+: oD.pD.qD.5:.<S rD.sD.2d tD.uD.vD.wD.xD.yD.zw.yv.zD.'c Ya AD.BD.CD.DD.ED.FD.GD.HD.ID.JD.KD.LD.MD.ND.OD.PD.QD.RD.QC.SD.TD.UD.VD.WD.                     XD.YD.ZD.`D. E..E.+E.@E.                                                                                                                                                                                                                                                ",
"                                                                                                                                                                                                                                                                                       #E.$E.%E.&E.*E.=E.-E.;E.>E.,E.'E.)E.!E.~E.{E.]E.^E.]D./E.(E._E.:E.<E.[E.}C.}E.|E.1E.2E.3E.4E.SI 5E.6E.7E.8E.9E.0E.eD.dW aE.                                          bE.cE.dE.S:.eE.'[..|.fE.gE.hE.hE.)c.iE./d.jE.He kE.lE.9H jh mE.nE.2d l0 oE.oE.pE.qE.rE.sE.tE.uE.vE.wE.xE.yE.zE.AE.BE.CE.DE.EE.FE.GE.HE.IE.JE._D.KE.LE.ME.NE.OE.PE.QE.RE.SE.TE.                                                                                                                                                                                                                                                                                          ",
"                                                                                                                                                                                                                                                                                       UE.VE.X) WE.XE.YE.ZE.`E. F..F.+F.@F.#F.$F.PD.%F.^E.&F.*F.=F.-F.;F.>F.,F.'F.)F.!F.~F.b5 {F.]F.^F.8& /F.(F._F.:F.<F.[F.;d.}F.                                                |F.1F.2F.3F.S:.4F.5F./d.6F.7F.7F.iE.*c 4M 8F.9F.5C.0F.aF.:m.9H bF.4j cF.cF.dF.eF.fF.gF.hF.iF.C0 jF.kF.lF.mF.nF.oF.pF.qF.rF.sF.tF.uF.vF.wF.xF.yF.zF.AF.BF.CF.DF.EF.FF.GF.HF.                                                                                                                                                                                                                                                                                       ",
"                                                                                                                                                                                                                                                                                    IF.JF.KF.LF.%] MF.NF.OF.PF.QF.RF.SF.TF.UF.VF.WF.WF.XF.YF.ZF.`F. G..G.+G.@G.#G.$G.%G.&G.*G.dS =G.-G.;G.>G.,G.'G.)G.MN GL !G.                                                      ~G.{G.]G.@= d..^G./G.(G._G.:G.<G.[G.}G.|G.=S De 9d 1G.2G.8H 9H ve 5E.3G.4G.oE.5G.-m 6G.7G.8G.9G.0G.aG.bG.cG.dG.eG.fG.gG.hG.iG.jG.kG.lG.mG.nG.oG.pG.qG.rG.sG.tG.uG.vG.wG.xG.                                                                                                                                                                                                                                                                                    ",
"                                                                                                                                                                                                                                                                                    yG.zG.AG.BG.CG.DG.EG.FG.GG.HG./E.SF.TF.UF.XF.%F._D.IG.JG.KG.LG.MG.NG.OG.PG.QG.RG.-0.SG.TG.UG.VG.FT WG.XG.YG.:F.ZG.`G.GL                                                             1F.3F. H..H.+H.@H.#H.$H.%H.:G.&H.*H.i0 =H.7d -H.;H.>H.,H.'H.w6.!e.)H.!H.~H.dF.{H.]H.^H./H.(H._H.:H.<H.[H.4m.}H.|H.1H.2H.3H.4H.5H.tF.6H.7H.8H.9H.0H.HG.aH.bH.cH.dH.eH.fH.                                                                                                                                                                                                                                                                                    ",
"                                                                                                                                                                                                                                                                                    gH.hH.iH.jH.kH.lH.mH.nH.oH.pH.IE.qH.rH.sH.tH.uH.vH.wH.xH.yH.zH.AH.BH.CH.DH.EH.Bs.FH.GH.HH.IH.-G.JH.:H nc KH.)G.LH.MH.GL                                                                NH.OH.PH.QH.RH.SH.TH.l@ $H._G.Fa UH.=c VH.WH.XH.x/.YH.@& ~h.ZH.`H. I.ut.dF..I.+I.@I.#I.$I.%I.vl %G.&I.*I.=I.-I.;I.>I.,I.'I.)I.5H.!I.~I.{I.]I.^I./I.(I._I.:I.~q um.<I.[I.                                                                                                                                                                                                                                                                                 ",
"                                                                                                                                                                                                                                                                                 }I.|I.1I.2I.3I.4I.5I.6I.7I.8I.9I.0I.aI.bI.cI.dI.eI.fI.gI.hI.iI.jI.kI.lI.mI.nI.oI.Au.pI.qI.rI.8& sI.tI.uI.vI.wI.xI.yI.zI.                                                                        AI.BI.CI.DI.EI.FI.GI.'k HI.UX i0 II.JI.0] KI.0h LI.1S 1S JQ hB..i MI.NI.OI.5G.PI.QI.RI.u# SI.TI.UI.VI.WI.XI.YI.ZI.,I.`I. J.5H..J.+J.@J.#J.$J.%J.&J.*J.=J.-J.;J.>J.,J.                                                                                                                                                                                                                                                                              ",
"                                                                                                                                                                                                                                                                                 'J.)J.!J.~J.{J.]J.^J./J.(J._J.9I.:J.<J.[J.}J.Pq.|J.1J.2J.3J.4J.5J.6J.7J.8J.9J.0J.aJ.bJ.cJ.dJ.eJ.fJ.gJ.iB lB o9 y5 hJ.iJ.                                                                           jJ.kJ.lJ.mJ.nJ.oJ.pJ.2f.HI.qJ.qJ.mx.wW rJ.sJ.tJ.1S 1^.uJ.vJ.wJ.>m xJ.yJ.ut..i zJ.AJ.BJ.CJ.DJ.*& EJ.FJ.GJ.HJ.IJ.ZI.JJ.KJ.LJ.vo.MJ.NJ.OJ.PJ.QJ.RJ.SJ.TJ.UJ.VJ.WJ.XJ.YJ.                                                                                                                                                                                                                                                                           ",
"                                                                                                                                                                                                                                                                                 ZJ.`J. K..K.+K.@K.#K.$K.%K.&K.9I.*K.=K.-K.;K.>K.,K.'K.)K.!K.~K.{K.,F.]K.^K./K.(K._K.zw.:K.<K.eJ.~e.Be }g.H{.wy [K.}K.|K.                                                                              1K.2K.3K.4K.5K.'>.6K.7K.8K.^@ y/ 9K.0K.aK. 8 }{ 6& *8 +w bK.cK.l9 dK.eK.ih fK.gK.hK.iK.3C.jK.kK.lK.dy.mK.nK.oK.pK.qK.rK.sK.tK.uK.vK.wK.xK.yK.zK.AK.BK.CK.DK.EK.FK.                                                                                                                                                                                                                                                                           ",
"                                                                                                                                                                                                                                                                              GK.HK.IK.JK.KK.LK.MK.NK.OK.PK.QK.9I.RK.SK.TK.UK.2J.VK.WK.XK.YK.ZK.`K. L..L.+L.@L.#L.$L.bJ.%L.&L.*L.]M .8 =L.-L.@2.;L.Cs                                                                                        >L.,L.'L.)L.!L.~L.{L.|e.*k +V sv.'S ]L.^L.]k qs./L.{t (L.<M mc _L.0h :L.<L.[L.}L.|L.1L.2L.3L.4L.5L.6L.7L.8L.9L.0L.aL.bL.cL.dL.eL.fL.gL.hL.iL.jL.kL.lL.mL.nL.oL.                                                                                                                                                                                                                                                                        ",
"                                                                                                                                                                                                                                                                              pL.qL.rL.sL.tL.uL.vL.wL.xL.yL.zL.AL.kG.BL.CL.DL.EL.FL.GL.HL.IL.JL.KL.[B.LL.ML.NL.OL.PL.QL.RL.SL.TL.UL.zK %w VL.F5 WL.                                                                                                XL.YL.ZL.`L. M.1k.<G 3g.^o 3g..M.+M.)V 'V @M.^b ]b #w /L.#M.%_.$M.%M.&M.*M.=M.)9 -M.;M.>M.,M.'M.)M.!M.~M.{M.]M.^M./M.(M._M.:M.<M.[M.}M.|M.1M.2M.3M.4M.5M.6M.                                                                                                                                                                                                                                                                     ",
"                                                                                                                                                                                                                                                                              K- 7M.8M.9M.0M.aM.bM.cM.dM.eM.fM.gM.hM.iM.jM.kM.lM.mM.nM.oM.pM.qM.8m.rM.sM.tM.uM.vM.wM.90 xM.yM.KQ zM.H{.b4 AM.BM.0[.                                                                                                   CM.DM.EM.FM.GM.HM.IM.qA +_.JM.KM.+M.LM.MM.NM..A #2.OM.PM.QM.RM.SM.TM.&M.8F.UM.VM.WM.XM.YM.ZM.`M.in. N..N.+N.@N.#N.yB.$N.%N.&N.*N.=N.-N.;N.>N.,N.'N.)N.!N.                                                                                                                                                                                                                                                                     ",
"                                                                                                                                                                                                                                                                              ~N.{N.]N.^N./N.(N._N.:N.<N.[N.}N.|N.1N.2N.3N.4N.5N.6N.7N.8N.9N.0N.aN.bN.cN.dN.eN.t6 fN.gN.hN.iN.jN.lB N| kN.lN.mN.                                                                                                            BI.nN.oN.pN.qN.rN.sN.x( (e.s/ }G rx tN./K uN.e^ vN.1g.wN.xN.yN.zN.[L.}L.AN.BN.CN.DN.EN.FN.GN.HN.IN.JN.KN.LN.MN.NN.ON.PN.QN.RN.SN.TN.UN.VN.WN.XN.YN.ZN.                                                                                                                                                                                                                                                                  ",
"                                                                                                                                                                                                                                                                           `N. O..O.+O.@O.#O.$O.%O.&O.*O.=O.-O.;O.>O.,O.'O.)O.!O.~O.{O.]O.^O./O.(O._O.:O.<O.[O.}O.|O.hN.|9 1O.JN 2O.@2.#7 3O.w(                                                                                                                   4O.5O.6O.7O.8O.9O.0O.aO.[1.bO.Yt cO.dO.eO.l4 fO.gO.hO.iO.jO.kO.lO.mO.nO.oO.pO.qO.rO.sO.tO.uO.vO.wO.lI.xO.yO.zO.AO.BO.CO.DO.EO.FO.GO.HO.IO.JO.KO.LO.                                                                                                                                                                                                                                                               ",
"                                                                                                                                                                                                                                                                           MO.NO.OO.PO.QO.7I.RO.SO.TO.fM.UO.VO.WO.XO.YO.ZO.`O. P.pM.cg .P.+P.@P.#P.$P.%P.&P.,9 *P.=P.-P.;P.>P.,P.'P.@7 )P.I5                                                                                                                            g/ L. !P.~P.p/ {P.]P.^P./P.(P.@< /[ _P.lv :P.<P.[P.}P.|P.LI.B% 1P.FH.2P.3P.4P.eo.5P.6P.7P.8P.9P.0P.aP.bP.cP.dP.eP.fP.gP.hP.iP.jP.kP.lP.mP.w1 nP.                                                                                                                                                                                                                                                            ",
"                                                                                                                                                                                                                                                                           oP.pP.qP.rP.sP.tP.uP.vP.wP.xP.yP.zP.AP.BP.CP.ro.DP.EP.FP.GP.HP.IP.JP.KP..f -M.LP.MP.:g.NP.OP.1O.PP.MH.QP.RP.SP.                                                                                                                                    TP.UP.VP.WP.XP.YP.ZP.yN `P. Q..Q.X(.+Q.HM.@Q.9f.#Q.kq.:d 90 $Q.%Q.&Q.zv.*Q.=Q.sO.-Q.;Q.>Q.,Q.'Q.)Q.!Q.~Q.{Q.]Q.^Q./Q.(Q._Q.:Q.<Q.[Q.}Q.|Q.1Q.                                                                                                                                                                                                                                                         ",
"                                                                                                                                                                                                                                                                           2Q.3Q.4Q.5Q.6Q.7Q.fv.8Q.9Q.0Q.aQ.bQ.cQ.dQ.eQ.fQ.gQ.hQ.iQ.jQ.kQ.lQ.mQ.nQ.oQ.aE pQ.qQ.rQ.uu.sQ.tQ.PN uQ.vQ.wQ.xQ.                                                                                                                                          yQ.zQ.AQ.BQ.RO CQ.XO dQ ][.DQ.EQ.FQ.[- 3e.[' Q+ [d 2j ed GQ.HQ.IQ.JQ.KQ.LQ.MQ.NQ.OQ.PQ.QQ.RQ.SQ.TQ.UQ.VQ.WQ.XQ.YQ.ZQ.`Q. R..R.+R.@R.#R.$R.                                                                                                                                                                                                                                                      ",
"                                                                                                                                                                                                                                                                        %R.&R.*R.=R.-R.;R.>R.,R.'R.)R.!R.~R.{R.]R.^R./R.(R._R.:R.<R.[R.QG.}R.|R.%P.D% 1R.2R.Pi 3R.uu.4R.5R.6R.q} ][ 7R.                                                                                                                                                      8R.9R.0R.aR.bR.cR.~>.0Q dR.eR.fR.gR.4q hR.iR.t6 jR.kR.lR.mR.nR.oR.pR.qR.rR.sR.tR.uR.vR.wR.xR.yR.zR.AR.BR.CR.DR.ER.FR.GR.HR.IR.JR.KR.                                                                                                                                                                                                                                                   ",
"                                                                                                                                                                                                                                                                        LR.MR.NR.OR.PR.QR.0w.RR.SR.TR.UR.VR.WR.XR.YR.ZR.`R. S..S.+S.@S.#S.Bs.$S.%S.1R.&S.*S.=S./f.-S.;S.>S.,S.'S.%D                                                                                                                                                                   )S.yN bR.aR.!S.~S.vp {S.sB ]S.^S.%I./S.(S._S.:S.<S.mR.JQ.zr.[S.}S.|S.1S.Ko 2S.3S.4S.cG.5S.6S.7S.8S.9S.0S.aS.bS.cS.dS.eS.fS.gS.hS.                                                                                                                                                                                                                                             ",
"                                                                                                                                                                                                                                                                        iS.jS.kS.lS.mS.nS.oS.pS.qS.Ur.rS.sS.tS.uS.vS.wS.xS.yS.zS.AS.BS.CS.DS.ES.FS.GS.HS.UG.IS.JS.hB.KS.LS.MS.q}                                                                                                                                                                            yN NS.OS.PS.QS.RS.SS.TS.US.VS./S.WS.XS.YS.ZS.np.yr.`S. T..T.+T.od @T.#T.,9 $T.%T.&T.*T.=T.-T.;T.>T.,T.'T.)T.!T.~T.{T.Uq.]T.                                                                                                                                                                                                                                             ",
"                                                                                                                                                                                                                                                                        ^T./T.(T._T.:T.<T.[T.}T.|T.1T.2T.3T.4T.5T.6T.7T.8T.9T.0T.aT.bT.cT.dT.eT.fT.~g UG.gT.<S ze hT.iT.LS.jT.                                                                                                                                                                                    kT.lT.mT.nT.)u oT.A6.pT.qT.rT.gd sT.Au.tT.uT.vT.~a.wT.&G.xT.yT.zT.AT.BT.CT.DT.ET.FT.GT.HT.IT.JT.KT.LT.MT.NT.OT.PT.QT.RT.                                                                                                                                                                                                                                          ",
"                                                                                                                                                                                                                                                                        ST.TT.UT.VT.WT.XT.YT.ZT.`T. U..U.+U.@U.#U.$U.%U.&U.*U.=U.-U.;U.>U.,U.'U.)U.!U.=G.~U.@g 1S {b {U.]U.^U.                                                                                                                                                                                          /U.(U._U.:U.<U.[U.}U.|U.1U.2U.3U.3U.4U.dN.5U.6U.7U.8U.9U.0U.aU.{g bU.cU.dU.pv.eU.fU.gU.hU.iU.jU.kU.lU.mU.nU.oU.pU.                                                                                                                                                                                                                                          ",
"                                                                                                                                                                                                                                                                        qU.rU.sU.tU.uU.vU.wU.xU.yU.zU.AU.BU.Kw.CU.DU.EU.FU.xx.GU.HU.IU.uM.JU.KU.LU.MU.NU.VH.OU.PU.![ QU.^U.                                                                                                                                                                                                   RU.SU.TU.UU.VU._H.WU.XU.YU.ZU.ZU.%P.`U. V..V.+V.@V.#V.$V.%V.&V.wx.*V.=V.-V.;V.>V.,V.'V.)V.!V.~V.{V.]V.^V./V.(V.                                                                                                                                                                                                                                       ",
"                                                                                                                                                                                                                                                                        _V.:V.<V.[V.}V.|V.1V.2V.3V.4V.5V.6V.7V.8V.9V.0V.aV.bV.cT.cV.dV.eV.fV.gV.hV.iV.jV.kV.lV.ts.x5 wB                                                                                                                                                                                                             mV.nV.oV.pV.qV.rV.sV.tV.uV.vV.wV.xV.yV.zV.AV.BV.CV.3E.u6 DV.EV.FV.GV.HV.IV.JV.KV.LV.MV.NV.OV.PV.!T.QV.RV.                                                                                                                                                                                                                                       ",
"                                                                                                                                                                                                                                                                        SV.TV.UV.VV.WV.XV.YV.ZV.`V. W..W.+W.@W.#W.$W.%W.oO.&W.*W.=W.-W.tl ;W.lq.>W.,W.Pm [$ 'W.)W.!W.~W.                                                                                                                                                                                                               1d.{W.]W.^W./W.(W._W.Sa :W.<W.[W.}W.|W.-S 1W.*c 7o.a0 2W.3W.4W.5W.6W.7W.8W.9W.0W.aW.bW.cW.dW.eW.fW.gW.hW.                                                                                                                                                                                                                                    ",
"                                                                                                                                                                                                                                                                     iW.jW.Z~ kW.lW.mW.nW.oW.pW.qW.rW.sW.tW.uW.vW.wW.7U.x6.<' L6 ~K M9.TX `m y% xW.yW.fy.fy.zW.OO AW.                                                                                                                                                                                                                     zi 1m.BW.CW.}d.:d.Ce $g =g w; DW.EW.FW.GW.HW.IW.EQ JW.KW.LW.MW.NW.OW.PW.QW.RW.SW.TW.UW.VW.WW.XW.YW.ZW.                                                                                                                                                                                                                                    ",
"                                                                                                                                                                                                                                                                     `W./0  X..X.+X.@X.#X.$X.%X.&X.*X.=X.-X.;X.>X.,X.4C.,H.&k [1.M).'X.)X.dB.!X.X_ iD.~X.d~.{X.{G.]X.                                                                                                                                                                                                                           Ya.^X./X.(X.{k _X.Hi t<.%_.:X.sr.<X.[X.%_.2^./k }X.|X.1X.2X.3X.4X.5X.6X.7X.8X.9X.0X.aX.bX.cX.dX.                                                                                                                                                                                                                                    ",
"                                                                                                                                                                                                                                                                     eX.fX.gX.hX.iX.jX.kX.lX.mX.nX.oX.pX.qX.rX.sX.tX.uX.vX.9] {@ 'X.Z` cE.eB.wX.~X.xX.yX.1F.zX.]G.                                                                                                                                                                                                                                 AX.BX.9f.CX.DX.EX.FX.<G nA GX.W0.sr.HX.+& IX./M JX.KX.LX.MX.NX.OX.PX.QX.RX.SX.TX.UX.VX.WX.XX.YX.                                                                                                                                                                                                                                 ",
"                                                                                                                                                                                                                                                                  ZX.`X. Y..Y.+Y.@Y.#Y.$Y.%Y.&Y.*Y.=Y.-Y.;Y.>Y.,Y.pQ.mO.mE.bh aA.'Y.)Y.!Y.!Y.)Y.~Y.{Y.]Y.w] ^Y./Y.                                                                                                                                                                                                                                       |m.9f.J9.(Y.^o =A _Y.^J W0.^J :Y.<Y.iV.[Y.}Y.|Y.xJ.1Y.2Y.3Y.4Y.5Y.6Y.7Y.8Y.9Y.0Y.aY.bY.cY.dY.                                                                                                                                                                                                                              ",
"                                                                                                                                                                                                                                                               eY.fY.gY.hY.iY.jY.kY.lY.mY.nY.oY.pY.qY.rY.sY.tY.3C.1R.uY.vY.wY.[$ hD.+ .eB.xY.~Y.~X.NH.yY.zY.w]                                                                                                                                                                                                                                              BX.9f.AY.BY.CY.*k jx.2e.DY.N. EY.FY.H7.3% wY.]M {M Wd GY.HY.IY.JY.KY.LY.MY.NY.OY.PY.QY.RY.                                                                                                                                                                                                                              ",
"                                                                                                                                                                                                                                                               SY.TY.UY.VY.WY.XY.YY.ZY.`Y. Z..Z.+Z.@Z.#Z.$Z.%Z.&Z.*Z.=Z.-Z.:f.9A.hD.;Z.aE.xX.!Y.eE.>Z.,Z.'Z.                                                                                                                                                                                                                                                   )Z.!Z.AY.6n.CY.Om ~Z.{Z.]Z.^Z.K>./Z.(Z.$H.EX.Hi _Z.JF :Z.<Z.[Z.}Z.|Z.1Z.2Z.3Z.4Z.5Z.6Z.7Z.                                                                                                                                                                                                                           ",
"                                                                                                                                                                                                                                                            8Z.9Z.0Z.aZ.bZ.cZ.dZ.eZ.fZ.gZ.hZ.iZ.jZ.kZ.dk.lZ.mZ.nZ.oZ.pZ.qZ.rZ.sZ.gD.tZ.bE.~Y.S:.'Z.uZ.kH                                                                                                                                                                                                                                                          vZ.}k.[- m/ n5.<k.HH wZ.xZ.yZ.zZ.AZ.BZ.CZ.DZ.2f.EZ.G5 FZ.GZ.HZ.IZ.JZ.KZ.2c LZ.MZ.NZ.OZ.                                                                                                                                                                                                                           ",
"                                                                                                                                                                                                                                                         PZ.QZ.RZ.SZ.TZ.UZ.VZ.WZ.XZ.YZ.ZZ.`Z. `..`.Jh +`.@`.#`.$`.kR.%`.&`.*`.9A.=`.bE.~X.S:.-`.;`.uZ.>`.                                                                                                                                                                                                                                                         ,`.'`.)`.!`.su.~`.'W.(j.{`.]`.^`./`.(`._`.8* :`.<`.[`.}`.M|.|`.1`.2`.3`.4`.5`.6`.7`.8`.                                                                                                                                                                                                                           ",
"                                                                                                                                                                                                                                                         9`.0`.a`.b`.c`.d`.WZ.YZ.e`.f`.g`.h`.i`.j`.k`.l`.m`.n`.o`.p`.q`.r`.Ae EZ.jC.+ .s`.t`.S=.;`.u`.                                                                                                                                                                                                                                                               v`.w`.x`.y`.^e.M+ 7f.z`.A`.B`.C`.D`._`.E`.F`.Gp x% G`.H`.I`.J`.K`.L`.M`.N`.O`.P`.Q`.R`.                                                                                                                                                                                                                        ",
"                                                                                                                                                                                                                                                      S`.T`.U`.V`.W`.X`.Y`.Z`.``.  +. ++ +@ +# +$ +% +& +* += +- +wC.; +> +EQ PE kC.d~.NH., +' +u`.                                                                                                                                                                                                                                                                  ) +! +~ +{ +U` ey.x( ] +^ +/ +( +%= 8* _ +: +< +[ +} +| +lY 1 +2 +3 +4 +5 +6 +7 +8 +9 +0 +                                                                                                                                                                                                                     ",
"                                                                                                                                                                                                                                                   a +b +c +d +e +f +g +h +i +j +k +l +m +n +o +p +q +r +s +t +u +v +w +x +y +&C z + H.zY.;`.uZ.                                                                                                                                                                                                                                                                     A +R=.B +L+ C +dW D +E +F +G +H +O+ I +:`.J +K +L +M +N +B6.O +P +Q +R +S +T +U +V +W +X +                                                                                                                                                                                                                     ",
"                                                                                                                                                                                                                                                Y +Z +` + .+4z ..++.+@.+#.+$.+%.+&.+*.+=.+-.+;.+>.+,.+'.+).+!.+~.+{.+].+^.+/.+aO.(.+^Y.uZ.S=.                                                                                                                                                                                                                                                                           B +_.+:.+<.+MX [.+4e.}.+|.+8d !k 1.+qy 2.+3.+|(.4.+5.+6.+7.+8.+9.+0.+a.+b.+c.+d.+e.+f.+g.+                                                                                                                                                                                                                  ",
"                                                                                                                                                                                                                                             h.+i.+j.+k.+l.+m.+n.+o.+p.+q.+r.+s.+t.+u.+v.+w.+x.+y.+z.+A.+B.+C.+{.+D.+E.+F.+G.+H.+I.+-`.w]                                                                                                                                                                                                                                                                               G^ J.+K.+L.+7:.hT M.+N.+O.+P.+n5 Om [f.Q.+2- <h.R.+S.+T.+U.+V.+W.+X.+Y.+wA.Z.+`.+ ++.+++++@++                                                                                                                                                                                                               ",
"                                                                                                                                                                                                                                       #++$++1/ %++&++*++=++-++;++>++,++'++)++!++~++{++]++^++/++z.+(++_++:++<++[++}++|++1++2++3++4++3F.                                                                                                                                                                                                                                                                                 5++6++7++8++S_ 9+++7 Np 0++a++b++U0 qx.Om DH c++d++e++f++g++h++i++j++k++l++m++n++o++p++q++r++s++                                                                                                                                                                                                            ",
"                                                                                                                                                                                                                                 t++u++v++w++x++y++z++A++B++C++D++E++F++G++H++I++J++K++L++M++N++O++P++Q++R++S++T++U++V++W++X++Y++OO                                                                                                                                                                                                                                                                                        Z++`++ @+.@++@+s} @@+#@+$@+%@+ps bO.yI &@+*@+=@+-@+;@+>@+,@+'@+)@+!@+~@+{@+]@+^@+/@+(@+_@+:@+<@+                                                                                                                                                                                                         ",
"                                                                                                                                                                                                                              [@+}@+|@+1@+2@+3@+4@+5@+6@+7@+8@+9@+0@+a@+b@+c@+d@+e@+f@+g@+h@+i@+j@+k@+l@+m@+n@+o@+p@+q@+r@+s@+t@+                                                                                                                                                                                                                                                                                          u@+v@+w@+x@+q4 y@+z@+A@+B@+C@+D@+E@+JF MF F@+G@+H@+I@+J@+K@+L@+M@+N@+O@+P@+Q@+R@+S@+T@+U@+V@+W@+X@+                                                                                                                                                                                                      ",
"                                                                                                                                                                                                                        Y@+Z@+`@+ #+I: .#++#+@#+##+$#+%#+&#+*#+=#+-#+;#+>#+,#+'#+)#+!#+~#+{#+]#+^#+/#+(#+_#+:#+<#+[#+}#+|#+1#+u(                                                                                                                                                                                                                                                                                           2#+3#+4#+5#+&_ &V 6#+7#+8#+9#+0#+a#+b#+c#+d#+e#+f#+g#+h#+i#+j#+k#+l#+m#+n#+o#+p#+q#+r#+s#+t#+u#+v#+                                                                                                                                                                                                      ",
"                                                                                                                                                                                                                     w#+x#+y#+z#+A#+B#+C#+D#+E#+F#+G#+H#+I#+J#+K#+L#+M#+N#+ek.O#+5m.P#+Q#+R#+S#+T#+U#+V#+W#+X#+Y#+Z#+`#+ $+.$+                                                                                                                                                                                                                                                                                             +$+@$+#$+$$+~7 UE %$+&$+*$+=$+-$+;$+>$+,$+'$+e#+)$+!$+~$+{$+]$+^$+/$+($+_$+:$+<$+[$+}$+|$+1$+2$+3$+4$+                                                                                                                                                                                                   ",
"                                                                                                                                                                                                                  5$+6$+7$+8$+9$+0$+a$+b$+c$+d$+e$+f$+g$+h$+i$+j$+k$+7# l$+lZ.VI.1j.m$+n$+o$+p$+q$+r$+s$+t$+u$+v$+w$+x$+y$+,o                                                                                                                                                                                                                                                                                              z$+A$+B$+C$+D$+E$+F$+G$+H$+I$+J$+K$+L$+b++M$+N$+yJ.fF.O$+P$+Q$+R$+S$+T$+U$+V$+W$+X$+Y$+Z$+`$+ %+.%++%+                                                                                                                                                                                                   ",
"                                                                                                                                                                                                               @%+#%+$%+%%+&%+*%+=%+-%+;%+>%+,%+'%+)%+!%+~%+}a.0i.{%+]%+^%+/%+|R.4U.At.(%+_%+:%+<%+xJ.[%+}%+|%+1%+2%+3%+4%+                                                                                                                                                                                                                                                                                                5%+6%+7%+8%+9%+d} 0%+a%+b%+c%+d%+e%+f%+g%+r9 ]b h%+i%+j%+zN k%+$u.l%+S( m%+n%+o%+p%+q%+r%+s%+t%+u%+v%+                                                                                                                                                                                                   ",
"                                                                                                                                                                                                         Nf w%+x%+y%+z%+A%+B%+C%+D%+E%+F%+G%+H%+I%+J%+/n.K%+L%+M%+N%+O%+P%+Q%+FH.pI.R%+S%+xa ]! T%+uB ^b U%+)<.V%+W%+X%+                                                                                                                                                                                                                                                                                                   Y%+Z6.Z%+`%+ &+.&++&+W_.@&+#&+$&+~P %&+64 &&+s5 *&+kA PO hK =&+-&+;&+>&+,&+'&+)&+!&+~&+{&+]&+^&+/&+(&+_&+                                                                                                                                                                                                ",
"                                                                                                                                                                                                :&+<&+[&+}&+|&+1&+2&+3&+4&+f# 5&+6&+7&+8&+9&+0&+a&+b&+c&+d&+e&+f&+g&+1n.95 h&+i&+j&+k&+l&+m&+fK.n&+~K o&+p&+F8.q&+r&+s&+                                                                                                                                                                                                                                                                                                   t&+u&+v&+w&+x&+i1.y&+z&+A&+B&+C&+X0 D&+E&+F&+G&+H&+A&+}4.I&+J&+K&+L&+M&+N&+O&+P&+Q&+R&+S&+T&+U&+V&+W&+X&+                                                                                                                                                                                                ",
"                                                                                                                                                                                          Y&+Z&+`&+ *+.*++*+Xq @*+#*+$*+%*+&*+**+=*+-*+;*+>*+,*+'*+)*+!*+~*+{*+]*+^*+3d./*+(*+_*+:*+G& )g <*+[*+nl qx.;r }*+T2.|*+:}.                                                                                                                                                                                                                                                                                                      1*+2*+3*+4*+5*+;}.6*+7*+ @+8*+9*+0*+'<.-_ a*+b*+O1.>3.c*+d*+e*+f*+g*+h*+i*+j*+k*+l*+m*+n*+o*+p*+q*+r*+s*+t*+                                                                                                                                                                                             ",
"                                                                                                                                                                                    u*+v*+w*+x*+y*+z*+A*+B*+C*+D*+E*+F*+G*+bd.<n H*+I*+J*+K*+L*+M*+N*+O*+P*+Q*+R*+S*+T*+U*+V*+rI.IS.k0 jE.~< r# [$ oy )X.W*+X*+Y*+Z*+                                                                                                                                                                                                                                                                                                      3*+`*+ =+.=++=+@=+#=+$=+%=+ * &=+*=+==+-=+;=+>=+,).,=+'=+)=+!=+~=+{=+]=+^=+/=+(=+_=+:=+<=+[=+}=+|=+1=+2=+3=+                                                                                                                                                                                             ",
"                                                                                                                                                                                    4=+5=+6=+7=+8=+9=+0=+a=+b=+c=+d=+e=+f=+bg.g=+h=+i=+j=+k=+l=+m=+n=+o=+p=+q=+r=+s=+Ka t=+PI.<9 u=+^H mW kV.,k 0A.v=+w=+x=+y=+z=+                                                                                                                                                                                                                                                                                                      A=+B=+C=+-: D=+E=+F=+G=+H=+I=+J=+7/.K=+L=+M=+N=+O=+P=+Q=+R=+S=+T=+U=+V=+W=+X=+Y=+Z=+`=+ -+.-++-+@-+#-+$-+%-+&-+                                                                                                                                                                                             ",
"                                                                                                                                                                                 *-+=-+--+;-+>-+,-+'-+)-+!-+~-+{-+]-+^-+/-+(-+_-+:-+<-+[-+}-+|-+1-+2-+3-+4-+5-+6-+7-+n0 8-+49 9-+AK sJ.9K.rT 0-+a-+b-+c-+;`.d-+e-+                                                                                                                                                                                                                                                                                                      )8.f-+g-+h-+i-+j-+k-+l-+m-+n-+&'.#:.o-+p-+q-+T/.r-+s-+t-+u-+v-+w-+x-+y-+z-+A-+B-+C-+D-+E-+F-+G-+H-+I-+J-+K-+L-+M-+                                                                                                                                                                                          ",
"                                                                                                                                                                                 N-+O-+P-+Q-+R-+S-+T-+U-+V-+W-+X-+Y-+Z-+`-+ ;+.;++;+@;+#;+$;+%;+8c &;+*;+=;+1g -;+;;+QI..i >;+,;+zI <f.9K.';+);+!;+~;+{;+];+^;+                                                                                                                                                                                                                                                                                                         /;+(;+_;+:;+<;+n$.[;+};+jP |;+C9 1;+2;+3;+4;+5;+6;+7;+8;+9;+0;+a;+b;+c;+d;+e;+f;+g;+h;+i;+j;+k;+l;+m;+n;+o;+p;+q;+                                                                                                                                                                                          ",
"                                                                                                                                                                              r;+s;+t;+u;+v;+w;+x;+y;+z;+A;+B;+C;+D;+~j E;+F;+G;+H;+I;+J;+K;+L;+M;+N;+O;+P;+Q;+y6.QI.R;+UL.oc FI S;+Za.(Y.T;+U;+V;+FM.W;+X;+                                                                                                                                                                                                                                                                                                               Y;+Z;+`;+ >+.>++>+@>+#>+$>+%>+&>+*>+=>+->+;>+>>+,>+'>+)>+!>+~>+{>+]>+^>+/>+(>+_>+:>+<>+[>+}>+|>+1>+2>+3>+4>+5>+6>+                                                                                                                                                                                       ",
"                                                                                                                                                                              7>+8>+9>+0>+a>+b>+c>+d>+e>+f>+g>+h>+i>+j>+k>+l>+m>+n>+o>+p>+q>+r>+s>+t>+u>+v>+w>+ c Vd >;+x>+y>+{e.z>+oA A>+[P.B>+C>+D>+E>+                                                                                                                                                                                                                                                                                                                  F>+G>+H>+I>+J>+K>+L>+M>+N>+O>+P>+Q>+R>+S>+T>+U>+V>+W>+X>+Y>+Z>+`>+ ,+.,++,+@,+#,+$,+%,+&,+*,+=,+-,+;,+>,+,,+',+),+                                                                                                                                                                                       ",
"                                                                                                                                                                           'O !,+~,+{,+],+^,+/,+(,+_,+:,+<,+[,+},+|,+1,+2,+Ti 3,+4,+Yz 5,+6,+7,+8,+9,+0,+a,+HH.+% WG.x>+b,+c,+d,+74 e,+f,+g,+h,+i,+j,+                                                                                                                                                                                                                                                                                                                        k,+l,+m,+n,+77.o,+p,+q,+r,+s,+t,+u,+v,+w,+x,+y,+z,+A,+B,+C,+D,+E,+F,+G,+H,+I,+J,+K,+L,+M,+N,+O,+P,+Q,+R,+M/.S,+T,+                                                                                                                                                                                    ",
"                                                                                                                                                                        U,+V,+W,+X,+Y,+Z,+`,+ '+.'++'+@'+#'+$'+%'+&'+*'+='+ T.-'+;'+>'+,'+''+)'+!'+~'+{'+.V..c .% BI CT ]'+>x #7 $7 t/ ^'+/'+('+FM.,>.                                                                                                                                                                                                                                                                                                                        _'+:'+<'+['+}'+|'+1'+2'+3'+4'+5'+6'+7'+8'+9'+0'+a'+b'+c'+d'+J;.e'+q^.f'+g'+h'+i'+j'+k'+l'+m'+n'+o'+p'+q'+r'+s'+t'+                                                                                                                                                                                    ",
"                                                                                                                                                                     u'+v'+w'+x'+y'+z'+A'+B'+C'+D'+E'+F'+G'+H'+I'+J'+K'+L'+<O.M'+tY.N'+O'+P'+Q'+R'+S'+T'+&S.gT.qC.&w U'+3O.V'+W'+X'+Y'+Z'+`'+ )+.)+                                                                                                                                                                                                                                                                                                                           +)+@)+#)+$)+%)+9=.&)+*)+=)+C5.-)+;)+>)+,)+F,.')+6'+))+K!.!)+~)+{)+])+^)+/)+()+_)+:)+<)+[)+})+|)+1)+2)+3)+4)+5)+6)+7)+                                                                                                                                                                                 ",
"                                                                                                                                                                     8)+9)+0)+a)+b)+c)+d)+e)+f)+g)+h)+i)+j)+k)+l)+m)+n)+o)+3$ p)+q)+r)+s)+t)+u)+v)+w)+x)+UG.u=+y)+d,+;u z)+A)+L= B)+C)+D)+E)+F)+                                                                                                                                                                                                                                                                                                                                 G)+H)+I)+4,.J)+&< K)+L)+M)+N)+O)+P)+Q)+R)+S)+T)+U)+V)+W)+X)+Y)+Z)+`)+ !+.!++!+@!+#!+$!+%!+&!+*!+=!+-!+;!+>!+,!+'!+                                                                                                                                                                                 ",
"                                                                                                                                                               )!+!!+~!+{!+]!+^!+/!+(!+_!+:!+<!+[!+}!+|!+1!+2!+3!+4!+*D 5!+VN 6!+7!+8!+9!+0!+a!+b!+c!+d!+e!+%A ky f!+g!+ZO o4 h!+i!+j!+k!+l!+m!+                                                                                                                                                                                                                                                                                                                                 n!+o!+p!+q!+r!+s!+t!+<: u!+v!+w!+x!+y!+z!+A!+B!+Qz.C!+D!+E!+F!+G!+H!+I!+J!+K!+L!++X M!+N!+O!+P!+Q!+R!+S!+T!+U!+V!+W!+                                                                                                                                                                              ",
"                                                                                                                                                            X!+Y!+Z!+`!+ ~+.~++~+@~+#~+$~+%~+&~+*~+=~+-~+;~+>~+,~+'~+(< s9 )~+!~+~~+{~+]~+^~+/~+(~+_~+;S :~+<~+L9.[~+n4 }~+|~+@3.1~+2~+3~+4~+                                                                                                                                                                                                                                                                                                                                    5~+6~+7~+K>+8~+a< 9~+0~+a~+b~+c~+d~+e~+f~+g~+h~+i~+i} j~+k~+l~+m~+n~+o~+p~+q~+r~+s~+t~+u~+v~+w~+x~+y~+z~+A~+B~+C~+D~+                                                                                                                                                                              ",
"                                                                                                                                                         E~+F~+G~+H~+I~+J~+K~+L~+M~+N~+O~+P~+Q~+R~+S~+T~+U~+V~+W~+X~+Y~+Z~+3- `~+ {+.{++{+@{+#{+${+%{+I= rT sZ.&{+N5 ru S[.*{+={+-{+;{+>{+,{+                                                                                                                                                                                                                                                                                                                                    '{+){+!{+~{+{{+]{+^{+/{+9~+a~+55.v9 ({+sT _{+:{+<{+[{+}{+e[.|{+1{+2{+3{+4{+5{+6{+7{+8{+9{+0{+a{+b{+c{+d{+e{+f{+g{+h{+                                                                                                                                                                              ",
"                                                                                                                                                      i{+j{+k{+l{+m{+n{+o{+p{+q{+r{+s{+t{+u{+v{+w{+x{+y{+z{+A{+B{+C{+D{+E{+F{+G{+H{+I{+v@.J{+K{+/G.7K.L{+dZ 9Z !G.M{+N{+O{+P{+Q{+R{+S{+T{+U{+                                                                                                                                                                                                                                                                                                                                    V{+W{+X{+*7.Y{+Z{+`{+ ]+.]+S1 M5 QX &{++]++]+zp {r @]+#]+X_.$]+%]+&]+*]+=]+-]+;]+>]+,]+']+)]+!]+~]+{]+]]+^]+/]+(]+_]+:]+                                                                                                                                                                           ",
"                                                                                                                                                      <]+[]+}]+|]+1]+2]+3]+4]+5]+6]+7]+8]+9]+0]+a]+b]+c]+d]+e]+f]+g]+h]+i]+j]+k]+l]+m]+1F.c..n]+ V o]+p]+iD.Q` q]+cA.r]+s]+t]+u]+v]+w]+NH.                                                                                                                                                                                                                                                                                                                                       x]+y]+G'+3>.z]+|: A]+B]+C]+D]+E]+F]+F]+tZ.G]+Dp ws H]+I]+ ~.J]+K]+L]+M]+N]+O]+P]+Q]+R]+S]+T]+U]+V]+W]+X]+Y]+Z]+`]+ ^+.^+                                                                                                                                                                           ",
"                                                                                                                                                   +^+@^+#^+$^+%^+&^+*^+=^+-^+;^+>^+,^+'^+)^+!^+~^+{^+]^+^^+/^+(^+_^+:^+<^+[^+c@.}^+|^+1^+2^+|& 3^+4^+5^+j} 6^+7^+8^+9^+1^+0^+a^+b^+c^+d^+                                                                                                                                                                                                                                                                                                                                       '{+e^+f^+g^+h^+i^+j^+k^+l^+m^+e} n^+o^+p^+q^+r^+s^+t^+u^++'.v^+$>+w^+x^+y^+z^+A^+B^+C^+D^+E^+F^+G^+H^+I^+J^+K^+L^+M^+N^+                                                                                                                                                                           ",
"                                                                                                                                                   O^+P^+Q^+R^+S^+T^+U^+V^+W^+X^+Y^+Z^+`^+ /+./++/+@/+#/+$/+%/+&/+*/+=/+-/+;/+>/+,/+'/+)/+!/+,m ~/+{/+]/+^/+}Z //+(/+_/+:/+</+[/+}/+v] |/+                                                                                                                                                                                                                                                                                                                                       1/+2/+3/+4/+48.C_.5/+6/+7/+l8.8/+9/+V5 0/+_5.a/+b/+c/+d/+e/+f/+g/+h/+i/+j/+k/+l/+m/+n/+o/+p/+q/+r/+s/+t/+u/+v/+w/+x/+                                                                                                                                                                              ",
"                                                                                                                                                y/+z/+A/+B/+C/+D/+E/+F/+G/+H/+I/+J/+K/+L/+M/+N/+O/+P/+Q/+R/+S/+T/+U/+V/+W/+X/+Y/+Z/+`/+ (+21. 5.|[..(++(+m#.:J @(+#(+$(+%(+&(+*(+=(+-(+;(+                                                                                                                                                                                                                                                                                                                                       >(+,(+'(+)(+!(+~(+{(+21.&@.](+rj.>2.^(+p1.L2./(+S].((+_(+aV :(+<(+[(+}(+|(+1(+2(+3(+4(+5(+6(+7(+8(+9(+0(+a(+b(+c(+d(+                                                                                                                                                                              ",
"                                                                                                                                                e(+f(+g(+h(+i(+j(+k(+l(+m(+n(+o(+p(+q(+r(+s(+t(+u(+v(+w(+x(+y(+z(+A(+uc B(+C(+D(+E(+F(+G(+H(+I(+J(+K(+L(+M(+B4 N(+O(+P(+Q(+R(+S(+T(+U(+V(+                                                                                                                                                                                                                                                                                                                                       W(+X(+Y(+Z(+`(+ _+._++_+@_+#_+0(.$_+$_+pe.%_+GZ &_+*_+=_+-_+;_+>_+,_+'_+)_+!_+~_+{_+]_+^_+/_+(_+__+:_+<_+[_+}_+;5.                                                                                                                                                                                 ",
"                                                                                                                                                |_+1_+2_+3_+4_+5_+6_+7_+8_+9_+0_+a_+b_+c_+d_+e_+f_+g_+h_+i_+j_+k_+l_+m_+n_+o_+*W p_+q_+r_+s_+t_+u_+v_+w_+x_+y_+z_+A_+B_+C_+D_+E_+F_+G_+H_+                                                                                                                                                                                                                                                                                                                                       I_+J_+K_+v0.L_+M_+N_+M_+O_+M_+P_+5'+Q_+R_+S_+T_+U_+V_+W_+X_+Y_+Z_+`_+ :+.:++:+@:+#:+$:+%:+&:+*:+=:+-:+;:+>:+,:+                                                                                                                                                                                    ",
"                                                                                                                                                ':+):+!:+~:+{:+]:+^:+/:+(:+_:+::+<:+[:+}:+|:+1:+2:+3:+4:+5:+6:+7:+8:+9:+0:+a:+b:+c:+d:+!)+e:+f:+g:+.F h:+i:+j:+k:+l:+m:+n:+o:+p:+q:+r:+                                                                                                                                                                                                                                                                                                                                          s:+t:+u:+v:+w:+x:+N_+y9.M_+=/.y:+z:+A:+B:+C:+D:+E:+F:+G:+H:+I:+J:+,_+K:+L:+M:+N:+O:+P:+Q:+R:+S:+T:+U:+V:+W:+                                                                                                                                                                                       ",
"                                                                                                                                                X:+Y:+Z:+`:+ <+.<++<+@<+#<+$<+%<+&<+*<+=<+-<+;<+><+,<+'<+)<+!<+~<+{<+]<+^<+/<+(<+_<+:<+<<+[<+}<+|<+1<+2<+3<+zx 4<+5<+6<+7<+n:+12 8<+Qz.                                                                                                                                                                                                                                                                                                                                          9<+0<+a<+b<+c<+&%.@<.d<+e<+.{.f<+g<+y:+h<+i<+ld.j<+k<+l<+m<+D}.n<+o<+p<+q<+r<+s<+t<+u<+v<+w<+x<+y<+z<+A<+                                                                                                                                                                                          ",
"                                                                                                                                                B<+C<+D<+E<+F<+G<+H<+I<+J<+K<+L<+M<+N<+O<+P<+Q<+R<+S<+T<+U<+V<+W<+X<+Y<+Z<+`<+ [+.[++[+@[+77.#[+o,+$[+ '.%[+&[+*[+=[+9M -[+;[+>[+,[+                                                                                                                                                                                                                                                                                                                                                '[+)[+![+~[+{[+][+^[+/[+([+_[+:[+<[+[[+r,+M_+L_+}[+|[+1[+_<+2[+3[+4[+5[+6[+7[+8[+9[+0[+a[+b[+c[+d[+                                                                                                                                                                                             ",
"                                                                                                                                                e[+f[+g[+h[+i[+j[+k[+l[+m[+n[+o[+p[+q[+r[+s[+t[+u[+v[+w[+x[+y[+z[+A[+B[+C[+D[+E[+F[+P>+#[+#[+t,+G[+H[+ ~..~.I[+J[+K[+L[+M[+N[+O[+                                                                                                                                                                                                                                                                                                                                                   P[+Q[+R[+S[+T[+U[+V[+W[+X[+Y[+Z[+`[+ }+.}+3: */.+}+@}+#}+$}+%}+&}+*}+=}+-}+;}+>}+,}+'}+)}+T/+!}+~}+                                                                                                                                                                                             ",
"                                                                                                                                                {}+]}+^}+/}+(}+_}+:}+<}+[}+}}+|}+1}+2}+3}+4}+5}+6}+7}+8}+9}+0}+a}+b}+c}+d}+e}+f}+g}+t,+K>+t,+h}+G[+i}+s(.j}+k}+l}+m}+n}+o}+p}+q}+                                                                                                                                                                                                                                                                                                                                                         h$.r}+s}+t}+u}+v}+w}+x}+y}+z}+:[+A}+B}+O_+C}+u,+D}+E}+F}+G}+H}+I}+J}+K}+L}+M}+N}+O}+P}+Q}+R}+                                                                                                                                                                                             ",
"                                                                                                                                                   S}+T}+U}+V}+W}+X}+Y}+Z}+`}+ |+.|++|+@|+#|+$|+%|+&|+*|+=|+-|+;|+>|+,|+/t.'|+$>+)|+!|+~|+{|+]|+^|+/|+(|+ng.(|+_|+3r.:|+<|+[|+                                                                                                                                                                                                                                                                                                                                                                  }|+A; ||+1|+2|+3|+4|+5|+6|+7|+8|+9|+0|+a|+b|+c|+j$.d|+e|+f|+g|+h|+i|+j|+k|+l|+m|+}b n|+                                                                                                                                                                                             ",
"                                                                                                                                                   o|+p|+q|+r|+s|+t|+u|+v|+w|+x|+y|+z|+A|+B|+C|+D|+E|+F|+G|+H|+I|+p<+J|+K|+)|+L|+M|+N|+R*.*1 O|+P|+'_ *}.Q|+R|+S|+T|+U|+V|+W|+                                                                                                                                                                                                                                                                                                                                                                              X|+Y|+Z|+`|+ 1+.1++1+@1+#1+$1+%1+&1+*1+=1+-1+;1+>1+,1+'1+)1+!1+~1+{1+ug.]1+                                                                                                                                                                                             ",
"                                                                                                                                                      ^1+/1+(1+_1+:1+<1+[1+}1+|1+11+21+31+41+51+61+71+81+91+01+a1+b1+c1+d1+M>+e1+f1+g1+h1+i1+p..j1+.}+%s.k1+l1+m1+n1+o1+p1+                                                                                                                                                                                                                                                                                                                                                                                                v}+q1+r1+s1+q&.t1+u1+v1+w1+x1+M|+y1+z1+A1+B1+C1+D1+E1+F1+G1+                                                                                                                                                                                             ",
"                                                                                                                                                      H1+I1+J1+K1+L1+M1+N1+O1+P1+Q1+R1+S1+T1+U1+V1+W1+X1+Y1+Z1+`1+ 2+.2+N>++2+4|.@2+m8.#2+$2+%2+j1+3: &2+*2+=2+-2+;2+>2+,2+                                                                                                                                                                                                                                                                                                                                                                                                   '2+$Z )2+!2+3: q,+Y_.~2+ba.{2++2+]2+^2+/2+(2+_2+:2+<2+[2+                                                                                                                                                                                             ",
"                                                                                                                                                         }2+|2+12+22+32+42+52+62+72+82+92+02+a2+b2+c2+d2+e2+f2+g2++>+h2++2+*}.i2+j2+k2+l2+m2+n2+o2+p2+%/.q2+r2+s2+t2+u2+                                                                                                                                                                                                                                                                                                                                                                                                         v2+w2+x2+y2+.y.z2+/Z #%.A2+i}+B2+C2+p~+D2+E2+F2+G2+H2+                                                                                                                                                                                             ",
"                                                                                                                                                         I2+J2+K2+L2+M2+N2+O2+P2+Q2+R2+S2+T2+U2+V2+W2+X2+Y2+b:+Z2+`2+ 3+|'+.3+M#.+3+@1 @3+#3+n2+$3+%3+&3+*3+!}.=3+-3+;3+                                                                                                                                                                                                                                                                                                                                                                                                         >3+,3+'3+)3+!3+~3+{3+(Z (5.O|+]3+^3+/3+(3+_3+:3+<3+[3+                                                                                                                                                                                             ",
"                                                                                                                                                         }3+|3+13+23+33+43+53+63+73+83+93+03+a3+b3+c3+d3+e3+f3+g3+h3+i3+j3+k3+J)+l3+:2 m3+n3+# .o3+p3+%).q3+r3+s3+t3+u3+                                                                                                                                                                                                                                                                                                                                                                                                            v3+w3+x3+y3+^: z3+A3+B3+C3+D3+E3+F3+G3+H3+I3+J3+K3+                                                                                                                                                                                             ",
"                                                                                                                                                         L3+M3+N3+O3+P3+Q3+R3+S3+T3+U3+V3+W3+X3+Y3+Z3+`3+ 4+.4+[b +4+@4+#4+$4+%4+&4+*4+=4+-4+;4+>4+,4+'4+)4+!4+~4+{4+]4+                                                                                                                                                                                                                                                                                                                                                                                                            ^4+/4+(4+_4+^(+:4+0/+<4+[4+}4+|4+14+t{+24+34+44+54+64+                                                                                                                                                                                          ",
"                                                                                                                                                         74+84+94+04+a4+b4+c4+d4+e4+f4+g4+h4+i4+j4+k4+l4+A>.m4+KW }T n4+o4+l:+p4+q4+r4+s4+t4+&4+21.u4+-).v4+t2+Q}.w4+x4+                                                                                                                                                                                                                                                                                                                                                                                                               y4+z4+A4+B4+qj.C4+KK D4+E4+F4+G4+H4+I4+J4+K4+L4+M4+                                                                                                                                                                                          ",
"                                                                                                                                                         N4+O4+P4+Q4+R4+S4+T4+U4+V4+W4+X4+Y4+:v.Z4+`4+ 5+^2..5+ O +5+@5+#5+$5+G` %5+&5+*5+*5+ 5.l2.=5+-).-5+;5+>5+,5+                                                                                                                                                                                                                                                                                                                                                                                                                  '5+)5+!5+!/.L#.9/+~5+{5+]5+^5+/5+(5+_5+:5+<5+[5+(x.                                                                                                                                                                                          ",
"                                                                                                                                                         }5+|5+15+25+35+45+55+65+75+85+f9.95+05+a5+b5+c5+d5+e5+f5+g5+h5+i5+j5+j:+k5+l5+l5+m5+n5+o5+.<.p5+q5+r5+s5+t5+                                                                                                                                                                                                                                                                                                                                                                                                                  u5+v5+w5+x5+y5+z5+v}.K0.A5+ 2+B5+C5+D5+E5+F5+G5+H5+                                                                                                                                                                                          ",
"                                                                                                                                                      I5+J5+K5+L5+M5+N5+O5+P5+Q5+R5+S5+T5+U5+V5+W5+X5+M|+Y5+Z5+`5+ 6+k)..6+ ~. ~. ~.+6+@6+#6+$6+[4+%6+&6+*6+=6+-6+                                                                                                                                                                                                                                                                                                                                                                                                                        ;6+>6+,6+'6+)6+/|+!6+N>+}'+~6+{6+]6+^6+/6+(6+_6+r^.                                                                                                                                                                                       ",
"                                                                                                                                                      :6+<6+[6+}6+|6+16+26+b1+36+ER 46+56+66+76+86+96+06+a6+N'.b6+ '.c6+d6+e6+c6+.6+GZ f6+g6+h6+i6+j6+H_.k6+l6+                                                                                                                                                                                                                                                                                                                                                                                                                           m6+n6+o6+p6+q6+r6+s6+]|++>+t6+u6+v6+w6+x6+y6+z6+A6+                                                                                                                                                                                       ",
"                                                                                                                                                      B6+C6+D6+E6+F6+G6+H6+I6+J6+K6+L6+M6+N6+Z_.O6+P6+Q6+R6+]-.S6+S6+T6+ '.U6+1<+i5+T].V6+W6+X6+Y6+o&.Z6+                                                                                                                                                                                                                                                                                                                                                                                                                                 `6+j0. 7+.7++7+@7+sj.]|++>+#7+$7+%7+&7+*7+uV =7+-7+;7+                                                                                                                                                                                    ",
"                                                                                                                                                   >7+,7+'7+)7+!7+~7+{7+]7+^7+/7+(7+_7+:7+<7+[7+[..}7+|7+17+27+37+47+57+57+67+77+87+97+07+a7+X6+Y6+Vo                                                                                                                                                                                                                                                                                                                                                                                                                                        ~8.b7+c7+T|.d7+Q_+$w.e7+f7+g7+h7+i7+j7+k7+l7+m7+n7+                                                                                                                                                                                    ",
"                                                                                                                                                   o7+p7+q7+r7+s7+t7+u7+v7+w7+x7+o,+q,+$_+y7+f6+i5+67+z7+A7+B7+C7+C7+D7+.F E7+E7+F7+87+87+T].G7+                                                                                                                                                                                                                                                                                                                                                                                                                                             H7+I7+J7+K7+ _+sj.K'.L7+M7+N7+O7+P7+Q7+R7+S7+T7+U7+                                                                                                                                                                                    ",
"                                                                                                                                                   V7+W7+X7+Y7+Z7+`7+ 8+.8++8+@8+#8+/|+^(+$8+c6+%8+&8+*8+=8+-8+;8+>8+,8+,8+'8+'8+)8+j:+jS                                                                                                                                                                                                                                                                                                                                                                                                                                                    !8+~8+{8+]8+^8+/8+(8+B:+_8++[+,1+:8+<8+[8+}8+|8+18+28+                                                                                                                                                                                 ",
"                                                                                                                                                   38+48+58+68+78+88+98+08+a8+b8+.y.^(+c8+d8+e8+f8+g8+h8+i8+j8+j8+                                                                                                                                                                                                                                                                                                                                                                                                                                                                           k8+l8+m8+n8+o8+p8+S*.q8+G[+s,+r8+s8+t8+u8+v8+w8+x8+y8+                                                                                                                                                                                 ",
"                                                                                                                                                   z8+A8+B8+C8+D8+E8+Ib.F8+G8+H8+I8+J8+^<.K8+LH L8+<Z M8+N8+                                                                                                                                                                                                                                                                                                                                                                                                                                                                                    O8+P8+Q8+R8+58.S|+S8+e1+T8+U8+V8+W8+X8+Y8+Z8+`8+ 9+.9+                                                                                                                                                                              ",
"                                                                                                                                                +9+@9+#9+$9+%9+&9+*9+=9+-9+;9+>9+I8+,9+'9+)9+!9+~9+m#.{9+                                                                                                                                                                                                                                                                                                                                                                                                                                                                                       ]9+^9+/9+(9+_9+R_+:9+<9+[9+OH }9+|9+19+29+39+49+59+69+79+                                                                                                                                                                           ",
"                                                                                                                                                89+99+09+a9+b9+c9+d9+e9+f9+c2.A9.!3+z5+g9+h9+i9+x&+m#.                                                                                                                                                                                                                                                                                                                                                                                                                                                                                          j9+k9+l9+m9+n9+o9+j}+p9+$4+q9+r9+s9+t9+u9+v9+w9+x9+y9+z9+A9+                                                                                                                                                                        ",
"                                                                                                                                             B9+C9+D9+E9+F9+G9+H9+I9+]7+J9+K9+a8 3'+{2+L9+M9+i9+x&+N9+                                                                                                                                                                                                                                                                                                                                                                                                                                                                                          O9+P9+Q9+R9+&v.*1 3|.S9+$_ T9+U9+V9+W9+X9+Y9+Z9+`9+ 0+.0++0+@0+                                                                                                                                                                     ",
"                                                                                                                                             #0+$0+%0+&0+*0+=0+-0+;0+>0+w:+#x.D!+pe.,0+~5+'0+M9+)0+                                                                                                                                                                                                                                                                                                                                                                                                                                                                                          !0+~0+{0+]0+^0+C}+!6+^(+B3+/0+m8.!=.(0+_0+:0+<0+[0+}0+|0+10+20+30+                                                                                                                                                                     ",
"                                                                                                                                             40+50+60+70+80+90+00+a0+b0+c0+d0+e0+f1+f0+2@.N(+g0+h9+                                                                                                                                                                                                                                                                                                                                                                                                                                                                                          h0+i0+j0+k0+l0+m0+!6+c8+A2+n0+o0+p0+q0+r0+s0+t0+u0+v0+w0+x0+y0+z0+A0+                                                                                                                                                                  ",
"                                                                                                                                          :&.B0+C0+D0+E0+F0+G0+H0+I0+J0+K0+R_+L0+f1+kd.M0+N0+O0+                                                                                                                                                                                                                                                                                                                                                                                                                                                                                             P0+Q0+R0+S0+T0+U0+K0.^<.Y| V0+YX W0+X0+Y0+Z0+`0+ a+.a++a+@a+#a+$a+%a+&a+                                                                                                                                                               ",
"                                                                                                                                          *a+=a+-a+;a+>a+,a+'a+)a+!a+~a+uf.v1+L0+f1+D!+{a+]a+^a+                                                                                                                                                                                                                                                                                                                                                                                                                                                                                             /a+(a+_a+:a+<a+[a+o9+S9+D$+O5 }a+|a+1a+2a+3a+4a+5a+6a+7a+8a+9a+0a+aa+ba+ca+                                                                                                                                                            ",
"                                                                                                                                          da+ea+fa+ga+ha+ia+ja+ka+la+ma+na+oa+pa+qa+D!+{a+]a+                                                                                                                                                                                                                                                                                                                                                                                                                                                                                                ra+sa+ta+ua+va+D-.wa+qa+}2 xa+ya+u4+za+Aa+Ba+Ca+Da+Ea+Fa+Ga+Ha+Ia+Ja+Ka+La+Ma+Na+                                                                                                                                                      ",
"                                                                                                                                          Oa+Pa+Qa+Ra+Sa+Ta+Ua+Va+Wa+#}+Xa+Ya+Za+`a+ b+.b+8M                                                                                                                                                                                                                                                                                                                                                                                                                                                                                                 +b+@b+#b+$b+%b+&b+*b+=b+-b+.b+ b+oa+Z2+;b+>b+,b+'b+)b+!b+~b+{b+]b+^b+/b+(b+_b+:b+<b+                                                                                                                                                   ",
"                                                                                                                                          [b+}b+|b+1b+2b+3b+4b+5b+6b+ma+ld.7b+k6+A9.N6.:|.                                                                                                                                                                                                                                                                                                                                                                                                                                                                                                   8b+9b+0b+ab+bb+cb+db+eb+fb+gb+e1+M>+hb+ib+jb+kb+lb+mb+nb+ob+pb+qb+rb+sb+tb+ub+vb+wb+xb+yb+                                                                                                                                             ",
"                                                                                                                                       zb+Ab+Bb+Cb+Db+Eb+Fb+Gb+Hb+Ib+Jb+u1+p#.53.A9.Kb+:|.                                                                                                                                                                                                                                                                                                                                                                                                                                                                                                   Lb+Mb+Nb+Ob+Pb+Qb+Rb+P>+4,.h2+Sb+Tb+Ub+Vb+Wb+Xb+Yb+Zb+`b+ c+.c++c+@c+#c+$c+%c+&c+*c+=c+-c+;c+                                                                                                                                          ",
"                                                                                                                                       >c+,c+'c+)c+!c+~c+{c+]c+^c+T5+/c+(c+k6+53.A9.Kb+                                                                                                                                                                                                                                                                                                                                                                                                                                                                                                         _c+:c+<c+[c+y].}c+!=.|c+X5+1c+Sb+2c+3c+4c+5c+6c+7c+8c+9c+0c+ac+bc+cc+dc+ec+fc+gc+hc+ic+jc+kc+                                                                                                                                       ",
"                                                                                                                                    lc+mc+nc+oc+pc+qc+rc+sc+tc+'u.uc+vc+wc+k6+53.A9.xc+                                                                                                                                                                                                                                                                                                                                                                                                                                                                                                         yc+zc+Ac+Bc+Cc+Dc+~=.P>+fb+1c+Ec+Fc+Gc+Hc+Ic+Jc+Kc+g7+Lc+Mc+Nc+Oc+Pc+Qc+Rc+Sc+Tc+Uc+Vc+Wc+Xc+Yc+Zc+                                                                                                                                 ",
"                                                                                                                                    `c+ d+.d++d+@d+#d+$d+%d+&d+*d+=d+-d+wc+k6+53.;d+                                                                                                                                                                                                                                                                                                                                                                                                                                                                                                            >d+,d+'d+)d+!d+~d+{d+W5+N>+]d+#8+p,+^d+/d+Ec+]d+O>+U5+(d+_d+:d+<d+[d+}d+|d+1d+2d+3d+4d+5d+6d+7d+8d+9d+0d+                                                                                                                           ",
"                                                                                                                                 ad+bd+cd+dd+ed+04+fd+gd+hd+id+jd+kd+ld+N_+md+53.53.                                                                                                                                                                                                                                                                                                                                                                                                                                                                                                            nd+od+pd+qd+rd+sd+td+ud+N>+o,+vd+(|+wd+2'+2'+.y.!6+Wp.!=.xd+yd+zd+Ad+Bd+Cd+Dd+Ed+Fd+Gd+Hd+Id+Jd+Kd+Ld+Md+Nd+Od+Pd+                                                                                                                  ",
"                                                                                                                                 Qd+Rd+Sd+Td+Ud+Vd+Wd+Xd+Yd+Zd+6f `d+W5+N_+md+53.53.                                                                                                                                                                                                                                                                                                                                                                                                                                                                                                             e+.e++e+@e+t@.#e+$e+%e+=b+Ec+H[+ng.&e+*e+=e+g9+J8+-e+%s.!=.;e+>e+,e+'e+.X )e+!e+~e+{e+]e+^e+/e+(e+_e+:e+<e+[e+}e+|e+1e+                                                                                                            ",
"                                                                                                                              2e+3e+4e+5e+6e+7e+8e+9e+0e+ae+be+ce+G~.q!+de+md+53.                                                                                                                                                                                                                                                                                                                                                                                                                                                                                                                  ee+fe+ge+he+ie+je+ke+le+|'+p,+&e+me+ne+oe+pe+qe+re+j1+<[+se+te+ue+ve+we+xe+ye+ze+Ae+Be+Ce+De+Ee+Fe+Ge+He+Ie+Je+Ke+Le+Me+                                                                                                         ",
"                                                                                                                           Ne+Oe+Pe+Qe+Re+Se+Te+Ue+Ve+We+Xe+Ye+Ze+~=.Wp.0(.md+53.                                                                                                                                                                                                                                                                                                                                                                                                                                                                                                                  `e+ f+.f++f+@f+#f+%6._t $f+3'+=}.%f+pe+fn &f+@b.*f+=f+-f+;f+'5.>f+,f+'f+)f+!f+~f+{f+]f+^f+/f+(f+_f+:f+<f+[f+}f+|f+1f+2f+                                                                                                         ",
"                                                                                                                           3f+4f+5f+6f+7f+8f+9f+0f+af+bf+cf+df+ef+ff+p2+gf+md+53.53.                                                                                                                                                                                                                                                                                                                                                                                                                                                                                                                  hf+if+jf+kf+lf+mf+O6.nf+of+'9+7< w4 pf+qf+rf+sf+*f+tf+uf+vf+1>.wf+xf+yf+zf+Af+Bf+Cf+Df+Ef+Ff+Gf+Hf+If+Jf+Kf+Lf+Mf+R5+Nf+                                                                                                      ",
"                                                                                                                        Of+Pf+Qf+Rf+Sf+Tf+Uf+Vf+Wf+Xf+Yf+Zf+`f+ g+.g+Am.G_.+g+53.53.                                                                                                                                                                                                                                                                                                                                                                                                                                                                                                                     ;6.@g+j3+#g+$g+Z7.%g+&g+*g+7< 8< =g+-g+;g+>g+c3 ,g+H8+'g+)g+!g+~g+{g+]g+^g+/g+(g+_g+:g+<g+[g+}g+|g+1g+2g+3g+4g+5g+#}+                                                                                                      ",
"                                                                                                                     6g+7g+8g+9g+0g+ag+bg+cg+dg+eg+fg+gg+hg+ig+jg+kg+lg+gf+mg+53.53.                                                                                                                                                                                                                                                                                                                                                                                                                                                                                                                        ng+og+K9+pg+[[.qg+N6.*g+me+rg+8< sg+i1.tg+;< ug+A9 vg+wg+l<+xg+yg+zg+Ag+Bg+Cg+Dg+Eg+Fg+E|+Gg+Hg+Ig+Jg+Kg+Lg+Mg+Jc+                                                                                                      ",
"                                                                                                                     Ng+Og+Pg+Qg+Rg+Sg+Tg+Ug+Vg+Wg+Xg+Yg+Zg+`g+ h+.h++h+@h+#h+k6+j<.                                                                                                                                                                                                                                                                                                                                                                                                                                                                                                                                 S|.$h+*g+%h+         %h+&h+%f+g3 M9+*h+=h+-h+;h+>h+,h+'h+)h+%7+!h+~h+{h+]h+^h+/h+(h+_h+:h+<h+[h+b:+}h+|h+                                                                                                      ",
"                                                                                                                  1h+2h+3h+4h+5h+6h+7h+8h+9h+0h+ah+bh+ch+dh+eh+fh+gh++h+@h+hh+k6+j<.                                                                                                                                                                                                                                                                                                                                                                                                                                                                                                                                                         p1.B4 ih+ne.jd.jh+{-.+R kh+lh+%O 2J mh+nh+oh+ph+qh+rh+sh+th+uh+vh+L&+wh+xh+yh+L$.                                                                                                      ",
"                                                                                                               zh+Ah+Bh+Ch+Dh+Eh+Fh+Gh+Hh+Ih+Jh+Kh+Lh+Mh+Nh+Oh+p2+Ph+Qh+Rh+hh+k6+j<.                                                                                                                                                                                                                                                                                                                                                                                                                                                                                                                                                            3|.Sh+~2+r(.HW Th+Th+Uh+Vh+Wh+Xh+05+Yh+Zh+`h+ i+.i++i+la+@i+#i+$i+%i+&i+*i+=i+                                                                                                      ",
"                                                                                                               -i+;i+>i+,i+'i+)i+!i+~i+{i+]i+^i+/i+(i+_i+xd+}c+:i+o2+O|+Rh+](+k6+j<.                                                                                                                                                                                                                                                                                                                                                                                                                                                                                                                                                               Sh+c6+ '.57+<i+^z 87+L'.[i+}i+|i+1i+]2+2i+3i+3i+/c+K]+4i+tf.l}+]-.5i+6i+                                                                                                         ",
"                                                                                                            7i+8i+9i+0i+ai+bi+ci+di+ei+fi+gi+hi+ii+ji+ki+S}.NA.li+rj.07.Rh+hh+k6+j<.                                                                                                                                                                                                                                                                                                                                                                                                                                                                                                                                                                   ~.d6+z7+mi+67+d{.jS p9+ni+l6+oi+oi+pi+pi+qi+q*.+'.3<+ri+AA si+ti+ui+                                                                                                         ",
"                                                                                                            vi+wi+UV xi+yi+zi+Ai+Bi+Ci+Di+Ei+Fi+Gi+Hi+Ii+Ji+k,.Ki+&1 Li+4|.hh+k6+j<.                                                                                                                                                                                                                                                                                                                                                                                                                                                                                                                                                                     Mi+c6+ '.'8+r(.l5+Ni+Oi+Pi+L} Qi+Ri+Ri+Si+Ti+Ui+Vi+Wi+Xi+Yi+Zi+                                                                                                            ",
"                                                                                                            `i+ j+.j++j+@j+#j+$j+%j+&j+*j+=j+(]+-j+;j+>j+,j+'j+qg+)j+!j+4|.hh+k6+j<.                                                                                                                                                                                                                                                                                                                                                                                                                                                                                                                                                                           Mi+{3+~j+ih+{j+]j+^j+/j+(j+_j+:j+<j+[j+}j+|j+1j+2j+                                                                                                                  ",
"                                                                                                         3j+4j+5j+6j+7j+8j+9j+0j+aj+bj+cj+dj+ej+fj+gj+hj+ij+k8.jj+kj+3@.4|.hh+k6+lj+                                                                                                                                                                                                                                                                                                                                                                                                                                                                                                                                                                                       mj+@b.nj+/P UE (S oj+pj+xY.qj+                                                                                                                           ",
"                                                                                                         rj+sj+tj+uj+vj+wj+xj+yj+zj+Aj+Bj+Cj+Dj+Ej+Fj+Gj+Hj+Ij+~5+Jj+S|.4|.hh+k6+lj+                                                                                                                                                                                                                                                                                                                                                                                                                                                                                                                                                                                                                                                                                                                                                ",
"                                                                                                         Kj+Lj+Mj+Nj+Oj+Pj+Qj+Rj+Sj+Tj+Uj+Vj+Wj+Xj+Yj+Zj+G8+%%.`j+ih+Li+4|.hh+k6+lj+6/+                                                                                                                                                                                                                                                                                                                                                                                                                                                                                                                                                                                                                                                                                                                                             ",
"                                                                                                          k+.k++k+@k+#k+$k+%k+&k+*k+=k+-k+;k+>k+,k+'k+)k+!k+~k+{k+^<.>2.4|.](+A9.lj+                                                                                                                                                                                                                                                                                                                                                                                                                                                                                                                                                                                                                                                                                                                                                ",
"                                                                                                         ]k+^k+/k+(k+_k+:k+<k+[k+}k+|k+1k+2k+3k+4k+5k+6k+7k+8k+w}.J8+J8+L0.8=.I[.9k+                                                                                                                                                                                                                                                                                                                                                                                                                                                                                                                                                                                                                                                                                                                                                ",
"                                                                                                         0k+ak+bk+ck+dk+ek+fk+gk+hk+ik+jk+kk+lk+mk+nk+ok+pk+qk+ D.=/.Li+:|.!9.Oi+rk+                                                                                                                                                                                                                                                                                                                                                                                                                                                                                                                                                                                                                                                                                                                                                ",
"                                                                                                            sk+tk+uk+vk+wk+xk+yk+zk+Ak+Bk+Ck+Dk+Ek+Fk+Gk+Hk+Ik+Jk+Kk+Lk+g} Mk+i1.Nk+                                                                                                                                                                                                                                                                                                                                                                                                                                                                                                                                                                                                                                                                                                                                                ",
"                                                                                                            Ok+Pk+Qk+Rk+Sk+Tk+Uk+Vk+Wk+Xk+Yk+Zk+`k+ l+.l++l+@l+#l+$l+%l+f3 x@+&l+                                                                                                                                                                                                                                                                                                                                                                                                                                                                                                                                                                                                                                                                                                                                                   ",
"                                                                                                               *l+=l+-l+;l+>l+,l+'l+)l+!l+~l+{l+/U ]l+^l+/l+(l+_l+:l+%l+mj+4Z ~X.                                                                                                                                                                                                                                                                                                                                                                                                                                                                                                                                                                                                                                                                                                                                                   ",
"                                                                                                                  <l+[l+}l+|l+1l+2l+3l+4l+5l+6l+7l+8l+9l+0l+al+bl+cl+dl+el+fl+                                                                                                                                                                                                                                                                                                                                                                                                                                                                                                                                                                                                                                                                                                                                                      ",
"                                                                                                                  gl+hl+il+jl+kl+ll+ml+nl+ol+pl+ql+rl+sl+tl+ul+Oh+vl+wl+e}                                                                                                                                                                                                                                                                                                                                                                                                                                                                                                                                                                                                                                                                                                                                                          ",
"                                                                                                                     xl+yl+zl+Al+Bl+Cl+Dl+El+Fl+Gl+2_.^5+|c+Hl+o9+Il+g9+                                                                                                                                                                                                                                                                                                                                                                                                                                                                                                                                                                                                                                                                                                                                                            ",
"                                                                                                                        Jl+Kl+Ll+Ml+Nl+Ol+Pl+Ql+Rl+Sl+Tl+Ul+Vl+Wl+K(+                                                                                                                                                                                                                                                                                                                                                                                                                                                                                                                                                                                                                                                                                                                                                               ",
"                                                                                                                           Xl+Yl+Zl+`l+ m+.m++m+@m+#m+$m++'.%m+&m+                                                                                                                                                                                                                                                                                                                                                                                                                                                                                                                                                                                                                                                                                                                                                                  ",
"                                                                                                                              *m+=m+-m+;m+>m+,m+'m+f{.+'.)m+                                                                                                                                                                                                                                                                                                                                                                                                                                                                                                                                                                                                                                                                                                                                                                        ",
"                                                                                                                                                                                                                                                                                                                                                                                                                                                                                                                                                                                                                                                                                                                                                                                                                                                                                                                                    ",
"                                                                                                                                                                                                                                                                                                                                                                                                                                                                                                                                                                                                                                                                                                                                                                                                                                                                                                                                    ",
"                                                                                                                                                                                                                                                                                                                                                                                                                                                                                                                                                                                                                                                                                                                                                                                                                                                                                                                                    ",
"                                                                                                                                                                                                                                                                                                                                                                                                                                                                                                                                                                                                                                                                                                                                                                                                                                                                                                                                    ",
"                                                                                                                                                                                                                                                                                                                                                                                                                                                                                                                                                                                                                                                                                                                                                                                                                                                                                                                                    "};
