/* XPM */
static char * gamer_xpm[] = {
"300 300 17170 3",
"   	c None",
".  	c #010001",
"+  	c #020001",
"@  	c #030002",
"#  	c #020002",
"$  	c #040101",
"%  	c #050100",
"&  	c #040102",
"*  	c #030103",
"=  	c #030102",
"-  	c #030000",
";  	c #070105",
">  	c #070003",
",  	c #080003",
"'  	c #090103",
")  	c #0A0104",
"!  	c #0B0104",
"~  	c #0E0103",
"{  	c #0F0103",
"]  	c #110104",
"^  	c #0F0104",
"/  	c #0D0103",
"(  	c #0C0103",
"_  	c #0A0103",
":  	c #0C0104",
"<  	c #0D0104",
"[  	c #0B0004",
"}  	c #0A0004",
"|  	c #080004",
"1  	c #070004",
"2  	c #060102",
"3  	c #090105",
"4  	c #0D0004",
"5  	c #0E0004",
"6  	c #130104",
"7  	c #140104",
"8  	c #150105",
"9  	c #180205",
"0  	c #160105",
"a  	c #150104",
"b  	c #120104",
"c  	c #110005",
"d  	c #100004",
"e  	c #0F0004",
"f  	c #0C0004",
"g  	c #0F0105",
"h  	c #0A0005",
"i  	c #0A0301",
"j  	c #090104",
"k  	c #0A0105",
"l  	c #0D0105",
"m  	c #140204",
"n  	c #160204",
"o  	c #1D0503",
"p  	c #210703",
"q  	c #270A04",
"r  	c #2B1103",
"s  	c #2F1F04",
"t  	c #2D2104",
"u  	c #2E2104",
"v  	c #312106",
"w  	c #322106",
"x  	c #2A2104",
"y  	c #252003",
"z  	c #251E03",
"A  	c #241F02",
"B  	c #231B03",
"C  	c #1D0804",
"D  	c #1C0704",
"E  	c #1D0903",
"F  	c #170504",
"G  	c #0E0104",
"H  	c #0B0105",
"I  	c #090004",
"J  	c #0C0504",
"K  	c #0C0505",
"L  	c #0F0403",
"M  	c #160304",
"N  	c #5E2402",
"O  	c #652701",
"P  	c #642601",
"Q  	c #7D3901",
"R  	c #914601",
"S  	c #924901",
"T  	c #A56701",
"U  	c #C9A10C",
"V  	c #CCAA14",
"W  	c #CDAB15",
"X  	c #CEB01F",
"Y  	c #CEB020",
"Z  	c #CCAC1B",
"`  	c #C8A30A",
" . 	c #C69803",
".. 	c #C69B03",
"+. 	c #BD8F02",
"@. 	c #8D4801",
"#. 	c #8B4201",
"$. 	c #8E4601",
"%. 	c #6E3802",
"&. 	c #240703",
"*. 	c #190304",
"=. 	c #0F0506",
"-. 	c #0B0202",
";. 	c #0D0304",
">. 	c #1C1008",
",. 	c #1D1208",
"'. 	c #190E06",
"). 	c #1E1108",
"!. 	c #1F1309",
"~. 	c #130705",
"{. 	c #1E1309",
"]. 	c #1E1409",
"^. 	c #0E0404",
"/. 	c #0A0303",
"(. 	c #0B0304",
"_. 	c #0D0303",
":. 	c #0B0303",
"<. 	c #0C0404",
"[. 	c #0C0303",
"}. 	c #0A0003",
"|. 	c #1A0504",
"1. 	c #6F2D00",
"2. 	c #722D00",
"3. 	c #712B00",
"4. 	c #934600",
"5. 	c #A85400",
"6. 	c #A75300",
"7. 	c #C07201",
"8. 	c #F7AC06",
"9. 	c #FBB60B",
"0. 	c #FDB90E",
"a. 	c #FDC116",
"b. 	c #FEC217",
"c. 	c #FEBE14",
"d. 	c #F5AD0B",
"e. 	c #F09600",
"f. 	c #EF9800",
"g. 	c #E18E01",
"h. 	c #964700",
"i. 	c #924400",
"j. 	c #904400",
"k. 	c #753601",
"l. 	c #310C03",
"m. 	c #250803",
"n. 	c #1E0504",
"o. 	c #070203",
"p. 	c #0A0204",
"q. 	c #110705",
"r. 	c #0C0304",
"s. 	c #0F0203",
"t. 	c #1C0603",
"u. 	c #732F01",
"v. 	c #7C3300",
"w. 	c #7A3100",
"x. 	c #A65400",
"y. 	c #B86000",
"z. 	c #B45C00",
"A. 	c #C77803",
"B. 	c #F8AF07",
"C. 	c #FBB209",
"D. 	c #FDB70B",
"E. 	c #FEC013",
"F. 	c #FEC216",
"G. 	c #FEC214",
"H. 	c #F9B20B",
"I. 	c #EF9801",
"J. 	c #EE9801",
"K. 	c #DF8A01",
"L. 	c #9C4800",
"M. 	c #984500",
"N. 	c #954500",
"O. 	c #783501",
"P. 	c #401102",
"Q. 	c #300B02",
"R. 	c #220504",
"S. 	c #100206",
"T. 	c #0A0205",
"U. 	c #0D0005",
"V. 	c #0E0003",
"W. 	c #130103",
"X. 	c #150203",
"Y. 	c #130204",
"Z. 	c #140203",
"`. 	c #120204",
" + 	c #110204",
".+ 	c #0B0106",
"++ 	c #080104",
"@+ 	c #030003",
"#+ 	c #040003",
"$+ 	c #040001",
"%+ 	c #050102",
"&+ 	c #050103",
"*+ 	c #060103",
"=+ 	c #080103",
"-+ 	c #050002",
";+ 	c #050104",
">+ 	c #070202",
",+ 	c #080202",
"'+ 	c #120705",
")+ 	c #615204",
"!+ 	c #A28102",
"~+ 	c #A58703",
"{+ 	c #A68902",
"]+ 	c #B48D02",
"^+ 	c #BB8702",
"/+ 	c #B98301",
"(+ 	c #CA8902",
"_+ 	c #D38A01",
":+ 	c #D28403",
"<+ 	c #DA9A36",
"[+ 	c #F5CD70",
"}+ 	c #F9CF80",
"|+ 	c #FAD382",
"1+ 	c #FBDA87",
"2+ 	c #FCDA84",
"3+ 	c #FCD772",
"4+ 	c #FACF68",
"5+ 	c #F2C360",
"6+ 	c #EFC158",
"7+ 	c #E9B74C",
"8+ 	c #C98D0C",
"9+ 	c #C48702",
"0+ 	c #C38A03",
"a+ 	c #A36C02",
"b+ 	c #793601",
"c+ 	c #6F3101",
"d+ 	c #612A03",
"e+ 	c #170405",
"f+ 	c #0E0105",
"g+ 	c #0C0206",
"h+ 	c #0A0305",
"i+ 	c #060204",
"j+ 	c #060203",
"k+ 	c #110704",
"l+ 	c #270C03",
"m+ 	c #3A1103",
"n+ 	c #3C1503",
"o+ 	c #7B3A01",
"p+ 	c #884301",
"q+ 	c #874D01",
"r+ 	c #A38102",
"s+ 	c #A58302",
"t+ 	c #A78402",
"u+ 	c #A78201",
"v+ 	c #A88301",
"w+ 	c #A57F02",
"x+ 	c #8F5001",
"y+ 	c #8F4E01",
"z+ 	c #985B01",
"A+ 	c #603A04",
"B+ 	c #100305",
"C+ 	c #0C0503",
"D+ 	c #060003",
"E+ 	c #090003",
"F+ 	c #0C0005",
"G+ 	c #110205",
"H+ 	c #0C0205",
"I+ 	c #0F0505",
"J+ 	c #100204",
"K+ 	c #100104",
"L+ 	c #906D01",
"M+ 	c #D68100",
"N+ 	c #D57D00",
"O+ 	c #D57E00",
"P+ 	c #E79201",
"Q+ 	c #E89001",
"R+ 	c #E58D01",
"S+ 	c #E99401",
"T+ 	c #EE9800",
"U+ 	c #EF9803",
"V+ 	c #F1B34B",
"W+ 	c #FCF888",
"X+ 	c #FFFD8B",
"Y+ 	c #FFFD8F",
"Z+ 	c #FFFE94",
"`+ 	c #FFFE92",
" @ 	c #FFFD8D",
".@ 	c #FFFA7F",
"+@ 	c #FFF363",
"@@ 	c #FFF15E",
"#@ 	c #FDE352",
"$@ 	c #F9AD0E",
"%@ 	c #F8A907",
"&@ 	c #F7A905",
"*@ 	c #C58702",
"=@ 	c #8A3C00",
"-@ 	c #823700",
";@ 	c #763101",
">@ 	c #1D0505",
",@ 	c #100105",
"'@ 	c #130206",
")@ 	c #0F0205",
"!@ 	c #180404",
"~@ 	c #401500",
"{@ 	c #481600",
"]@ 	c #572300",
"^@ 	c #A55100",
"/@ 	c #A75200",
"(@ 	c #AD5800",
"_@ 	c #DE8600",
":@ 	c #E48A00",
"<@ 	c #E58A00",
"[@ 	c #E99100",
"}@ 	c #E78E00",
"|@ 	c #E68E00",
"1@ 	c #B35C00",
"2@ 	c #B15B00",
"3@ 	c #AF5B00",
"4@ 	c #804102",
"5@ 	c #340D01",
"6@ 	c #2B0903",
"7@ 	c #220704",
"8@ 	c #100205",
"9@ 	c #0C0203",
"0@ 	c #060004",
"a@ 	c #0E0005",
"b@ 	c #100005",
"c@ 	c #150205",
"d@ 	c #120205",
"e@ 	c #0D0205",
"f@ 	c #100605",
"g@ 	c #0C0405",
"h@ 	c #130105",
"i@ 	c #180304",
"j@ 	c #906301",
"k@ 	c #D17A00",
"l@ 	c #D27900",
"m@ 	c #E89101",
"n@ 	c #E38B00",
"o@ 	c #EB9501",
"p@ 	c #F09900",
"q@ 	c #F19903",
"r@ 	c #F2B24A",
"s@ 	c #FDFA87",
"t@ 	c #FFFE8B",
"u@ 	c #FFFF8E",
"v@ 	c #FEFF92",
"w@ 	c #FEFF93",
"x@ 	c #FFFF93",
"y@ 	c #FEFB82",
"z@ 	c #FFF35E",
"A@ 	c #FDE253",
"B@ 	c #FBAE0E",
"C@ 	c #FBAC09",
"D@ 	c #FAAB05",
"E@ 	c #C48A02",
"F@ 	c #873A00",
"G@ 	c #813700",
"H@ 	c #763001",
"I@ 	c #200506",
"J@ 	c #110105",
"K@ 	c #160206",
"L@ 	c #120206",
"M@ 	c #100106",
"N@ 	c #0C0105",
"O@ 	c #1D0504",
"P@ 	c #4A1900",
"Q@ 	c #4D1800",
"R@ 	c #602700",
"S@ 	c #AE5700",
"T@ 	c #B55F00",
"U@ 	c #E38A00",
"V@ 	c #E98F00",
"W@ 	c #E88C00",
"X@ 	c #EE9401",
"Y@ 	c #ED9401",
"Z@ 	c #E88F00",
"`@ 	c #BA6200",
" # 	c #B56000",
".# 	c #844401",
"+# 	c #380D01",
"@# 	c #310B01",
"## 	c #120606",
"$# 	c #170906",
"%# 	c #1E0A04",
"&# 	c #2D1304",
"*# 	c #321803",
"=# 	c #361F03",
"-# 	c #392C04",
";# 	c #3A2D04",
"># 	c #3A2C04",
",# 	c #3B2A04",
"'# 	c #3C3207",
")# 	c #3C3405",
"!# 	c #3C3205",
"~# 	c #392803",
"{# 	c #361C03",
"]# 	c #351C03",
"^# 	c #2D1B03",
"/# 	c #0E0204",
"(# 	c #0F0503",
"_# 	c #130304",
":# 	c #1A0304",
"<# 	c #2C2203",
"[# 	c #392F02",
"}# 	c #3A2D02",
"|# 	c #936801",
"1# 	c #DA8801",
"2# 	c #D78200",
"3# 	c #D67E00",
"4# 	c #EA9701",
"5# 	c #E79401",
"6# 	c #E59100",
"7# 	c #EDA001",
"8# 	c #F3A401",
"9# 	c #F3A403",
"0# 	c #F0B74A",
"a# 	c #F9F38C",
"b# 	c #FBFA94",
"c# 	c #FBFA96",
"d# 	c #FBFA99",
"e# 	c #FBFA98",
"f# 	c #FAFA9A",
"g# 	c #FBF890",
"h# 	c #FBF16E",
"i# 	c #FBEF62",
"j# 	c #FAE151",
"k# 	c #F9BE0F",
"l# 	c #F9BB0B",
"m# 	c #F7BC08",
"n# 	c #C29C09",
"o# 	c #823A00",
"p# 	c #7F3800",
"q# 	c #763301",
"r# 	c #1F0605",
"s# 	c #160205",
"t# 	c #1A0305",
"u# 	c #120106",
"v# 	c #0E0106",
"w# 	c #210804",
"x# 	c #290D04",
"y# 	c #2B1004",
"z# 	c #2F1603",
"A# 	c #4E2D01",
"B# 	c #512D00",
"C# 	c #603500",
"D# 	c #A55500",
"E# 	c #A95700",
"F# 	c #B25C05",
"G# 	c #DD831E",
"H# 	c #E48724",
"I# 	c #E48523",
"J# 	c #EA9026",
"K# 	c #EA932B",
"L# 	c #E78E2A",
"M# 	c #E38C24",
"N# 	c #BE6512",
"O# 	c #B7610E",
"P# 	c #AE5D0D",
"Q# 	c #814907",
"R# 	c #421B01",
"S# 	c #401A01",
"T# 	c #3B1702",
"U# 	c #1F0705",
"V# 	c #1C0505",
"W# 	c #180403",
"X# 	c #0F0202",
"Y# 	c #572702",
"Z# 	c #AE5C00",
"`# 	c #B96700",
" $ 	c #CA7B01",
".$ 	c #E2A404",
"+$ 	c #E7AA04",
"@$ 	c #E6A805",
"#$ 	c #E1A10C",
"$$ 	c #EBC726",
"%$ 	c #EBC820",
"&$ 	c #EAC017",
"*$ 	c #D7A00C",
"=$ 	c #C47200",
"-$ 	c #C37200",
";$ 	c #B57501",
">$ 	c #241403",
",$ 	c #220703",
"'$ 	c #592101",
")$ 	c #561E00",
"!$ 	c #572000",
"~$ 	c #B09304",
"{$ 	c #E5B004",
"]$ 	c #E5AA03",
"^$ 	c #CC9A03",
"/$ 	c #765001",
"($ 	c #734501",
"_$ 	c #723F01",
":$ 	c #804E01",
"<$ 	c #7E4F01",
"[$ 	c #804C01",
"}$ 	c #A86401",
"|$ 	c #B66E01",
"1$ 	c #B66C01",
"2$ 	c #B26D1A",
"3$ 	c #987049",
"4$ 	c #987255",
"5$ 	c #9A7154",
"6$ 	c #9B724F",
"7$ 	c #9C734F",
"8$ 	c #A07452",
"9$ 	c #A2744E",
"0$ 	c #A67541",
"a$ 	c #A97736",
"b$ 	c #A67329",
"c$ 	c #A97004",
"d$ 	c #A56C03",
"e$ 	c #A36B03",
"f$ 	c #C07B03",
"g$ 	c #D47E00",
"h$ 	c #D47F00",
"i$ 	c #C07301",
"j$ 	c #431802",
"k$ 	c #310A03",
"l$ 	c #280803",
"m$ 	c #150206",
"n$ 	c #140205",
"o$ 	c #170204",
"p$ 	c #220605",
"q$ 	c #7C3502",
"r$ 	c #954301",
"s$ 	c #9B4A00",
"t$ 	c #A35D01",
"u$ 	c #DB9801",
"v$ 	c #DD9800",
"w$ 	c #E09E01",
"x$ 	c #EDAE06",
"y$ 	c #EFB007",
"z$ 	c #EEB52D",
"A$ 	c #F6E57C",
"B$ 	c #F8EB89",
"C$ 	c #F9ED89",
"D$ 	c #FAF094",
"E$ 	c #F9F0A0",
"F$ 	c #F9F09F",
"G$ 	c #F8EF91",
"H$ 	c #F3D853",
"I$ 	c #F4D949",
"J$ 	c #F2DA48",
"K$ 	c #D1A332",
"L$ 	c #BF6800",
"M$ 	c #BE6600",
"N$ 	c #B15C00",
"O$ 	c #712F01",
"P$ 	c #6B2B01",
"Q$ 	c #5B2201",
"R$ 	c #320F03",
"S$ 	c #0B0305",
"T$ 	c #090005",
"U$ 	c #562703",
"V$ 	c #B45E00",
"W$ 	c #CA7200",
"X$ 	c #EE9D04",
"Y$ 	c #F7A705",
"Z$ 	c #F6A405",
"`$ 	c #F2A10C",
" % 	c #FECF2B",
".% 	c #FECA26",
"+% 	c #FEC41F",
"@% 	c #DC9F12",
"#% 	c #BA6400",
"$% 	c #BC6600",
"%% 	c #B96E01",
"&% 	c #291303",
"*% 	c #280A03",
"=% 	c #5F2400",
"-% 	c #551E00",
";% 	c #572100",
">% 	c #BA9504",
",% 	c #F3A404",
"'% 	c #F19F03",
")% 	c #D28C01",
"!% 	c #4C2100",
"~% 	c #471300",
"{% 	c #4C1500",
"]% 	c #652400",
"^% 	c #672400",
"/% 	c #6A2600",
"(% 	c #A75500",
"_% 	c #BB6200",
":% 	c #B96100",
"<% 	c #B45B00",
"[% 	c #923B00",
"}% 	c #913A00",
"|% 	c #903900",
"1% 	c #923800",
"2% 	c #953A00",
"3% 	c #994000",
"4% 	c #9D4400",
"5% 	c #A04800",
"6% 	c #A14900",
"7% 	c #A04900",
"8% 	c #A14C00",
"9% 	c #9F4A00",
"0% 	c #9D4900",
"a% 	c #C06B00",
"b% 	c #DD8200",
"c% 	c #D97F00",
"d% 	c #421801",
"e% 	c #330B02",
"f% 	c #170206",
"g% 	c #170205",
"h% 	c #210604",
"i% 	c #773301",
"j% 	c #873C00",
"k% 	c #8D4000",
"l% 	c #9F5600",
"m% 	c #E78D00",
"n% 	c #EB9400",
"o% 	c #F9A804",
"p% 	c #F7B329",
"q% 	c #FEF172",
"r% 	c #FFF977",
"s% 	c #FFFC7B",
"t% 	c #FFFE84",
"u% 	c #FFFC86",
"v% 	c #FFE148",
"w% 	c #FFE447",
"x% 	c #FDE54B",
"y% 	c #D5A43C",
"z% 	c #B75F00",
"A% 	c #AC5700",
"B% 	c #662700",
"C% 	c #622500",
"D% 	c #592100",
"E% 	c #330F04",
"F% 	c #0E0203",
"G% 	c #110103",
"H% 	c #572902",
"I% 	c #CB7200",
"J% 	c #EFA107",
"K% 	c #F7AB0A",
"L% 	c #F7A908",
"M% 	c #F3A913",
"N% 	c #FBD736",
"O% 	c #FDCF2D",
"P% 	c #FDCC2A",
"Q% 	c #D9A61A",
"R% 	c #BE6700",
"S% 	c #B66B04",
"T% 	c #3D2307",
"U% 	c #261B06",
"V% 	c #211906",
"W% 	c #170505",
"X% 	c #200603",
"Y% 	c #511C00",
"Z% 	c #581F00",
"`% 	c #5D2400",
" & 	c #BB8F04",
".& 	c #F09F04",
"+& 	c #EF9C03",
"@& 	c #D19301",
"#& 	c #4B2300",
"$& 	c #4A1600",
"%& 	c #4D1700",
"&& 	c #6C2A00",
"*& 	c #702B00",
"=& 	c #732D00",
"-& 	c #AB5900",
";& 	c #C16700",
">& 	c #BD6300",
",& 	c #B65C03",
"'& 	c #98460A",
")& 	c #94420B",
"!& 	c #94410C",
"~& 	c #94420D",
"{& 	c #97430E",
"]& 	c #9C490A",
"^& 	c #A24D05",
"/& 	c #A14B00",
"(& 	c #9D4A00",
"_& 	c #A04E00",
":& 	c #9E4D00",
"<& 	c #9B4B00",
"[& 	c #BA6800",
"}& 	c #DA8201",
"|& 	c #DE8400",
"1& 	c #C47101",
"2& 	c #421701",
"3& 	c #360E02",
"4& 	c #320C02",
"5& 	c #1D0405",
"6& 	c #1C0304",
"7& 	c #240605",
"8& 	c #7D3601",
"9& 	c #8B3D00",
"0& 	c #8A3E00",
"a& 	c #995400",
"b& 	c #E58F00",
"c& 	c #E79000",
"d& 	c #EB9401",
"e& 	c #F7A704",
"f& 	c #F5B127",
"g& 	c #FCED6B",
"h& 	c #FDF571",
"i& 	c #FCF976",
"j& 	c #FDFA7E",
"k& 	c #FCFC88",
"l& 	c #FCF77B",
"m& 	c #FBE24A",
"n& 	c #FCE34C",
"o& 	c #FBE554",
"p& 	c #D8A647",
"q& 	c #B65E02",
"r& 	c #B35C02",
"s& 	c #B26102",
"t& 	c #642800",
"u& 	c #5C2100",
"v& 	c #330F03",
"w& 	c #0F0305",
"x& 	c #090102",
"y& 	c #0B0101",
"z& 	c #4A1A02",
"A& 	c #531E01",
"B& 	c #4D1B01",
"C& 	c #652D01",
"D& 	c #B25E00",
"E& 	c #AF5C00",
"F& 	c #B46400",
"G& 	c #BA8C0C",
"H& 	c #AE9B0D",
"I& 	c #AB980C",
"J& 	c #B08A12",
"K& 	c #C4A42A",
"L& 	c #C5A225",
"M& 	c #C5A122",
"N& 	c #B28414",
"O& 	c #9E5E00",
"P& 	c #9C5A01",
"Q& 	c #B2892C",
"R& 	c #D0C242",
"S& 	c #CEC13D",
"T& 	c #C8B937",
"U& 	c #5A4A12",
"V& 	c #250804",
"W& 	c #582000",
"X& 	c #582100",
"Y& 	c #856D02",
"Z& 	c #A89104",
"`& 	c #AA9203",
" * 	c #977901",
".* 	c #4F2000",
"+* 	c #561D00",
"@* 	c #5A1F00",
"#* 	c #893E00",
"$* 	c #8E4200",
"%* 	c #BF6C00",
"&* 	c #D67F00",
"** 	c #D88102",
"=* 	c #D69637",
"-* 	c #DDCD64",
";* 	c #DFD068",
">* 	c #E0CF6B",
",* 	c #E2D172",
"'* 	c #E1D175",
")* 	c #E2CF64",
"!* 	c #E3C448",
"~* 	c #E1AA11",
"{* 	c #DFA207",
"]* 	c #D9A208",
"^* 	c #8B4E02",
"/* 	c #833A00",
"(* 	c #915300",
"_* 	c #A17201",
":* 	c #A48402",
"<* 	c #926F02",
"[* 	c #4D1E01",
"}* 	c #461601",
"|* 	c #411401",
"1* 	c #1F0405",
"2* 	c #1C0305",
"3* 	c #743101",
"4* 	c #813800",
"5* 	c #7A3500",
"6* 	c #7F4701",
"7* 	c #AF8502",
"8* 	c #AD9002",
"9* 	c #AF9303",
"0* 	c #B79505",
"a* 	c #B89708",
"b* 	c #B9901D",
"c* 	c #C6A656",
"d* 	c #C5A863",
"e* 	c #C4A972",
"f* 	c #BEA879",
"g* 	c #B1A687",
"h* 	c #B1A584",
"i* 	c #B8A57A",
"j* 	c #ABA25E",
"k* 	c #AAA258",
"l* 	c #B2A449",
"m* 	c #D8B639",
"n* 	c #E3BD33",
"o* 	c #E2BC33",
"p* 	c #D7AB23",
"q* 	c #A35802",
"r* 	c #A65900",
"s* 	c #A85900",
"t* 	c #6B3603",
"u* 	c #320D02",
"v* 	c #2A0D04",
"w* 	c #291005",
"x* 	c #280F05",
"y* 	c #230B03",
"z* 	c #050003",
"A* 	c #060002",
"B* 	c #040104",
"C* 	c #040002",
"D* 	c #040103",
"E* 	c #100103",
"F* 	c #120203",
"G* 	c #511D01",
"H* 	c #5D2200",
"I* 	c #5D2100",
"J* 	c #6D2E00",
"K* 	c #A85500",
"L* 	c #9E4C00",
"M* 	c #9A4800",
"N* 	c #873B00",
"O* 	c #672300",
"P* 	c #662300",
"Q* 	c #6A2700",
"R* 	c #9A4600",
"S* 	c #9B4700",
"T* 	c #9E4900",
"U* 	c #853E00",
"V* 	c #4A1500",
"W* 	c #501801",
"X* 	c #A39234",
"Y* 	c #FCE442",
"Z* 	c #FFE643",
"`* 	c #FBE341",
" = 	c #7B6C1A",
".= 	c #210505",
"+= 	c #150204",
"@= 	c #2B0C03",
"#= 	c #642701",
"$= 	c #5B2000",
"%= 	c #581E00",
"&= 	c #4C1700",
"*= 	c #4B1600",
"== 	c #4F1900",
"-= 	c #531B00",
";= 	c #531C00",
">= 	c #591E00",
",= 	c #5B2100",
"'= 	c #934400",
")= 	c #CD8200",
"!= 	c #ED9601",
"~= 	c #EE9702",
"{= 	c #EFB448",
"]= 	c #FDF977",
"^= 	c #FFFC76",
"/= 	c #FFFC77",
"(= 	c #FFFD79",
"_= 	c #FEFA75",
":= 	c #FEE962",
"<= 	c #FEC721",
"[= 	c #FDBA15",
"}= 	c #F2BB15",
"|= 	c #774B03",
"1= 	c #692500",
"2= 	c #6E2A00",
"3= 	c #5F2300",
"4= 	c #3D0E01",
"5= 	c #390D01",
"6= 	c #3E0F01",
"7= 	c #501A00",
"8= 	c #511B00",
"9= 	c #4F1A01",
"0= 	c #220505",
"a= 	c #200505",
"b= 	c #541D01",
"c= 	c #591F00",
"d= 	c #571E00",
"e= 	c #5C2000",
"f= 	c #622300",
"g= 	c #652500",
"h= 	c #672500",
"i= 	c #7D3300",
"j= 	c #803400",
"k= 	c #813600",
"l= 	c #A95300",
"m= 	c #AD5500",
"n= 	c #7F3000",
"o= 	c #803000",
"p= 	c #893901",
"q= 	c #5A1B00",
"r= 	c #571800",
"s= 	c #612903",
"t= 	c #D3BD2D",
"u= 	c #FED937",
"v= 	c #FED837",
"w= 	c #EFC931",
"x= 	c #B46204",
"y= 	c #B76100",
"z= 	c #BC6300",
"A= 	c #7D4002",
"B= 	c #3C1201",
"C= 	c #3F1301",
"D= 	c #371003",
"E= 	c #4D1C02",
"F= 	c #4C1B02",
"G= 	c #421602",
"H= 	c #0B0005",
"I= 	c #0C0305",
"J= 	c #4A1A01",
"K= 	c #541C00",
"L= 	c #571D00",
"M= 	c #692B00",
"N= 	c #A45100",
"O= 	c #9C4A00",
"P= 	c #994700",
"Q= 	c #863A00",
"R= 	c #662400",
"S= 	c #6D2700",
"T= 	c #9C4900",
"U= 	c #863D00",
"V= 	c #491400",
"W= 	c #A3912E",
"X= 	c #FCE440",
"Y= 	c #FEE641",
"Z= 	c #FBE440",
"`= 	c #7D6F1A",
" - 	c #210504",
".- 	c #2C0C03",
"+- 	c #652700",
"@- 	c #5A1E00",
"#- 	c #4C1800",
"$- 	c #4B1700",
"%- 	c #551C00",
"&- 	c #914300",
"*- 	c #974700",
"=- 	c #964600",
"-- 	c #CB8701",
";- 	c #F19D02",
">- 	c #F19A03",
",- 	c #F0B444",
"'- 	c #FEFC79",
")- 	c #FFFC7D",
"!- 	c #FFFE83",
"~- 	c #FEFD81",
"{- 	c #FEFB7C",
"]- 	c #FDEA65",
"^- 	c #FEC823",
"/- 	c #FDBA17",
"(- 	c #F2BA17",
"_- 	c #764A04",
":- 	c #6F2B00",
"<- 	c #612400",
"[- 	c #400F01",
"}- 	c #3C0E01",
"|- 	c #4F1B01",
"1- 	c #230605",
"2- 	c #190305",
"3- 	c #1F0504",
"4- 	c #521C01",
"5- 	c #612200",
"6- 	c #7C3200",
"7- 	c #7F3400",
"8- 	c #AE5A00",
"9- 	c #AF5A00",
"0- 	c #B05A00",
"a- 	c #A04C00",
"b- 	c #873700",
"c- 	c #893800",
"d- 	c #8E3D00",
"e- 	c #5A1900",
"f- 	c #622702",
"g- 	c #CDB82E",
"h- 	c #FEDA38",
"i- 	c #FED838",
"j- 	c #EECA33",
"k- 	c #B15F04",
"l- 	c #B55E00",
"m- 	c #B96200",
"n- 	c #7C3F02",
"o- 	c #3A1001",
"p- 	c #3D1201",
"q- 	c #391003",
"r- 	c #521E01",
"s- 	c #521D01",
"t- 	c #471702",
"u- 	c #0E0006",
"v- 	c #0F0106",
"w- 	c #0B0403",
"x- 	c #100604",
"y- 	c #280E03",
"z- 	c #3E1704",
"A- 	c #421703",
"B- 	c #3F1502",
"C- 	c #6A2F01",
"D- 	c #723400",
"E- 	c #743300",
"F- 	c #7D3A00",
"G- 	c #B46000",
"H- 	c #B05E00",
"I- 	c #AF5E01",
"J- 	c #A4731E",
"K- 	c #967F2C",
"L- 	c #957F2E",
"M- 	c #977E33",
"N- 	c #AF873E",
"O- 	c #B18745",
"P- 	c #B58644",
"Q- 	c #A06D32",
"R- 	c #804602",
"S- 	c #834601",
"T- 	c #9F7F21",
"U- 	c #C4B231",
"V- 	c #C2AA2D",
"W- 	c #BCA32A",
"X- 	c #664D10",
"Y- 	c #3C1303",
"Z- 	c #391103",
"`- 	c #3B1202",
" ; 	c #5E2201",
".; 	c #491601",
"+; 	c #471400",
"@; 	c #653401",
"#; 	c #834700",
"$; 	c #864700",
"%; 	c #864900",
"&; 	c #863C00",
"*; 	c #8B3E00",
"=; 	c #C07D01",
"-; 	c #EA9401",
";; 	c #E99002",
">; 	c #EAAD3F",
",; 	c #FDF26F",
"'; 	c #FEF470",
"); 	c #FEF375",
"!; 	c #FEE975",
"~; 	c #FDE76E",
"{; 	c #FDE666",
"]; 	c #FAD751",
"^; 	c #F6B219",
"/; 	c #F2AA12",
"(; 	c #E9A410",
"_; 	c #9D5E02",
":; 	c #965100",
"<; 	c #7A4100",
"[; 	c #421101",
"}; 	c #411101",
"|; 	c #401001",
"1; 	c #521A00",
"2; 	c #4F1B00",
"3; 	c #260605",
"4; 	c #1B0205",
"5; 	c #5D2201",
"6; 	c #602300",
"7; 	c #6E2F00",
"8; 	c #8B4900",
"9; 	c #904F00",
"0; 	c #8F4D00",
"a; 	c #9D5900",
"b; 	c #9F5A00",
"c; 	c #A25F02",
"d; 	c #CA870E",
"e; 	c #CA850F",
"f; 	c #CC850B",
"g; 	c #C28617",
"h; 	c #B28745",
"i; 	c #B38956",
"j; 	c #AE8651",
"k; 	c #93741A",
"l; 	c #927612",
"m; 	c #9B7516",
"n; 	c #C6A829",
"o; 	c #E1C131",
"p; 	c #E2BF2E",
"q; 	c #D7B12B",
"r; 	c #B36404",
"s; 	c #B66401",
"t; 	c #BE6A00",
"u; 	c #794002",
"v; 	c #360E01",
"w; 	c #390F02",
"x; 	c #360E03",
"y; 	c #411603",
"z; 	c #401502",
"A; 	c #361004",
"B; 	c #250805",
"C; 	c #270704",
"D; 	c #280704",
"E; 	c #471C04",
"F; 	c #5D2903",
"G; 	c #602B03",
"H; 	c #6E3C04",
"I; 	c #784403",
"J; 	c #713D03",
"K; 	c #693403",
"L; 	c #5E2A04",
"M; 	c #4C1C05",
"N; 	c #4C1B05",
"O; 	c #451903",
"P; 	c #3F1503",
"Q; 	c #3D1403",
"R; 	c #361003",
"S; 	c #220803",
"T; 	c #0D0404",
"U; 	c #110906",
"V; 	c #090204",
"W; 	c #0B0203",
"X; 	c #351202",
"Y; 	c #6F2E00",
"Z; 	c #954700",
"`; 	c #984800",
" > 	c #994800",
".> 	c #A05000",
"+> 	c #D47C00",
"@> 	c #D67C00",
"#> 	c #DA8003",
"$> 	c #EBC137",
"%> 	c #F8DE43",
"&> 	c #F8DD41",
"*> 	c #F7D941",
"=> 	c #FAEC5B",
"-> 	c #FAED5F",
";> 	c #FAEC5E",
">> 	c #D8B84C",
",> 	c #BB6602",
"'> 	c #B56801",
")> 	c #451F03",
"!> 	c #381502",
"~> 	c #391302",
"{> 	c #521D00",
"]> 	c #5B2001",
"^> 	c #581F01",
"/> 	c #4E1800",
"(> 	c #441301",
"_> 	c #411100",
":> 	c #451300",
"<> 	c #925400",
"[> 	c #C46E00",
"}> 	c #C66F00",
"|> 	c #CB7400",
"1> 	c #733000",
"2> 	c #6E2900",
"3> 	c #6C2800",
"4> 	c #B16700",
"5> 	c #D77D00",
"6> 	c #D87A00",
"7> 	c #E0A032",
"8> 	c #FDEB5E",
"9> 	c #FEF164",
"0> 	c #FEEB61",
"a> 	c #FED033",
"b> 	c #FECE2E",
"c> 	c #FECF2F",
"d> 	c #F8C027",
"e> 	c #E99101",
"f> 	c #E48C00",
"g> 	c #E48B00",
"h> 	c #D98200",
"i> 	c #D98000",
"j> 	c #D77F00",
"k> 	c #AA6700",
"l> 	c #4A1700",
"m> 	c #2B0804",
"n> 	c #1E0305",
"o> 	c #1D0305",
"p> 	c #2A0905",
"q> 	c #752F00",
"r> 	c #773100",
"s> 	c #924700",
"t> 	c #D07800",
"u> 	c #D57C00",
"v> 	c #E99000",
"w> 	c #E59004",
"x> 	c #F8B815",
"y> 	c #F9B818",
"z> 	c #F9B817",
"A> 	c #FACB2B",
"B> 	c #FAF06A",
"C> 	c #FBF777",
"D> 	c #FAF17D",
"E> 	c #F4B829",
"F> 	c #F7B913",
"G> 	c #F1AE13",
"H> 	c #B78D0B",
"I> 	c #7B3D04",
"J> 	c #793D03",
"K> 	c #904C02",
"L> 	c #CA7201",
"M> 	c #CB7300",
"N> 	c #D37900",
"O> 	c #834802",
"P> 	c #310C02",
"Q> 	c #2D0903",
"R> 	c #1B0305",
"S> 	c #190205",
"T> 	c #3B1102",
"U> 	c #3E1101",
"V> 	c #3F1102",
"W> 	c #6A2B01",
"X> 	c #893C00",
"Y> 	c #AC5800",
"Z> 	c #AE5900",
"`> 	c #A65200",
" , 	c #672700",
"., 	c #571F00",
"+, 	c #3D1302",
"@, 	c #070306",
"#, 	c #150B06",
"$, 	c #090203",
"%, 	c #381203",
"&, 	c #6E2C00",
"*, 	c #692900",
"=, 	c #632500",
"-, 	c #934500",
";, 	c #944500",
">, 	c #A05100",
",, 	c #D67B00",
"', 	c #DA7F03",
"), 	c #EEC038",
"!, 	c #FEDD3F",
"~, 	c #FFDD3D",
"{, 	c #FEDA3C",
"], 	c #FFEF56",
"^, 	c #FFF058",
"/, 	c #FEEE57",
"(, 	c #D9BB46",
"_, 	c #B96402",
":, 	c #BC6400",
"<, 	c #B56501",
"[, 	c #3E1502",
"}, 	c #340B01",
"|, 	c #370D02",
"1, 	c #5A2000",
"2, 	c #421100",
"3, 	c #461200",
"4, 	c #955500",
"5, 	c #C56D00",
"6, 	c #753000",
"7, 	c #702A00",
"8, 	c #6F2A00",
"9, 	c #B36A00",
"0, 	c #D87F00",
"a, 	c #DB7F00",
"b, 	c #E3A332",
"c, 	c #FDEA5B",
"d, 	c #FEEE60",
"e, 	c #FEE958",
"f, 	c #FED030",
"g, 	c #FED02E",
"h, 	c #F5BF25",
"i, 	c #E68D01",
"j, 	c #E18800",
"k, 	c #E28900",
"l, 	c #DB8100",
"m, 	c #DA8000",
"n, 	c #AC6A01",
"o, 	c #481400",
"p, 	c #461300",
"q, 	c #551D00",
"r, 	c #2D0904",
"s, 	c #200404",
"t, 	c #1E0304",
"u, 	c #2B0A04",
"v, 	c #722E01",
"w, 	c #773000",
"x, 	c #914700",
"y, 	c #C97100",
"z, 	c #CF7500",
"A, 	c #D47A00",
"B, 	c #EE9600",
"C, 	c #EC9400",
"D, 	c #EA9503",
"E, 	c #FBB713",
"F, 	c #FCB816",
"G, 	c #FCB916",
"H, 	c #FDCB2B",
"I, 	c #FEF56B",
"J, 	c #FFFD73",
"K, 	c #FDF67B",
"L, 	c #F9B427",
"M, 	c #FCB70E",
"N, 	c #F8B30C",
"O, 	c #B28C0A",
"P, 	c #6F2700",
"Q, 	c #6D2800",
"R, 	c #8F4500",
"S, 	c #CA7000",
"T, 	c #CA7100",
"U, 	c #D17600",
"V, 	c #844803",
"W, 	c #290804",
"X, 	c #1A0206",
"Y, 	c #431601",
"Z, 	c #451501",
"`, 	c #431401",
" ' 	c #652800",
".' 	c #7E3500",
"+' 	c #803600",
"@' 	c #B25A00",
"#' 	c #A85300",
"$' 	c #A24F00",
"%' 	c #924300",
"&' 	c #702C00",
"*' 	c #622600",
"=' 	c #521B00",
"-' 	c #541D00",
";' 	c #060206",
">' 	c #1B0D07",
",' 	c #0D0204",
"'' 	c #401C03",
")' 	c #8C4901",
"!' 	c #914F00",
"~' 	c #AE7E17",
"{' 	c #B3881C",
"]' 	c #B1851C",
"^' 	c #B6862E",
"/' 	c #DBA345",
"(' 	c #DC9F3E",
"_' 	c #DE9E3D",
":' 	c #F0C85A",
"<' 	c #FEDD66",
"[' 	c #FEDD62",
"}' 	c #FCDD58",
"|' 	c #FCDD50",
"1' 	c #FBDF52",
"2' 	c #FBDE4F",
"3' 	c #D6AD3A",
"4' 	c #B56401",
"5' 	c #B36D01",
"6' 	c #572601",
"7' 	c #552101",
"8' 	c #4E1C01",
"9' 	c #531D01",
"0' 	c #501C01",
"a' 	c #4D1A01",
"b' 	c #4A1801",
"c' 	c #4A1901",
"d' 	c #714C01",
"e' 	c #8C5B00",
"f' 	c #8C5600",
"g' 	c #A65B00",
"h' 	c #B96300",
"i' 	c #B96400",
"j' 	c #BA6500",
"k' 	c #7D3600",
"l' 	c #7D3500",
"m' 	c #B66D00",
"n' 	c #D68000",
"o' 	c #DA8301",
"p' 	c #DB9C27",
"q' 	c #E1D353",
"r' 	c #E2D85D",
"s' 	c #E2D555",
"t' 	c #E0CA39",
"u' 	c #E0CA36",
"v' 	c #E0CB31",
"w' 	c #DEB721",
"x' 	c #DA8401",
"y' 	c #D98100",
"z' 	c #DA8100",
"A' 	c #D17800",
"B' 	c #CE7500",
"C' 	c #A85F00",
"D' 	c #551D01",
"E' 	c #5A2101",
"F' 	c #361002",
"G' 	c #692E03",
"H' 	c #693002",
"I' 	c #6B3401",
"J' 	c #9B5E00",
"K' 	c #9D5D00",
"L' 	c #995600",
"M' 	c #A76100",
"N' 	c #D28400",
"O' 	c #D48200",
"P' 	c #D78405",
"Q' 	c #EFA61D",
"R' 	c #F0A720",
"S' 	c #F0A52A",
"T' 	c #F8C558",
"U' 	c #F9C65D",
"V' 	c #FAC765",
"W' 	c #FCD059",
"X' 	c #FEF571",
"Y' 	c #FEF974",
"Z' 	c #F5A820",
"`' 	c #F9AB08",
" ) 	c #F6AB0A",
".) 	c #BA8A08",
"+) 	c #925000",
"@) 	c #904D00",
"#) 	c #9E5300",
"$) 	c #CC7200",
"%) 	c #D77B00",
"&) 	c #864D03",
"*) 	c #2F0B03",
"=) 	c #2D0A04",
"-) 	c #1F0506",
";) 	c #1E0406",
">) 	c #2A0B05",
",) 	c #662901",
"') 	c #632800",
")) 	c #815D01",
"!) 	c #9D7A01",
"~) 	c #9E7401",
"{) 	c #B67301",
"]) 	c #BC7200",
"^) 	c #B37E01",
"/) 	c #AA7F03",
"() 	c #9B7F02",
"_) 	c #9A7903",
":) 	c #8A5701",
"<) 	c #824800",
"[) 	c #864C01",
"}) 	c #8A5001",
"|) 	c #6F3E02",
"1) 	c #431704",
"2) 	c #411604",
"3) 	c #060305",
"4) 	c #090304",
"5) 	c #100503",
"6) 	c #160403",
"7) 	c #5B2D03",
"8) 	c #C46B00",
"9) 	c #C56D01",
"0) 	c #EEB71C",
"a) 	c #FAC01F",
"b) 	c #F9BF20",
"c) 	c #F5C237",
"d) 	c #FDEE64",
"e) 	c #FDEE5D",
"f) 	c #FDEC5D",
"g) 	c #FDEF72",
"h) 	c #FFF57D",
"i) 	c #FEF67B",
"j) 	c #FBEE7C",
"k) 	c #EF9D1D",
"l) 	c #F29E10",
"m) 	c #F19C0E",
"n) 	c #E28E08",
"o) 	c #DC8500",
"p) 	c #E08800",
"q) 	c #CF8700",
"r) 	c #7E3A00",
"s) 	c #783300",
"t) 	c #6E2D01",
"u) 	c #300A04",
"v) 	c #290704",
"w) 	c #280603",
"x) 	c #310F03",
"y) 	c #B57B01",
"z) 	c #DD8600",
"A) 	c #D88000",
"B) 	c #B56100",
"C) 	c #883E00",
"D) 	c #7B3300",
"E) 	c #9B4900",
"F) 	c #A14D00",
"G) 	c #A45000",
"H) 	c #B66000",
"I) 	c #C06800",
"J) 	c #C36A00",
"K) 	c #B76303",
"L) 	c #6F390E",
"M) 	c #6C3611",
"N) 	c #693410",
"O) 	c #643308",
"P) 	c #623207",
"Q) 	c #613306",
"R) 	c #7B4003",
"S) 	c #B25B00",
"T) 	c #B35D00",
"U) 	c #B25C00",
"V) 	c #B35E00",
"W) 	c #783100",
"X) 	c #6C2B00",
"Y) 	c #390E03",
"Z) 	c #320B03",
"`) 	c #AC4F01",
" ! 	c #9F4C00",
".! 	c #A04F00",
"+! 	c #D17C00",
"@! 	c #CE7700",
"#! 	c #D27E00",
"$! 	c #F5A200",
"%! 	c #F49F00",
"&! 	c #F4A30B",
"*! 	c #FDCC2F",
"=! 	c #FED034",
"-! 	c #FCD042",
";! 	c #FEF87F",
">! 	c #FEFA85",
",! 	c #FFF98E",
"'! 	c #FEEF83",
")! 	c #FFE953",
"!! 	c #FFEC57",
"~! 	c #FEEB5C",
"{! 	c #F29E18",
"]! 	c #F49F01",
"^! 	c #F29B01",
"/! 	c #D68402",
"(! 	c #C77000",
"_! 	c #C06A00",
":! 	c #803C00",
"<! 	c #854000",
"[! 	c #582704",
"}! 	c #180306",
"|! 	c #220606",
"1! 	c #351104",
"2! 	c #7E3501",
"3! 	c #7F3600",
"4! 	c #BE7B00",
"5! 	c #EE9E00",
"6! 	c #EE9C01",
"7! 	c #EE9900",
"8! 	c #F09E00",
"9! 	c #F4A601",
"0! 	c #F5AB04",
"a! 	c #F7AE03",
"b! 	c #F6AE04",
"c! 	c #D18702",
"d! 	c #C87100",
"e! 	c #AC5F00",
"f! 	c #662801",
"g! 	c #230904",
"h! 	c #0B0205",
"i! 	c #0A0307",
"j! 	c #260702",
"k! 	c #240603",
"l! 	c #592A02",
"m! 	c #C16800",
"n! 	c #C26A00",
"o! 	c #BE6702",
"p! 	c #EDBA2B",
"q! 	c #FFCA2C",
"r! 	c #FEC928",
"s! 	c #FAC83A",
"t! 	c #FEF36B",
"u! 	c #FFF160",
"v! 	c #FFF060",
"w! 	c #FEF369",
"x! 	c #FFF970",
"y! 	c #FFF76F",
"z! 	c #FCEE79",
"A! 	c #E58F17",
"B! 	c #E28800",
"C! 	c #E18600",
"D! 	c #DC8400",
"E! 	c #D18D00",
"F! 	c #733400",
"G! 	c #702E00",
"H! 	c #491801",
"I! 	c #2A0704",
"J! 	c #2B0704",
"K! 	c #2C0703",
"L! 	c #2C0702",
"M! 	c #DA7F00",
"N! 	c #B66500",
"O! 	c #722C00",
"P! 	c #A65100",
"Q! 	c #A75100",
"R! 	c #C36900",
"S! 	c #C46800",
"T! 	c #BA6100",
"U! 	c #692400",
"V! 	c #661E00",
"W! 	c #621B00",
"X! 	c #5E1A00",
"Y! 	c #581600",
"Z! 	c #551500",
"`! 	c #753300",
" ~ 	c #AA5600",
".~ 	c #AF5900",
"+~ 	c #AF5800",
"@~ 	c #974900",
"#~ 	c #742E00",
"$~ 	c #652601",
"%~ 	c #3D0F02",
"&~ 	c #3C0F02",
"*~ 	c #260604",
"=~ 	c #391203",
"-~ 	c #A64F01",
";~ 	c #9D4C00",
">~ 	c #9C4C00",
",~ 	c #CD7500",
"'~ 	c #D07D00",
")~ 	c #F5A301",
"!~ 	c #F59F01",
"~~ 	c #F5A40B",
"{~ 	c #FECE2B",
"]~ 	c #FFCF2E",
"^~ 	c #FDD13A",
"/~ 	c #FEF875",
"(~ 	c #FFFC7A",
"_~ 	c #FFFD82",
":~ 	c #FEEF72",
"<~ 	c #FFE74E",
"[~ 	c #FFE952",
"}~ 	c #FDEA55",
"|~ 	c #F19D15",
"1~ 	c #F39D00",
"2~ 	c #F19900",
"3~ 	c #CF7C00",
"4~ 	c #C16900",
"5~ 	c #BC6500",
"6~ 	c #A45500",
"7~ 	c #712C00",
"8~ 	c #6D2B00",
"9~ 	c #431604",
"0~ 	c #110206",
"a~ 	c #200606",
"b~ 	c #230606",
"c~ 	c #3A1404",
"d~ 	c #823900",
"e~ 	c #7D3400",
"f~ 	c #7C3400",
"g~ 	c #BD7401",
"h~ 	c #ED9500",
"i~ 	c #EF9701",
"j~ 	c #F29E02",
"k~ 	c #F5A404",
"l~ 	c #F7A806",
"m~ 	c #F9AA07",
"n~ 	c #F8AC07",
"o~ 	c #D58A04",
"p~ 	c #C56C00",
"q~ 	c #A85B00",
"r~ 	c #672800",
"s~ 	c #280A04",
"t~ 	c #120305",
"u~ 	c #1E100B",
"v~ 	c #2F0A02",
"w~ 	c #2D0802",
"x~ 	c #5D2C02",
"y~ 	c #C06900",
"z~ 	c #BD6803",
"A~ 	c #E6BA39",
"B~ 	c #F6D039",
"C~ 	c #F5CC31",
"D~ 	c #F2C83C",
"E~ 	c #F6E86B",
"F~ 	c #F6E664",
"G~ 	c #F6E462",
"H~ 	c #F5E86D",
"I~ 	c #F5EC75",
"J~ 	c #F4EA73",
"K~ 	c #F2E472",
"L~ 	c #DB8615",
"M~ 	c #D87E00",
"N~ 	c #E28A00",
"O~ 	c #D19001",
"P~ 	c #6B3000",
"Q~ 	c #692901",
"R~ 	c #692A01",
"S~ 	c #421501",
"T~ 	c #2D0B04",
"U~ 	c #491D02",
"V~ 	c #491B02",
"W~ 	c #491C01",
"X~ 	c #AE6F01",
"Y~ 	c #CF7700",
"Z~ 	c #B36300",
"`~ 	c #6F2C00",
" { 	c #A35F01",
".{ 	c #B36601",
"+{ 	c #B36501",
"@{ 	c #BD6F05",
"#{ 	c #C77B0C",
"${ 	c #C87708",
"%{ 	c #C0750A",
"&{ 	c #7F5A13",
"*{ 	c #7B5816",
"={ 	c #795617",
"-{ 	c #77561C",
";{ 	c #74571C",
">{ 	c #73571C",
",{ 	c #804E10",
"'{ 	c #A25000",
"){ 	c #AC5600",
"!{ 	c #AB5500",
"~{ 	c #722E00",
"{{ 	c #3F1101",
"]{ 	c #3F1002",
"^{ 	c #210405",
"/{ 	c #371303",
"({ 	c #AC5701",
"_{ 	c #A35000",
":{ 	c #C36E00",
"<{ 	c #C77200",
"[{ 	c #CC7F00",
"}{ 	c #EEA301",
"|{ 	c #EFA101",
"1{ 	c #EFA609",
"2{ 	c #F9CB28",
"3{ 	c #F9CD29",
"4{ 	c #F8CC35",
"5{ 	c #FDF36B",
"6{ 	c #FEF774",
"7{ 	c #FEF880",
"8{ 	c #FEE867",
"9{ 	c #FFE449",
"0{ 	c #FEE54C",
"a{ 	c #FDE74E",
"b{ 	c #EC9A13",
"c{ 	c #F19D01",
"d{ 	c #CD7900",
"e{ 	c #A25500",
"f{ 	c #732E00",
"g{ 	c #6B2A00",
"h{ 	c #401404",
"i{ 	c #150306",
"j{ 	c #230704",
"k{ 	c #270805",
"l{ 	c #432504",
"m{ 	c #9B5800",
"n{ 	c #955201",
"o{ 	c #965501",
"p{ 	c #C47E04",
"q{ 	c #EA9605",
"r{ 	c #EC9607",
"s{ 	c #EE9F15",
"t{ 	c #EFA31C",
"u{ 	c #F2A91D",
"v{ 	c #F5AD21",
"w{ 	c #F6B021",
"x{ 	c #F7B11F",
"y{ 	c #F6B11E",
"z{ 	c #D88F0E",
"A{ 	c #CB7803",
"B{ 	c #CB7602",
"C{ 	c #AD5E00",
"D{ 	c #7A3900",
"E{ 	c #773901",
"F{ 	c #341304",
"G{ 	c #1D0705",
"H{ 	c #21120A",
"I{ 	c #3D1303",
"J{ 	c #622700",
"K{ 	c #8A3F00",
"L{ 	c #965716",
"M{ 	c #9C6117",
"N{ 	c #9B5F12",
"O{ 	c #985C16",
"P{ 	c #98612C",
"Q{ 	c #99612B",
"R{ 	c #9B6133",
"S{ 	c #9C6136",
"T{ 	c #9C6235",
"U{ 	c #9C622D",
"V{ 	c #9B4904",
"W{ 	c #A35100",
"X{ 	c #C16E00",
"Y{ 	c #DE8500",
"Z{ 	c #CD8901",
"`{ 	c #5A2601",
" ] 	c #4D1901",
".] 	c #330B03",
"+] 	c #2F0A03",
"@] 	c #230504",
"#] 	c #4C2404",
"$] 	c #A45301",
"%] 	c #733C00",
"&] 	c #5B3100",
"*] 	c #5B2E00",
"=] 	c #783A00",
"-] 	c #9A4900",
";] 	c #995201",
">] 	c #EFBA07",
",] 	c #F4B108",
"'] 	c #F1AA06",
")] 	c #F2B918",
"!] 	c #F9D129",
"~] 	c #FACD24",
"{] 	c #F9D026",
"]] 	c #F4D733",
"^] 	c #F4D435",
"/] 	c #F2D033",
"(] 	c #F2D53E",
"_] 	c #F4DB42",
":] 	c #F3DB41",
"<] 	c #BAA52C",
"[] 	c #964500",
"}] 	c #944300",
"|] 	c #924200",
"1] 	c #9D4B00",
"2] 	c #9E4B00",
"3] 	c #561E01",
"4] 	c #511B01",
"5] 	c #4D2503",
"6] 	c #4D2201",
"7] 	c #502302",
"8] 	c #643000",
"9] 	c #663200",
"0] 	c #663100",
"a] 	c #864600",
"b] 	c #A95C01",
"c] 	c #A75B00",
"d] 	c #AE6002",
"e] 	c #C87809",
"f] 	c #CA7809",
"g] 	c #DA8A18",
"h] 	c #FCD83E",
"i] 	c #FFDA42",
"j] 	c #FFDA47",
"k] 	c #FFD33C",
"l] 	c #FFD638",
"m] 	c #FFD73A",
"n] 	c #FBD637",
"o] 	c #D88209",
"p] 	c #773300",
"q] 	c #763200",
"r] 	c #4A1A04",
"s] 	c #280804",
"t] 	c #2A0804",
"u] 	c #594804",
"v] 	c #E09F01",
"w] 	c #E79701",
"x] 	c #E99B02",
"y] 	c #F4B411",
"z] 	c #FDBF18",
"A] 	c #FCBE1C",
"B] 	c #FCD53D",
"C] 	c #FEE44A",
"D] 	c #FDE34A",
"E] 	c #FEE751",
"F] 	c #FEE851",
"G] 	c #FEE64C",
"H] 	c #FDE44B",
"I] 	c #F8C12C",
"J] 	c #F8B30E",
"K] 	c #F6AD08",
"L] 	c #E99803",
"M] 	c #CC7500",
"N] 	c #C26F00",
"O] 	c #612D00",
"P] 	c #511C01",
"Q] 	c #411704",
"R] 	c #250E07",
"S] 	c #180A06",
"T] 	c #140A07",
"U] 	c #150B09",
"V] 	c #060105",
"W] 	c #481803",
"X] 	c #622400",
"Y] 	c #904200",
"Z] 	c #8A3D00",
"`] 	c #853900",
" ^ 	c #8D3D00",
".^ 	c #8A3B00",
"+^ 	c #893A00",
"@^ 	c #873500",
"#^ 	c #893600",
"$^ 	c #8B3700",
"%^ 	c #8C3800",
"&^ 	c #8D3C00",
"*^ 	c #924000",
"=^ 	c #BC6A00",
"-^ 	c #DA8200",
";^ 	c #CD8601",
">^ 	c #592401",
",^ 	c #4F1A00",
"'^ 	c #491701",
")^ 	c #250604",
"!^ 	c #200405",
"~^ 	c #522B03",
"{^ 	c #AC5B00",
"]^ 	c #974800",
"^^ 	c #984700",
"/^ 	c #6F3000",
"(^ 	c #340901",
"_^ 	c #3A0A00",
":^ 	c #703000",
"<^ 	c #9F5601",
"[^ 	c #F8BF0A",
"}^ 	c #FAB30D",
"|^ 	c #F7A807",
"1^ 	c #F7B91B",
"2^ 	c #FFD52F",
"3^ 	c #FFD22D",
"4^ 	c #FFD12D",
"5^ 	c #FFD733",
"6^ 	c #FFD430",
"7^ 	c #FED02B",
"8^ 	c #FED731",
"9^ 	c #FFDC36",
"0^ 	c #FFDC32",
"a^ 	c #C0AA21",
"b^ 	c #4F1400",
"c^ 	c #461100",
"d^ 	c #8C3E00",
"e^ 	c #602400",
"f^ 	c #5A2002",
"g^ 	c #190206",
"h^ 	c #1F0305",
"i^ 	c #270503",
"j^ 	c #531900",
"k^ 	c #541900",
"l^ 	c #551900",
"m^ 	c #7E3800",
"n^ 	c #A04D00",
"o^ 	c #A24D00",
"p^ 	c #AA5300",
"q^ 	c #C66A00",
"r^ 	c #C66B00",
"s^ 	c #D78313",
"t^ 	c #FBDA3D",
"u^ 	c #FFDE3F",
"v^ 	c #FFDB3F",
"w^ 	c #FFD53A",
"x^ 	c #FFD83A",
"y^ 	c #FFDC3F",
"z^ 	c #FCDC3C",
"A^ 	c #D8850B",
"B^ 	c #A65D00",
"C^ 	c #612300",
"D^ 	c #4B1C03",
"E^ 	c #270703",
"F^ 	c #2E0903",
"G^ 	c #5B4A04",
"H^ 	c #E4A102",
"I^ 	c #EB9500",
"J^ 	c #F6AD11",
"K^ 	c #FEBD18",
"L^ 	c #FDBE1C",
"M^ 	c #FDD63F",
"N^ 	c #FFE54B",
"O^ 	c #FEE74D",
"P^ 	c #FFEB53",
"Q^ 	c #FFED54",
"R^ 	c #FEEC53",
"S^ 	c #FEEA53",
"T^ 	c #FBC338",
"U^ 	c #FCB30C",
"V^ 	c #FBAF09",
"W^ 	c #EF9E04",
"X^ 	c #DD8400",
"Y^ 	c #602901",
"Z^ 	c #4F1901",
"`^ 	c #250A05",
" / 	c #160406",
"./ 	c #080106",
"+/ 	c #441603",
"@/ 	c #632600",
"#/ 	c #8F4100",
"$/ 	c #945A0C",
"%/ 	c #9D6613",
"&/ 	c #9C6511",
"*/ 	c #9D620F",
"=/ 	c #9E6612",
"-/ 	c #9B6211",
";/ 	c #9C6110",
">/ 	c #9B5E0E",
",/ 	c #9A5C0D",
"'/ 	c #995B0D",
")/ 	c #99600D",
"!/ 	c #8B3E01",
"~/ 	c #B56E00",
"{/ 	c #D58700",
"]/ 	c #D58500",
"^/ 	c #CB8B01",
"// 	c #753D00",
"(/ 	c #6C3300",
"_/ 	c #5F2901",
":/ 	c #250504",
"</ 	c #210404",
"[/ 	c #4E2803",
"}/ 	c #AB5C00",
"|/ 	c #9C4D00",
"1/ 	c #723301",
"2/ 	c #4C1900",
"3/ 	c #7F4A04",
"4/ 	c #B16E07",
"5/ 	c #B26B06",
"6/ 	c #B07507",
"7/ 	c #EBBD0C",
"8/ 	c #ECB612",
"9/ 	c #EAAD0E",
"0/ 	c #E9B926",
"a/ 	c #F0D039",
"b/ 	c #F0CE34",
"c/ 	c #F0CC32",
"d/ 	c #F2D23B",
"e/ 	c #F3D13A",
"f/ 	c #F2CF37",
"g/ 	c #EFCD30",
"h/ 	c #EFCE2F",
"i/ 	c #EDC828",
"j/ 	c #BA9F1A",
"k/ 	c #775D13",
"l/ 	c #71520E",
"m/ 	c #73520F",
"n/ 	c #7B3501",
"o/ 	c #8F4200",
"p/ 	c #5A1F02",
"q/ 	c #2B0703",
"r/ 	c #462403",
"s/ 	c #774E03",
"t/ 	c #794B02",
"u/ 	c #7A4902",
"v/ 	c #905908",
"w/ 	c #AC680D",
"x/ 	c #AD680E",
"y/ 	c #B1680D",
"z/ 	c #C5740B",
"A/ 	c #C4730D",
"B/ 	c #D28518",
"C/ 	c #EDD046",
"D/ 	c #EDD34E",
"E/ 	c #EED14D",
"F/ 	c #EFCD41",
"G/ 	c #F0D13E",
"H/ 	c #F0D343",
"I/ 	c #EED13D",
"J/ 	c #DD8809",
"K/ 	c #A75D00",
"L/ 	c #6E2B00",
"M/ 	c #702D00",
"N/ 	c #6F2E01",
"O/ 	c #461904",
"P/ 	c #4B2203",
"Q/ 	c #542402",
"R/ 	c #6A4F04",
"S/ 	c #D7A303",
"T/ 	c #DE9E04",
"U/ 	c #DFA205",
"V/ 	c #E6B119",
"W/ 	c #EDC023",
"X/ 	c #EEBF25",
"Y/ 	c #EECF47",
"Z/ 	c #F0DB52",
"`/ 	c #F0DD57",
" ( 	c #F1E05A",
".( 	c #F1E15C",
"+( 	c #F0E15D",
"@( 	c #F0E05F",
"#( 	c #ECBE3D",
"$( 	c #EDB511",
"%( 	c #EBB20E",
"&( 	c #E6A106",
"*( 	c #E08B01",
"=( 	c #D57E01",
"-( 	c #CA7601",
";( 	c #6D3200",
">( 	c #2A0C05",
",( 	c #150305",
"'( 	c #070005",
")( 	c #270802",
"!( 	c #551F02",
"~( 	c #712D00",
"{( 	c #843900",
"]( 	c #743202",
"^( 	c #D4B92F",
"/( 	c #F6DA3A",
"(( 	c #F6D637",
"_( 	c #F6D031",
":( 	c #F6D837",
"<( 	c #F6D435",
"[( 	c #F6D233",
"}( 	c #F5D132",
"|( 	c #F5D134",
"1( 	c #F4D133",
"2( 	c #ECD231",
"3( 	c #643A06",
"4( 	c #5B1E00",
"5( 	c #5B1F00",
"6( 	c #6E3500",
"7( 	c #7D4100",
"8( 	c #7E4000",
"9( 	c #B16801",
"0( 	c #D57F00",
"a( 	c #D58000",
"b( 	c #C07402",
"c( 	c #3E1803",
"d( 	c #260504",
"e( 	c #230404",
"f( 	c #2C0B04",
"g( 	c #512301",
"h( 	c #4F1F01",
"i( 	c #4E1D01",
"j( 	c #7E3801",
"k( 	c #954400",
"l( 	c #974500",
"m( 	c #BE9116",
"n( 	c #F7CB20",
"o( 	c #F8CA22",
"p( 	c #F1D125",
"q( 	c #8A5D06",
"r( 	c #7F4E04",
"s( 	c #7C4A03",
"t( 	c #824E0C",
"u( 	c #865415",
"v( 	c #855311",
"w( 	c #885410",
"x( 	c #9D5E14",
"y( 	c #A05F14",
"z( 	c #7E510E",
"A( 	c #784E0C",
"B( 	c #834A08",
"C( 	c #A5851A",
"D( 	c #F2DE3C",
"E( 	c #F2D93C",
"F( 	c #DFCB3A",
"G( 	c #5B3405",
"H( 	c #501600",
"I( 	c #6A2900",
"J( 	c #5A1F01",
"K( 	c #270604",
"L( 	c #290703",
"M( 	c #431100",
"N( 	c #865F08",
"O( 	c #F0BE1B",
"P( 	c #F4B510",
"Q( 	c #F2AE0D",
"R( 	c #F2BD24",
"S( 	c #F6D335",
"T( 	c #F6D438",
"U( 	c #F6CF34",
"V( 	c #F7CE32",
"W( 	c #F7D035",
"X( 	c #F4D02F",
"Y( 	c #9D8A25",
"Z( 	c #634D22",
"`( 	c #674D21",
" _ 	c #6A4C19",
"._ 	c #714E15",
"+_ 	c #724F18",
"@_ 	c #755114",
"#_ 	c #D88201",
"$_ 	c #DB8200",
"%_ 	c #B46300",
"&_ 	c #3F1603",
"*_ 	c #2E0C04",
"=_ 	c #2A0B04",
"-_ 	c #190404",
";_ 	c #110004",
">_ 	c #A45901",
",_ 	c #B45D00",
"'_ 	c #AB5C01",
")_ 	c #5E3F01",
"!_ 	c #604401",
"~_ 	c #644702",
"{_ 	c #684807",
"]_ 	c #6C4C0B",
"^_ 	c #6E4C0C",
"/_ 	c #7E501A",
"(_ 	c #875520",
"__ 	c #8A5521",
":_ 	c #8A5522",
"<_ 	c #8C5723",
"[_ 	c #8C5724",
"}_ 	c #905825",
"|_ 	c #7B4E13",
"1_ 	c #674804",
"2_ 	c #664703",
"3_ 	c #A18404",
"4_ 	c #F5B007",
"5_ 	c #F8AA08",
"6_ 	c #E89904",
"7_ 	c #974B00",
"8_ 	c #491D05",
"9_ 	c #160305",
"0_ 	c #050004",
"a_ 	c #1F0603",
"b_ 	c #240803",
"c_ 	c #562102",
"d_ 	c #793200",
"e_ 	c #733102",
"f_ 	c #D9BC2F",
"g_ 	c #FEDB39",
"h_ 	c #FED736",
"i_ 	c #FED735",
"j_ 	c #FED632",
"k_ 	c #FFD330",
"l_ 	c #FFD230",
"m_ 	c #FFD433",
"n_ 	c #FED533",
"o_ 	c #F5D933",
"p_ 	c #5F3A07",
"q_ 	c #4F1300",
"r_ 	c #4E1300",
"s_ 	c #662500",
"t_ 	c #AF6300",
"u_ 	c #C57601",
"v_ 	c #411903",
"w_ 	c #240504",
"x_ 	c #380C02",
"y_ 	c #380B00",
"z_ 	c #390C01",
"A_ 	c #833C01",
"B_ 	c #9E4A00",
"C_ 	c #C19316",
"D_ 	c #FCCB21",
"E_ 	c #FECE24",
"F_ 	c #F8D628",
"G_ 	c #854906",
"H_ 	c #782E00",
"I_ 	c #752B00",
"J_ 	c #7D2F00",
"K_ 	c #813100",
"L_ 	c #7C2E00",
"M_ 	c #7F3100",
"N_ 	c #994500",
"O_ 	c #9C4600",
"P_ 	c #722A00",
"Q_ 	c #6A2300",
"R_ 	c #7A2A00",
"S_ 	c #A6831D",
"T_ 	c #FBE43F",
"U_ 	c #FDE23F",
"V_ 	c #EAD53C",
"W_ 	c #5D3A07",
"X_ 	c #4B1400",
"Y_ 	c #4F1600",
"Z_ 	c #521900",
"`_ 	c #511900",
" : 	c #591F01",
".: 	c #2A0703",
"+: 	c #360C01",
"@: 	c #441100",
"#: 	c #886008",
"$: 	c #F7C01B",
"%: 	c #FEB811",
"&: 	c #FAB00D",
"*: 	c #FAC025",
"=: 	c #FED635",
"-: 	c #FED536",
";: 	c #FED131",
">: 	c #FECF2D",
",: 	c #FED232",
"': 	c #FCDA30",
"): 	c #9A881B",
"!: 	c #4A1101",
"~: 	c #4B1100",
"{: 	c #4C1200",
"]: 	c #581800",
"^: 	c #5D2701",
"/: 	c #DA8400",
"(: 	c #DF8700",
"_: 	c #B66600",
":: 	c #A14E00",
"<: 	c #1C0205",
"[: 	c #170304",
"}: 	c #A45701",
"|: 	c #AC5A01",
"1: 	c #4A1601",
"2: 	c #471000",
"3: 	c #4A1200",
"4: 	c #561700",
"5: 	c #591900",
"6: 	c #6F2900",
"7: 	c #7B3000",
"8: 	c #7E3000",
"9: 	c #833400",
"0: 	c #863700",
"a: 	c #8C3C00",
"b: 	c #712E00",
"c: 	c #511600",
"d: 	c #531600",
"e: 	c #9A8103",
"f: 	c #F8B207",
"g: 	c #FBAB07",
"h: 	c #E89804",
"i: 	c #4A1D05",
"j: 	c #060005",
"k: 	c #1C0404",
"l: 	c #220602",
"m: 	c #582202",
"n: 	c #7A3300",
"o: 	c #763100",
"p: 	c #6E2D00",
"q: 	c #885307",
"r: 	c #8A5007",
"s: 	c #8C5308",
"t: 	c #D1B229",
"u: 	c #EDCE2F",
"v: 	c #EDCC30",
"w: 	c #EDCB2F",
"x: 	c #EECF32",
"y: 	c #EECE34",
"z: 	c #EECD31",
"A: 	c #EFCD31",
"B: 	c #EFCE34",
"C: 	c #EECE37",
"D: 	c #E7CF3D",
"E: 	c #815D15",
"F: 	c #7D5C16",
"G: 	c #7D6019",
"H: 	c #7B5215",
"I: 	c #A96800",
"J: 	c #CF8B02",
"K: 	c #CC7E01",
"L: 	c #BA7301",
"M: 	c #411A03",
"N: 	c #240404",
"O: 	c #250404",
"P: 	c #351803",
"Q: 	c #6F4202",
"R: 	c #6F3B01",
"S: 	c #6A3401",
"T: 	c #965503",
"U: 	c #AE6704",
"V: 	c #B26804",
"W: 	c #C99113",
"X: 	c #EAC31E",
"Y: 	c #ECC824",
"Z: 	c #E6CD29",
"`: 	c #894505",
" < 	c #872F00",
".< 	c #852F00",
"+< 	c #863200",
"@< 	c #832F00",
"#< 	c #7C2D00",
"$< 	c #9D4700",
"%< 	c #9B4500",
"&< 	c #9A4400",
"*< 	c #8C4D0C",
"=< 	c #8B5D16",
"-< 	c #966415",
";< 	c #A5842B",
">< 	c #E7D44C",
",< 	c #E9D446",
"'< 	c #DECD45",
")< 	c #886F1C",
"!< 	c #7D5E15",
"~< 	c #7E5A11",
"{< 	c #6A420C",
"]< 	c #4E1500",
"^< 	c #4A1400",
"/< 	c #571D01",
"(< 	c #441A03",
"_< 	c #6C5414",
":< 	c #765813",
"<< 	c #7C5508",
"[< 	c #947010",
"}< 	c #E3BE1B",
"|< 	c #EABC12",
"1< 	c #E8BB16",
"2< 	c #EBC422",
"3< 	c #ECCF31",
"4< 	c #EACD35",
"5< 	c #EACA31",
"6< 	c #EAC72C",
"7< 	c #EBC92E",
"8< 	c #E9D031",
"9< 	c #A58A1D",
"0< 	c #76570F",
"a< 	c #79570F",
"b< 	c #764C0C",
"c< 	c #763700",
"d< 	c #753600",
"e< 	c #793B01",
"f< 	c #D08B01",
"g< 	c #D59201",
"h< 	c #D29102",
"i< 	c #B36901",
"j< 	c #954501",
"k< 	c #310E04",
"l< 	c #1E0405",
"m< 	c #190204",
"n< 	c #280B04",
"o< 	c #290903",
"p< 	c #2C0A02",
"q< 	c #974F01",
"r< 	c #AA5400",
"s< 	c #AB5E04",
"t< 	c #73510B",
"u< 	c #75520D",
"v< 	c #79550F",
"w< 	c #7A5811",
"x< 	c #7A560F",
"y< 	c #7F5610",
"z< 	c #8D5E12",
"A< 	c #946314",
"B< 	c #926217",
"C< 	c #916419",
"D< 	c #94681A",
"E< 	c #976715",
"F< 	c #9A6813",
"G< 	c #754108",
"H< 	c #5C1E00",
"I< 	c #967704",
"J< 	c #E3AD05",
"K< 	c #E7AC05",
"L< 	c #D89904",
"M< 	c #A45C01",
"N< 	c #A25A00",
"O< 	c #A55F01",
"P< 	c #4F2B03",
"Q< 	c #1B0504",
"R< 	c #090303",
"S< 	c #090205",
"T< 	c #1D0404",
"U< 	c #350E03",
"V< 	c #4E1900",
"W< 	c #613104",
"X< 	c #E4C929",
"Y< 	c #F4CD2A",
"Z< 	c #F4D02D",
"`< 	c #AD881A",
" [ 	c #6E4608",
".[ 	c #70460B",
"+[ 	c #74470A",
"@[ 	c #794A0B",
"#[ 	c #79490D",
"$[ 	c #7D4A0C",
"%[ 	c #874E0B",
"&[ 	c #8C4E0C",
"*[ 	c #8E4F0E",
"=[ 	c #956216",
"-[ 	c #EFD838",
";[ 	c #F4E244",
">[ 	c #F4E246",
",[ 	c #C4AE41",
"'[ 	c #7E3602",
")[ 	c #743601",
"![ 	c #533101",
"~[ 	c #512902",
"{[ 	c #4A2302",
"][ 	c #360B02",
"^[ 	c #330A02",
"/[ 	c #3A0D02",
"([ 	c #624902",
"_[ 	c #E1A304",
":[ 	c #E48E01",
"<[ 	c #E9B211",
"[[ 	c #F7C91A",
"}[ 	c #F8C91B",
"|[ 	c #D7B719",
"1[ 	c #6B4907",
"2[ 	c #634107",
"3[ 	c #5F3F07",
"4[ 	c #631301",
"5[ 	c #6A0D00",
"6[ 	c #700E00",
"7[ 	c #851900",
"8[ 	c #8C1C00",
"9[ 	c #8A2300",
"0[ 	c #913200",
"a[ 	c #8C3300",
"b[ 	c #903703",
"c[ 	c #E1C43D",
"d[ 	c #F5E34B",
"e[ 	c #F6DF42",
"f[ 	c #BCA932",
"g[ 	c #604117",
"h[ 	c #5F4215",
"i[ 	c #796A25",
"j[ 	c #EFDD46",
"k[ 	c #F6DF41",
"l[ 	c #F4D936",
"m[ 	c #B8A72F",
"n[ 	c #5B2102",
"o[ 	c #571C00",
"p[ 	c #7F3500",
"q[ 	c #833800",
"r[ 	c #8D4606",
"s[ 	c #DFC536",
"t[ 	c #F4D536",
"u[ 	c #F5CF27",
"v[ 	c #D7C12B",
"w[ 	c #594916",
"x[ 	c #524117",
"y[ 	c #53422B",
"z[ 	c #55453A",
"A[ 	c #544849",
"B[ 	c #51484F",
"C[ 	c #524750",
"D[ 	c #524748",
"E[ 	c #664E3A",
"F[ 	c #DAAF2A",
"G[ 	c #F4CF2D",
"H[ 	c #F4D132",
"I[ 	c #E7B52D",
"J[ 	c #D47801",
"K[ 	c #D37800",
"L[ 	c #D17501",
"M[ 	c #603901",
"N[ 	c #523301",
"O[ 	c #563501",
"P[ 	c #833E00",
"Q[ 	c #924201",
"R[ 	c #280905",
"S[ 	c #723001",
"T[ 	c #773200",
"U[ 	c #783200",
"V[ 	c #823600",
"W[ 	c #A7841D",
"X[ 	c #F2DB35",
"Y[ 	c #F5D833",
"Z[ 	c #F4DA37",
"`[ 	c #F4D836",
" } 	c #F4D837",
".} 	c #F5D63B",
"+} 	c #F7DD40",
"@} 	c #F6DC43",
"#} 	c #F6DF45",
"$} 	c #F7E246",
"%} 	c #F8E140",
"&} 	c #F6E23F",
"*} 	c #AE8826",
"=} 	c #8B3C00",
"-} 	c #883B00",
";} 	c #7C3A00",
">} 	c #643C01",
",} 	c #623C01",
"'} 	c #956802",
")} 	c #ECA102",
"!} 	c #F09F02",
"~} 	c #EEA402",
"{} 	c #6E4C03",
"]} 	c #320D05",
"^} 	c #230804",
"/} 	c #170305",
"(} 	c #050105",
"_} 	c #080205",
":} 	c #2C0804",
"<} 	c #653103",
"[} 	c #EECA25",
"}} 	c #FECC28",
"|} 	c #FDD12C",
"1} 	c #A87D15",
"2} 	c #5C1C00",
"3} 	c #5C1B00",
"4} 	c #5E1B00",
"5} 	c #671F00",
"6} 	c #692000",
"7} 	c #6D2400",
"8} 	c #853500",
"9} 	c #853400",
"0} 	c #8F5004",
"a} 	c #F9D72D",
"b} 	c #FFE540",
"c} 	c #FEE542",
"d} 	c #CFB33D",
"e} 	c #863B02",
"f} 	c #783101",
"g} 	c #3D0D01",
"h} 	c #350A01",
"i} 	c #320803",
"j} 	c #310803",
"k} 	c #310802",
"l} 	c #360A02",
"m} 	c #644C03",
"n} 	c #E8A505",
"o} 	c #EA9101",
"p} 	c #F0B111",
"q} 	c #FEC318",
"r} 	c #FCBF16",
"s} 	c #D9B014",
"t} 	c #5C2602",
"u} 	c #500400",
"v} 	c #4E0300",
"w} 	c #6B0400",
"x} 	c #6F0300",
"y} 	c #760400",
"z} 	c #981201",
"A} 	c #9E1600",
"B} 	c #951800",
"C} 	c #911F00",
"D} 	c #952B00",
"E} 	c #8E2B00",
"F} 	c #903003",
"G} 	c #EACB3A",
"H} 	c #FFE948",
"I} 	c #C3AF34",
"J} 	c #531000",
"K} 	c #4A0D01",
"L} 	c #6C5B20",
"M} 	c #F6E24A",
"N} 	c #FFE342",
"O} 	c #FED935",
"P} 	c #BEA929",
"Q} 	c #5F2301",
"R} 	c #682600",
"S} 	c #914806",
"T} 	c #E8CA36",
"U} 	c #FED732",
"V} 	c #FECF25",
"W} 	c #DBC125",
"X} 	c #37271F",
"Y} 	c #220B28",
"Z} 	c #1C1540",
"`} 	c #171F5A",
" | 	c #0C246D",
".| 	c #0B2671",
"+| 	c #0C2772",
"@| 	c #0E236E",
"#| 	c #141959",
"$| 	c #4C354D",
"%| 	c #DAAE2C",
"&| 	c #FDD02B",
"*| 	c #FFCF2B",
"=| 	c #EFB425",
"-| 	c #D47901",
";| 	c #D17900",
">| 	c #D67801",
",| 	c #4E2401",
"'| 	c #330701",
")| 	c #340B02",
"!| 	c #803901",
"~| 	c #974600",
"{| 	c #934401",
"]| 	c #280903",
"^| 	c #1C0204",
"/| 	c #793301",
"(| 	c #7B3400",
"_| 	c #813500",
":| 	c #843600",
"<| 	c #AB8A1F",
"[| 	c #FDE136",
"}| 	c #FFD932",
"|| 	c #FFD831",
"1| 	c #FFDA33",
"2| 	c #FFDC35",
"3| 	c #FFDC37",
"4| 	c #FEDA3A",
"5| 	c #FFDD3C",
"6| 	c #FFDF3F",
"7| 	c #FFE040",
"8| 	c #FFE241",
"9| 	c #FFE340",
"0| 	c #FDE340",
"a| 	c #B4912C",
"b| 	c #893B00",
"c| 	c #7A3200",
"d| 	c #551800",
"e| 	c #4C1300",
"f| 	c #8B5902",
"g| 	c #ED9F05",
"h| 	c #F19D04",
"i| 	c #F0A203",
"j| 	c #6D4403",
"k| 	c #090206",
"l| 	c #070104",
"m| 	c #441901",
"n| 	c #4C1D01",
"o| 	c #683503",
"p| 	c #EBC920",
"q| 	c #FDCD2A",
"r| 	c #FBD436",
"s| 	c #A3791A",
"t| 	c #581B00",
"u| 	c #571B00",
"v| 	c #662D01",
"w| 	c #6A2E00",
"x| 	c #793901",
"y| 	c #813C00",
"z| 	c #813A00",
"A| 	c #8B5104",
"B| 	c #F5CB27",
"C| 	c #FCDF3C",
"D| 	c #FADE40",
"E| 	c #D1B03A",
"F| 	c #8A4106",
"G| 	c #843C05",
"H| 	c #7B3604",
"I| 	c #401401",
"J| 	c #2F0C02",
"K| 	c #2B0803",
"L| 	c #2D0602",
"M| 	c #300702",
"N| 	c #5F4802",
"O| 	c #E39D03",
"P| 	c #E68F01",
"Q| 	c #E18900",
"R| 	c #E7A30B",
"S| 	c #E8A10A",
"T| 	c #E69806",
"U| 	c #D3A305",
"V| 	c #5E2301",
"W| 	c #540200",
"X| 	c #520100",
"Y| 	c #700400",
"Z| 	c #700100",
"`| 	c #750301",
" 1 	c #9B0F04",
".1 	c #A01406",
"+1 	c #951405",
"@1 	c #951804",
"#1 	c #9A1E02",
"$1 	c #942101",
"%1 	c #922C04",
"&1 	c #E6C738",
"*1 	c #F8E348",
"=1 	c #F8E249",
"-1 	c #C8B033",
";1 	c #5B2202",
">1 	c #532001",
",1 	c #725D1E",
"'1 	c #F2E149",
")1 	c #F8E040",
"!1 	c #F7D236",
"~1 	c #BBA529",
"{1 	c #632502",
"]1 	c #5F2100",
"^1 	c #682800",
"/1 	c #7F3C04",
"(1 	c #7F3C03",
"_1 	c #9D5006",
":1 	c #E2C82E",
"<1 	c #F7D82C",
"[1 	c #F6CE1D",
"}1 	c #D6BE1C",
"|1 	c #322520",
"11 	c #1D0D30",
"21 	c #1A1942",
"31 	c #16245E",
"41 	c #0A2970",
"51 	c #0C2B6E",
"61 	c #0B2B6F",
"71 	c #122969",
"81 	c #181E56",
"91 	c #4C3C55",
"01 	c #D3B028",
"a1 	c #F6D22C",
"b1 	c #F8CD24",
"c1 	c #EBB419",
"d1 	c #D27C01",
"e1 	c #CF7800",
"f1 	c #D58203",
"g1 	c #4F2A02",
"h1 	c #300802",
"i1 	c #300A02",
"j1 	c #823E01",
"k1 	c #9B4800",
"l1 	c #2E0D02",
"m1 	c #220403",
"n1 	c #260904",
"o1 	c #7B3401",
"p1 	c #7B3200",
"q1 	c #874103",
"r1 	c #8B4403",
"s1 	c #924503",
"t1 	c #B58D1F",
"u1 	c #F7E034",
"v1 	c #F9DA34",
"w1 	c #F8D632",
"x1 	c #F9D833",
"y1 	c #FADC35",
"z1 	c #F9DB38",
"A1 	c #FADC3C",
"B1 	c #F9DA3A",
"C1 	c #F9DA3E",
"D1 	c #F9D93C",
"E1 	c #F9DC3F",
"F1 	c #F8DD3F",
"G1 	c #F7DB40",
"H1 	c #BB9332",
"I1 	c #8E4202",
"J1 	c #8A4002",
"K1 	c #531A00",
"L1 	c #4E1600",
"M1 	c #8A5702",
"N1 	c #E7A606",
"O1 	c #EDAC06",
"P1 	c #EBB105",
"Q1 	c #694902",
"R1 	c #2C0D03",
"S1 	c #250D03",
"T1 	c #1A0704",
"U1 	c #0C0306",
"V1 	c #0C0605",
"W1 	c #0A0404",
"X1 	c #060205",
"Y1 	c #110305",
"Z1 	c #7E6405",
"`1 	c #C99905",
" 2 	c #CEA207",
".2 	c #CA990B",
"+2 	c #DA8C08",
"@2 	c #E1910E",
"#2 	c #E59A17",
"$2 	c #A46008",
"%2 	c #763000",
"&2 	c #7A3400",
"*2 	c #A06702",
"=2 	c #E5B808",
"-2 	c #E8B204",
";2 	c #E9B704",
">2 	c #EABF0B",
",2 	c #EBC00F",
"'2 	c #E8BD0F",
")2 	c #E5AB0E",
"!2 	c #F2AD0E",
"~2 	c #D28D17",
"{2 	c #C68119",
"]2 	c #CA9326",
"^2 	c #E3C842",
"/2 	c #E1C743",
"(2 	c #D1B140",
"_2 	c #B97108",
":2 	c #AA5B00",
"<2 	c #A95900",
"[2 	c #783901",
"}2 	c #461201",
"|2 	c #420F01",
"12 	c #613C01",
"22 	c #E19101",
"32 	c #EE9701",
"42 	c #ED9B02",
"52 	c #A47802",
"62 	c #714201",
"72 	c #713F01",
"82 	c #804301",
"92 	c #B10A00",
"02 	c #C80200",
"a2 	c #D00300",
"b2 	c #E30A05",
"c2 	c #E50B0B",
"d2 	c #E61612",
"e2 	c #E85B3C",
"f2 	c #EC7048",
"g2 	c #EB6644",
"h2 	c #EC6240",
"i2 	c #EC4B29",
"j2 	c #EA4C23",
"k2 	c #E04A1F",
"l2 	c #A25B1B",
"m2 	c #836320",
"n2 	c #856421",
"o2 	c #A18020",
"p2 	c #D7B928",
"q2 	c #D6B924",
"r2 	c #CEB62B",
"s2 	c #8B7222",
"t2 	c #7B611C",
"u2 	c #7B5F18",
"v2 	c #6D470C",
"w2 	c #531800",
"x2 	c #633D0C",
"y2 	c #E2C93C",
"z2 	c #E6C936",
"A2 	c #E5C526",
"B2 	c #99881D",
"C2 	c #6C5D1C",
"D2 	c #6C5C14",
"E2 	c #5B4F2A",
"F2 	c #13205D",
"G2 	c #0E2367",
"H2 	c #0C3086",
"I2 	c #0753B3",
"J2 	c #035FCF",
"K2 	c #045BCC",
"L2 	c #035AC9",
"M2 	c #0551BF",
"N2 	c #0947B6",
"O2 	c #1E46AB",
"P2 	c #5C503E",
"Q2 	c #685D24",
"R2 	c #6C5C25",
"S2 	c #745A1F",
"T2 	c #EAB20D",
"U2 	c #F6B009",
"V2 	c #F4BC09",
"W2 	c #9A5302",
"X2 	c #883B01",
"Y2 	c #702C01",
"Z2 	c #5A2501",
"`2 	c #4C1E02",
" 3 	c #4D1F02",
".3 	c #582401",
"+3 	c #7A3401",
"@3 	c #843A00",
"#3 	c #7E3400",
"$3 	c #7A3301",
"%3 	c #D5B229",
"&3 	c #EECB32",
"*3 	c #EEC62F",
"=3 	c #D6B526",
"-3 	c #7C651D",
";3 	c #7D6122",
">3 	c #7C6023",
",3 	c #826026",
"'3 	c #88602A",
")3 	c #8A602C",
"!3 	c #8E622F",
"~3 	c #8F6130",
"{3 	c #8D6136",
"]3 	c #8B6136",
"^3 	c #886031",
"/3 	c #83612D",
"(3 	c #816329",
"_3 	c #C7A32C",
":3 	c #E4BF29",
"<3 	c #E3BE27",
"[3 	c #D2A61F",
"}3 	c #914801",
"|3 	c #5E1F00",
"13 	c #5C2D00",
"23 	c #765402",
"33 	c #795802",
"43 	c #7C5701",
"53 	c #AE6201",
"63 	c #B05F00",
"73 	c #B06501",
"83 	c #824D04",
"93 	c #0D0206",
"03 	c #050302",
"a3 	c #160504",
"b3 	c #987A0A",
"c3 	c #F4A90B",
"d3 	c #F8AD0C",
"e3 	c #ECA309",
"f3 	c #D98101",
"g3 	c #DF8901",
"h3 	c #9A5301",
"i3 	c #AF6F01",
"j3 	c #FBBF05",
"k3 	c #FEB806",
"l3 	c #FEBF0B",
"m3 	c #FFCB17",
"n3 	c #FFD11C",
"o3 	c #FFD21D",
"p3 	c #FED120",
"q3 	c #FAC007",
"r3 	c #C69323",
"s3 	c #FCDA3E",
"t3 	c #FEDC3F",
"u3 	c #F0C939",
"v3 	c #D27903",
"w3 	c #C06700",
"x3 	c #C56900",
"y3 	c #974D00",
"z3 	c #491200",
"A3 	c #440F00",
"B3 	c #5E3100",
"C3 	c #E59102",
"D3 	c #F29B04",
"E3 	c #F09E06",
"F3 	c #9C7907",
"G3 	c #450200",
"H3 	c #460100",
"I3 	c #760100",
"J3 	c #BD0100",
"K3 	c #DB0000",
"L3 	c #EA0100",
"M3 	c #FA0F0D",
"N3 	c #FE1214",
"O3 	c #FE1C1A",
"P3 	c #FF6E4C",
"Q3 	c #FF8159",
"R3 	c #FF7E56",
"S3 	c #FF7B53",
"T3 	c #FE4D32",
"U3 	c #FF4F2E",
"V3 	c #F44D29",
"W3 	c #9A1808",
"X3 	c #6A0200",
"Y3 	c #5F0300",
"Z3 	c #9C8013",
"`3 	c #FDD229",
" 4 	c #F1CF37",
".4 	c #664D11",
"+4 	c #4A1100",
"@4 	c #501500",
"#4 	c #4E1400",
"$4 	c #634310",
"%4 	c #F8E446",
"&4 	c #FBDC2E",
"*4 	c #8F8924",
"=4 	c #1C0322",
"-4 	c #220219",
";4 	c #1D072A",
">4 	c #0D245D",
",4 	c #0B2866",
"'4 	c #053088",
")4 	c #0363C3",
"!4 	c #016EE3",
"~4 	c #006CE4",
"{4 	c #006BE1",
"]4 	c #015ACD",
"^4 	c #024CBD",
"/4 	c #054CC2",
"(4 	c #1C1F5D",
"_4 	c #1D0930",
":4 	c #1E0C30",
"<4 	c #642C28",
"[4 	c #EEAF0B",
"}4 	c #FBAB05",
"|4 	c #F7BF0D",
"14 	c #9C5501",
"24 	c #8D3F00",
"34 	c #300903",
"44 	c #411402",
"54 	c #7F3700",
"64 	c #793300",
"74 	c #7C3801",
"84 	c #E6C42C",
"94 	c #FFD835",
"04 	c #FED532",
"a4 	c #DCC225",
"b4 	c #502229",
"c4 	c #420123",
"d4 	c #3F0024",
"e4 	c #5E0137",
"f4 	c #6D0043",
"g4 	c #700045",
"h4 	c #730146",
"i4 	c #720147",
"j4 	c #700148",
"k4 	c #6C0045",
"l4 	c #62003E",
"m4 	c #520131",
"n4 	c #4D1429",
"o4 	c #C8AB29",
"p4 	c #FED52B",
"q4 	c #FFD52E",
"r4 	c #E9B925",
"s4 	c #A55101",
"t4 	c #642400",
"u4 	c #3C0D00",
"v4 	c #461A01",
"w4 	c #C87500",
"x4 	c #C76F00",
"y4 	c #C16B00",
"z4 	c #985A02",
"A4 	c #170404",
"B4 	c #130205",
"C4 	c #0B0204",
"D4 	c #040203",
"E4 	c #0B0206",
"F4 	c #140404",
"G4 	c #270A03",
"H4 	c #2C0E03",
"I4 	c #9C7C0B",
"J4 	c #F5B00E",
"K4 	c #F7B111",
"L4 	c #E9A40B",
"M4 	c #D88801",
"N4 	c #DD8F01",
"O4 	c #9E6001",
"P4 	c #844A00",
"Q4 	c #894600",
"R4 	c #B37102",
"S4 	c #FCC10B",
"T4 	c #FEBD11",
"U4 	c #FFC318",
"V4 	c #FFD32D",
"W4 	c #FFD82F",
"X4 	c #FED52A",
"Y4 	c #FBBF0C",
"Z4 	c #BC7A03",
"`4 	c #B46901",
" 5 	c #C59627",
".5 	c #F3D73F",
"+5 	c #F5D844",
"@5 	c #EEC63A",
"#5 	c #D47E04",
"$5 	c #C46D01",
"%5 	c #C56B00",
"&5 	c #491500",
"*5 	c #551F01",
"=5 	c #6E3701",
"-5 	c #E19305",
";5 	c #EAA808",
">5 	c #E9A708",
",5 	c #9B7808",
"'5 	c #4B0300",
")5 	c #4B0100",
"!5 	c #7A0000",
"~5 	c #BD0000",
"{5 	c #E30000",
"]5 	c #F40101",
"^5 	c #FC1711",
"/5 	c #FF1C18",
"(5 	c #FF251D",
"_5 	c #FF7753",
":5 	c #FF8A5F",
"<5 	c #FF8860",
"[5 	c #FF8762",
"}5 	c #FF4E35",
"|5 	c #FF5232",
"15 	c #F4522F",
"25 	c #9C1A0A",
"35 	c #730100",
"45 	c #660200",
"55 	c #9B7E0F",
"65 	c #FCCF26",
"75 	c #FECE2F",
"85 	c #F2CD36",
"95 	c #674D12",
"05 	c #4B1200",
"a5 	c #5F2B01",
"b5 	c #5D2300",
"c5 	c #6C460E",
"d5 	c #F3DE40",
"e5 	c #F7E13B",
"f5 	c #F2D92B",
"g5 	c #88862E",
"h5 	c #1C072E",
"i5 	c #24072D",
"j5 	c #200D37",
"k5 	c #0D2564",
"l5 	c #0B2A6F",
"m5 	c #06338B",
"n5 	c #0363C5",
"o5 	c #0270E3",
"p5 	c #0174E8",
"q5 	c #0275E6",
"r5 	c #0461CE",
"s5 	c #0451BB",
"t5 	c #0451C4",
"u5 	c #18246B",
"v5 	c #190F43",
"w5 	c #191141",
"x5 	c #612D2F",
"y5 	c #E3B00E",
"z5 	c #F0B109",
"A5 	c #EFC214",
"B5 	c #AD6303",
"C5 	c #9F5301",
"D5 	c #8C4700",
"E5 	c #612D02",
"F5 	c #370C02",
"G5 	c #330A03",
"H5 	c #431502",
"I5 	c #884701",
"J5 	c #8B4C02",
"K5 	c #8F5103",
"L5 	c #E1C02C",
"M5 	c #F3D738",
"N5 	c #F2D334",
"O5 	c #D3B826",
"P5 	c #501F2F",
"Q5 	c #430028",
"R5 	c #440029",
"S5 	c #6A0143",
"T5 	c #78024C",
"U5 	c #7A024D",
"V5 	c #7C014E",
"W5 	c #7B014D",
"X5 	c #7A014E",
"Y5 	c #77014D",
"Z5 	c #6F0146",
"`5 	c #5F0039",
" 6 	c #591132",
".6 	c #C0A72F",
"+6 	c #F3D330",
"@6 	c #F5D332",
"#6 	c #E7B829",
"$6 	c #B36102",
"%6 	c #874301",
"&6 	c #411201",
"*6 	c #3B0D01",
"=6 	c #441A01",
"-6 	c #CA7700",
";6 	c #CA7300",
">6 	c #C46E01",
",6 	c #965902",
"'6 	c #2E0D04",
")6 	c #180505",
"!6 	c #020104",
"~6 	c #080105",
"{6 	c #673102",
"]6 	c #AB5A00",
"^6 	c #BE7602",
"/6 	c #E18C03",
"(6 	c #DF8903",
"_6 	c #C87D03",
":6 	c #703900",
"<6 	c #6C3D00",
"[6 	c #704601",
"}6 	c #DCAB07",
"|6 	c #F1B204",
"16 	c #EEAA03",
"26 	c #EFAE22",
"36 	c #FEEC5B",
"46 	c #FEF595",
"56 	c #FEFA9F",
"66 	c #FEF893",
"76 	c #FEF57B",
"86 	c #FDD526",
"96 	c #F6CF18",
"06 	c #F5CF16",
"a6 	c #D6B31A",
"b6 	c #8A6018",
"c6 	c #865F1B",
"d6 	c #CEB230",
"e6 	c #F6C92D",
"f6 	c #D7B527",
"g6 	c #7B3C03",
"h6 	c #975E03",
"i6 	c #C67602",
"j6 	c #DD8702",
"k6 	c #D99203",
"l6 	c #695303",
"m6 	c #614C02",
"n6 	c #6F2C02",
"o6 	c #780200",
"p6 	c #770100",
"q6 	c #A20000",
"r6 	c #E20000",
"s6 	c #F60001",
"t6 	c #FC0807",
"u6 	c #FE4F38",
"v6 	c #FF6246",
"w6 	c #FF684B",
"x6 	c #FEC5AC",
"y6 	c #FFE0C1",
"z6 	c #FFDEC1",
"A6 	c #FFD2B9",
"B6 	c #FF825D",
"C6 	c #FF8056",
"D6 	c #F77D51",
"E6 	c #B92916",
"F6 	c #9F0000",
"G6 	c #8F0200",
"H6 	c #9D6005",
"I6 	c #F5A712",
"J6 	c #FDBB1D",
"K6 	c #F1C32E",
"L6 	c #725012",
"M6 	c #581A00",
"N6 	c #501901",
"O6 	c #AF870F",
"P6 	c #DD980A",
"Q6 	c #D48705",
"R6 	c #B17711",
"S6 	c #826F34",
"T6 	c #786331",
"U6 	c #6F5A2C",
"V6 	c #3A386A",
"W6 	c #0A2178",
"X6 	c #0E2479",
"Y6 	c #0C2F82",
"Z6 	c #0260D0",
"`6 	c #0264D9",
" 7 	c #026CE1",
".7 	c #0F9EEB",
"+7 	c #14C4F9",
"@7 	c #10C8FA",
"#7 	c #13C8FA",
"$7 	c #13B2F7",
"%7 	c #069CF3",
"&7 	c #07A1F1",
"*7 	c #085ABC",
"=7 	c #062E99",
"-7 	c #072F92",
";7 	c #262776",
">7 	c #564E38",
",7 	c #5D5435",
"'7 	c #6C5E29",
")7 	c #EDC41F",
"!7 	c #F4C119",
"~7 	c #EAAD0A",
"{7 	c #957D06",
"]7 	c #431101",
"^7 	c #531D00",
"/7 	c #893D01",
"(7 	c #D9B211",
"_7 	c #F3C41C",
":7 	c #F3C81D",
"<7 	c #A1821F",
"[7 	c #67582A",
"}7 	c #655727",
"|7 	c #754636",
"17 	c #78054B",
"27 	c #720047",
"37 	c #7A014C",
"47 	c #CB1685",
"57 	c #DB248E",
"67 	c #DB248D",
"77 	c #D21C84",
"87 	c #D0187F",
"97 	c #D41981",
"07 	c #D51782",
"a7 	c #CF1080",
"b7 	c #C90D7B",
"c7 	c #C60B7B",
"d7 	c #874147",
"e7 	c #73572A",
"f7 	c #735826",
"g7 	c #A58D1E",
"h7 	c #F4BB0F",
"i7 	c #F2B610",
"j7 	c #DD9C08",
"k7 	c #5F2D01",
"l7 	c #461101",
"m7 	c #441401",
"n7 	c #964800",
"o7 	c #904500",
"p7 	c #944901",
"q7 	c #984B00",
"r7 	c #9B4E00",
"s7 	c #482004",
"t7 	c #020103",
"u7 	c #0B0103",
"v7 	c #783C02",
"w7 	c #BD6400",
"x7 	c #C77400",
"y7 	c #E78E01",
"z7 	c #CF8101",
"A7 	c #531700",
"B7 	c #562300",
"C7 	c #E2AB0A",
"D7 	c #FCB407",
"E7 	c #FCAF04",
"F7 	c #F9B728",
"G7 	c #FEED55",
"H7 	c #FEF05C",
"I7 	c #FEF161",
"J7 	c #FEF9A2",
"K7 	c #FEFFB1",
"L7 	c #FEFFA9",
"M7 	c #FEFC90",
"N7 	c #FDD82B",
"O7 	c #FED11B",
"P7 	c #FDCD19",
"Q7 	c #D8B61A",
"R7 	c #793302",
"S7 	c #CBBB39",
"T7 	c #FFE03E",
"U7 	c #DAC93C",
"V7 	c #693306",
"W7 	c #6A2500",
"X7 	c #BD9A0E",
"Y7 	c #F7AA0A",
"Z7 	c #F7A706",
"`7 	c #E79C04",
" 8 	c #4F1E00",
".8 	c #3E0100",
"+8 	c #6C0100",
"@8 	c #790000",
"#8 	c #7E0000",
"$8 	c #AB0000",
"%8 	c #E90000",
"&8 	c #FB0002",
"*8 	c #FF110D",
"=8 	c #FE6E4E",
"-8 	c #FF8661",
";8 	c #FFDAC2",
">8 	c #FFFADD",
",8 	c #FFF4D6",
"'8 	c #FEE6CC",
")8 	c #FF9269",
"!8 	c #FF8B60",
"~8 	c #F98C5B",
"{8 	c #C5301A",
"]8 	c #AD0000",
"^8 	c #9E0200",
"/8 	c #A76C08",
"(8 	c #F9B013",
"_8 	c #FEBD1C",
":8 	c #F2C630",
"<8 	c #765313",
"[8 	c #5A1C00",
"}8 	c #4F1C02",
"|8 	c #C0AB1D",
"18 	c #FDC61C",
"28 	c #FBB810",
"38 	c #C4981A",
"48 	c #271643",
"58 	c #1A093D",
"68 	c #230A37",
"78 	c #07277C",
"88 	c #032985",
"98 	c #032A88",
"08 	c #053590",
"a8 	c #016BE7",
"b8 	c #0071EF",
"c8 	c #0074F2",
"d8 	c #1AB0F6",
"e8 	c #1ED7FE",
"f8 	c #1EDCFF",
"g8 	c #23DAFF",
"h8 	c #19C0FF",
"i8 	c #0AAFFF",
"j8 	c #09B0FD",
"k8 	c #0469CF",
"l8 	c #0238AF",
"m8 	c #003BAA",
"n8 	c #142C86",
"o8 	c #1C0E46",
"p8 	c #220A43",
"q8 	c #473C37",
"r8 	c #F5D62F",
"s8 	c #FFCD25",
"t8 	c #FAC115",
"u8 	c #998E0B",
"v8 	c #4B1501",
"w8 	c #8E3F00",
"x8 	c #8B4001",
"y8 	c #E1BC18",
"z8 	c #FFCF23",
"A8 	c #FDD324",
"B8 	c #9A7A20",
"C8 	c #4B012D",
"D8 	c #44012A",
"E8 	c #6D0144",
"F8 	c #820054",
"G8 	c #820052",
"H8 	c #870154",
"I8 	c #D8168B",
"J8 	c #EF2297",
"K8 	c #F02597",
"L8 	c #E62090",
"M8 	c #E51D8C",
"N8 	c #E9258C",
"O8 	c #E7208C",
"P8 	c #E11689",
"Q8 	c #D80E84",
"R8 	c #D40A85",
"S8 	c #840151",
"T8 	c #56002F",
"U8 	c #56032B",
"V8 	c #9B8720",
"W8 	c #FCC013",
"X8 	c #FEBC13",
"Y8 	c #E9A50B",
"Z8 	c #693301",
"`8 	c #4C1501",
" 9 	c #8F3F00",
".9 	c #8C3D00",
"+9 	c #A95500",
"@9 	c #502404",
"#9 	c #030204",
"$9 	c #7A4202",
"%9 	c #C67501",
"&9 	c #DEA60D",
"*9 	c #FDB408",
"=9 	c #FBB006",
"-9 	c #FABC2D",
";9 	c #FEEE5F",
">9 	c #FFF063",
",9 	c #FEF068",
"'9 	c #FEFEAD",
")9 	c #FFFEA6",
"!9 	c #FEF990",
"~9 	c #FED92B",
"{9 	c #FED01F",
"]9 	c #FDCD1B",
"^9 	c #7D3700",
"/9 	c #773303",
"(9 	c #CBBA3A",
"_9 	c #FFDF3E",
":9 	c #DCC93C",
"<9 	c #6C3406",
"[9 	c #6C2700",
"}9 	c #BD9B15",
"|9 	c #F9B00E",
"19 	c #FAAE08",
"29 	c #E8A606",
"39 	c #522201",
"49 	c #400100",
"59 	c #720100",
"69 	c #820000",
"79 	c #880000",
"89 	c #AE0000",
"99 	c #EA0001",
"09 	c #FB0104",
"a9 	c #FE140E",
"b9 	c #FE7554",
"c9 	c #FF8C67",
"d9 	c #FF8E69",
"e9 	c #FEDCC2",
"f9 	c #FFFCE1",
"g9 	c #FFF7DD",
"h9 	c #FEE9CE",
"i9 	c #FF926A",
"j9 	c #F98759",
"k9 	c #C52D1A",
"l9 	c #AF0000",
"m9 	c #A80100",
"n9 	c #AE690A",
"o9 	c #F9B114",
"p9 	c #FEBB1A",
"q9 	c #F3C22B",
"r9 	c #735010",
"s9 	c #561900",
"t9 	c #4E1D02",
"u9 	c #BFA922",
"v9 	c #FCC31D",
"w9 	c #FBBB14",
"x9 	c #BF951F",
"y9 	c #241741",
"z9 	c #1A0C37",
"A9 	c #200E39",
"B9 	c #042B86",
"C9 	c #032D8A",
"D9 	c #042E8F",
"E9 	c #043697",
"F9 	c #026AE7",
"G9 	c #0175F1",
"H9 	c #027EF5",
"I9 	c #2FB7F7",
"J9 	c #37DBFE",
"K9 	c #37E0FD",
"L9 	c #3BE0FE",
"M9 	c #31C5FE",
"N9 	c #2AB5FE",
"O9 	c #29AFFA",
"P9 	c #156BCF",
"Q9 	c #033DB9",
"R9 	c #023EAD",
"S9 	c #132F8D",
"T9 	c #1D1044",
"U9 	c #220C41",
"V9 	c #473C35",
"W9 	c #F5D52C",
"X9 	c #FECC23",
"Y9 	c #FAC719",
"Z9 	c #9B8E0C",
"`9 	c #4D1600",
" 0 	c #571F01",
".0 	c #8C3F00",
"+0 	c #924401",
"@0 	c #E1C01A",
"#0 	c #FED124",
"$0 	c #FCD425",
"%0 	c #9F7B24",
"&0 	c #4D0133",
"*0 	c #49012F",
"=0 	c #74014A",
"-0 	c #880159",
";0 	c #8B0257",
">0 	c #90055A",
",0 	c #DC238C",
"'0 	c #F12B93",
")0 	c #F22D93",
"!0 	c #EC308E",
"~0 	c #EC328B",
"{0 	c #ED3790",
"]0 	c #EE358F",
"^0 	c #E82B8A",
"/0 	c #DB1484",
"(0 	c #D70E83",
"_0 	c #850152",
":0 	c #570030",
"<0 	c #57032D",
"[0 	c #9C8621",
"}0 	c #FBC616",
"|0 	c #FEC619",
"10 	c #E6AE11",
"20 	c #693701",
"30 	c #5A2800",
"40 	c #532601",
"50 	c #994A00",
"60 	c #A75400",
"70 	c #4A2203",
"80 	c #070506",
"90 	c #845002",
"00 	c #AF5D00",
"a0 	c #AF6100",
"b0 	c #B66C00",
"c0 	c #C67300",
"d0 	c #C36D00",
"e0 	c #C16C03",
"f0 	c #EFC831",
"g0 	c #FDD02C",
"h0 	c #FDD12B",
"i0 	c #FDDB56",
"j0 	c #FEFA95",
"k0 	c #FEFA96",
"l0 	c #FEF9A1",
"m0 	c #FEFDCB",
"n0 	c #FEFFD8",
"o0 	c #FEFFD4",
"p0 	c #FEFBC8",
"q0 	c #FEE243",
"r0 	c #FEE13D",
"s0 	c #FDDD37",
"t0 	c #D7B92A",
"u0 	c #853D01",
"v0 	c #7B3603",
"w0 	c #CBB93D",
"x0 	c #FEDE41",
"y0 	c #DEC63A",
"z0 	c #6C3305",
"A0 	c #6A2400",
"B0 	c #BC9F2C",
"C0 	c #FCC82A",
"D0 	c #FEC51B",
"E0 	c #EDBE17",
"F0 	c #532A02",
"G0 	c #420101",
"H0 	c #7C0100",
"I0 	c #920100",
"J0 	c #A30100",
"K0 	c #D40001",
"L0 	c #F20104",
"M0 	c #FD0309",
"N0 	c #FF1111",
"O0 	c #FE563F",
"P0 	c #FF634B",
"Q0 	c #FF6B50",
"R0 	c #FEDAC6",
"S0 	c #FEFCE7",
"T0 	c #FFFAE6",
"U0 	c #FEECD7",
"V0 	c #FF775A",
"W0 	c #FF6647",
"X0 	c #FC5F40",
"Y0 	c #D41C10",
"Z0 	c #B70000",
"`0 	c #B20100",
" a 	c #B1771D",
".a 	c #FBCE32",
"+a 	c #FED336",
"@a 	c #F3D242",
"#a 	c #7E5518",
"$a 	c #632200",
"%a 	c #4E1D03",
"&a 	c #BFAE2A",
"*a 	c #FCD12B",
"=a 	c #FDCF23",
"-a 	c #BB9D2E",
";a 	c #1D2461",
">a 	c #0E2066",
",a 	c #0E2267",
"'a 	c #0245BD",
")a 	c #0254CA",
"!a 	c #026BDF",
"~a 	c #047BE1",
"{a 	c #1BCBF6",
"]a 	c #18D2FB",
"^a 	c #16BCFC",
"/a 	c #9AD4FC",
"(a 	c #DAF4FE",
"_a 	c #DDF7FD",
":a 	c #DDF9FE",
"<a 	c #D7F3FE",
"[a 	c #CFF0FE",
"}a 	c #D0E8FC",
"|a 	c #7EB4F0",
"1a 	c #0A8FEC",
"2a 	c #0675E7",
"3a 	c #0354BB",
"4a 	c #0C267E",
"5a 	c #121E6E",
"6a 	c #423C4F",
"7a 	c #EFC21C",
"8a 	c #F3AF16",
"9a 	c #EFAB0A",
"0a 	c #A37403",
"aa 	c #762F00",
"ba 	c #8B4B01",
"ca 	c #D88E01",
"da 	c #DA8A01",
"ea 	c #D99202",
"fa 	c #B38913",
"ga 	c #B89921",
"ha 	c #BDA728",
"ia 	c #8D5E40",
"ja 	c #750151",
"ka 	c #740150",
"la 	c #B90A79",
"ma 	c #C70F84",
"na 	c #D01887",
"oa 	c #D02F87",
"pa 	c #F391BC",
"qa 	c #FC9ABE",
"ra 	c #FBA5C3",
"sa 	c #F9CFD7",
"ta 	c #F9DEE0",
"ua 	c #FADDE5",
"va 	c #FBDBE1",
"wa 	c #F9C2D1",
"xa 	c #F257A3",
"ya 	c #F042A3",
"za 	c #9B0B69",
"Aa 	c #6D0045",
"Ba 	c #620139",
"Ca 	c #825E26",
"Da 	c #BD971B",
"Ea 	c #BD9F1D",
"Fa 	c #BC9717",
"Ga 	c #DB9D05",
"Ha 	c #DFA204",
"Ia 	c #CE9D06",
"Ja 	c #884601",
"Ka 	c #AC6702",
"La 	c #DE8D02",
"Ma 	c #DC9002",
"Na 	c #613A04",
"Oa 	c #1C0506",
"Pa 	c #070103",
"Qa 	c #080506",
"Ra 	c #864E03",
"Sa 	c #BE6900",
"Ta 	c #9F4F00",
"Ua 	c #843700",
"Va 	c #9F5200",
"Wa 	c #CF7400",
"Xa 	c #CD7303",
"Ya 	c #F4D037",
"Za 	c #FEDA34",
"`a 	c #FFDB35",
" b 	c #FEE463",
".b 	c #FEFEA1",
"+b 	c #FEFFA7",
"@b 	c #FEFEAF",
"#b 	c #FEFED0",
"$b 	c #FEFFDE",
"%b 	c #FEFFDB",
"&b 	c #FEFDD4",
"*b 	c #FEE64A",
"=b 	c #FFE33E",
"-b 	c #FEDF39",
";b 	c #D9BC2D",
">b 	c #883E01",
",b 	c #7E3703",
"'b 	c #CABD42",
")b 	c #FEE347",
"!b 	c #DEC941",
"~b 	c #703607",
"{b 	c #6E2700",
"]b 	c #BDA635",
"^b 	c #FDD93A",
"/b 	c #FFD428",
"(b 	c #EDC820",
"_b 	c #522D02",
":b 	c #420100",
"<b 	c #7F0100",
"[b 	c #990000",
"}b 	c #A20100",
"|b 	c #D00001",
"1b 	c #F00003",
"2b 	c #FD030A",
"3b 	c #FF1513",
"4b 	c #FE543D",
"5b 	c #FF513D",
"6b 	c #FF5641",
"7b 	c #FED5C3",
"8b 	c #FFFAE5",
"9b 	c #FFF9E3",
"0b 	c #FEE9D4",
"ab 	c #FF5E4C",
"bb 	c #FF4D38",
"cb 	c #FE4934",
"db 	c #D8150D",
"eb 	c #B60000",
"fb 	c #B00100",
"gb 	c #AD7E24",
"hb 	c #FCD73A",
"ib 	c #FFDA3A",
"jb 	c #F4D847",
"kb 	c #81571B",
"lb 	c #501E04",
"mb 	c #BFB231",
"nb 	c #FED42F",
"ob 	c #FDCF24",
"pb 	c #BC9E30",
"qb 	c #1B256A",
"rb 	c #06236F",
"sb 	c #09246F",
"tb 	c #0148C5",
"ub 	c #0158D5",
"vb 	c #016AEC",
"wb 	c #0276F0",
"xb 	c #16D2FC",
"yb 	c #16D5FF",
"zb 	c #18C3FE",
"Ab 	c #ABDEFD",
"Bb 	c #EFFDFF",
"Cb 	c #F6FEFF",
"Db 	c #F4FEFF",
"Eb 	c #F0FDFF",
"Fb 	c #E4FCFF",
"Gb 	c #E4F9FE",
"Hb 	c #8CBFFA",
"Ib 	c #0991F8",
"Jb 	c #0676F4",
"Kb 	c #0258C6",
"Lb 	c #032A8E",
"Mb 	c #0B227A",
"Nb 	c #41385A",
"Ob 	c #EDAF13",
"Pb 	c #EC9501",
"Qb 	c #E78F01",
"Rb 	c #A86700",
"Sb 	c #803700",
"Tb 	c #975401",
"Ub 	c #EC9B01",
"Vb 	c #F4A802",
"Wb 	c #8F6012",
"Xb 	c #4B0A20",
"Yb 	c #470922",
"Zb 	c #700348",
"`b 	c #800058",
" c 	c #830158",
".c 	c #C20C7F",
"+c 	c #D01088",
"@c 	c #D9168C",
"#c 	c #DB2F8D",
"$c 	c #F991C1",
"%c 	c #FE92BD",
"&c 	c #FE9EC3",
"*c 	c #FCE2E6",
"=c 	c #FEF7F2",
"-c 	c #FEF6F5",
";c 	c #FEF1EE",
">c 	c #FDCFDC",
",c 	c #F555A6",
"'c 	c #F541A7",
")c 	c #A70E73",
"!c 	c #73004C",
"~c 	c #64003F",
"{c 	c #590333",
"]c 	c #53092A",
"^c 	c #490B28",
"/c 	c #89611E",
"(c 	c #F2A809",
"_c 	c #F8A403",
":c 	c #E39F03",
"<c 	c #7B4101",
"[c 	c #6D2A00",
"}c 	c #B87603",
"|c 	c #EB9603",
"1c 	c #E69503",
"2c 	c #633B03",
"3c 	c #120306",
"4c 	c #070204",
"5c 	c #070303",
"6c 	c #824B03",
"7c 	c #BC6701",
"8c 	c #A05206",
"9c 	c #8B450E",
"0c 	c #8C440D",
"ac 	c #9B520A",
"bc 	c #D17700",
"cc 	c #CB7100",
"dc 	c #C86E03",
"ec 	c #F4CB34",
"fc 	c #FFD834",
"gc 	c #FFDB34",
"hc 	c #FFE567",
"ic 	c #FFFDAA",
"jc 	c #FFFEA4",
"kc 	c #FFFEA8",
"lc 	c #FFFEC9",
"mc 	c #FEFFDA",
"nc 	c #FFFDDC",
"oc 	c #FDE64E",
"pc 	c #FEE33C",
"qc 	c #FDE13A",
"rc 	c #DBC134",
"sc 	c #894202",
"tc 	c #813B04",
"uc 	c #CBBC47",
"vc 	c #FFE245",
"wc 	c #DDCA45",
"xc 	c #703609",
"yc 	c #BCA534",
"zc 	c #FED636",
"Ac 	c #EDCA28",
"Bc 	c #512B03",
"Cc 	c #3F0100",
"Dc 	c #7F0000",
"Ec 	c #C40000",
"Fc 	c #EC0000",
"Gc 	c #F80102",
"Hc 	c #FE130D",
"Ic 	c #FD6446",
"Jc 	c #FF6247",
"Kc 	c #FF654B",
"Lc 	c #FDD4C1",
"Mc 	c #FFF8E0",
"Nc 	c #FFF8DD",
"Oc 	c #FEE9CD",
"Pc 	c #FF5F4A",
"Qc 	c #FF5340",
"Rc 	c #FD503B",
"Sc 	c #D4170D",
"Tc 	c #A70200",
"Uc 	c #AC7B1B",
"Vc 	c #FBD633",
"Wc 	c #F3D643",
"Xc 	c #7D5519",
"Yc 	c #5B1D00",
"Zc 	c #4A1C02",
"`c 	c #BFB12B",
" d 	c #FECE27",
".d 	c #FDC11E",
"+d 	c #BA982F",
"@d 	c #1A236D",
"#d 	c #0A1F70",
"$d 	c #082370",
"%d 	c #013DB3",
"&d 	c #0159D0",
"*d 	c #0166E3",
"=d 	c #0169E6",
"-d 	c #10BFF9",
";d 	c #12CAFE",
">d 	c #15BDFD",
",d 	c #ABDBFD",
"'d 	c #E6FBFE",
")d 	c #F5FFFD",
"!d 	c #F7FFFE",
"~d 	c #F3FEFF",
"{d 	c #EFFEFF",
"]d 	c #E8FCFE",
"^d 	c #8ACAFA",
"/d 	c #0B93F8",
"(d 	c #0475F2",
"_d 	c #0459C6",
":d 	c #072587",
"<d 	c #0A207E",
"[d 	c #403560",
"}d 	c #EFAB14",
"|d 	c #F39A01",
"1d 	c #EA9300",
"2d 	c #A96600",
"3d 	c #995301",
"4d 	c #EB9802",
"5d 	c #F5A204",
"6d 	c #8D5E14",
"7d 	c #40031C",
"8d 	c #400022",
"9d 	c #73004A",
"0d 	c #850054",
"ad 	c #8B0157",
"bd 	c #C50B7D",
"cd 	c #CC1082",
"dd 	c #D41C84",
"ed 	c #DE388B",
"fd 	c #F99EC3",
"gd 	c #FF95BF",
"hd 	c #FEA3C7",
"id 	c #FEE9F1",
"jd 	c #FFFAFB",
"kd 	c #FFF7F9",
"ld 	c #FEEBEE",
"md 	c #FDC1D5",
"nd 	c #F957A9",
"od 	c #F53C9F",
"pd 	c #A41269",
"qd 	c #7E004F",
"rd 	c #700049",
"sd 	c #5E013B",
"td 	c #4E042A",
"ud 	c #4E032B",
"vd 	c #936720",
"wd 	c #F3AC0A",
"xd 	c #E1A203",
"yd 	c #754000",
"zd 	c #642500",
"Ad 	c #B57702",
"Bd 	c #E99504",
"Cd 	c #E59904",
"Dd 	c #604103",
"Ed 	c #1C0504",
"Fd 	c #1B0605",
"Gd 	c #0F0206",
"Hd 	c #6A3502",
"Id 	c #984A01",
"Jd 	c #AC9131",
"Kd 	c #F0DC4C",
"Ld 	c #F1DB49",
"Md 	c #E4C444",
"Nd 	c #D27D08",
"Od 	c #D07600",
"Pd 	c #CF7704",
"Qd 	c #F5D640",
"Rd 	c #FEE245",
"Sd 	c #FFE444",
"Td 	c #FEEA72",
"Ud 	c #FEFEC7",
"Vd 	c #FEFFD9",
"Wd 	c #FEFFE0",
"Xd 	c #FEFED6",
"Yd 	c #FEFCD8",
"Zd 	c #FFE23B",
"`d 	c #FFDF38",
" e 	c #DEC131",
".e 	c #8D4501",
"+e 	c #843D04",
"@e 	c #CCC04B",
"#e 	c #FFE94D",
"$e 	c #DCCD4D",
"%e 	c #6C350B",
"&e 	c #6E2800",
"*e 	c #C0A836",
"=e 	c #FED738",
"-e 	c #EBCC29",
";e 	c #522C03",
">e 	c #780000",
",e 	c #910000",
"'e 	c #940000",
")e 	c #DE0000",
"!e 	c #F30000",
"~e 	c #FB0A06",
"{e 	c #FE553B",
"]e 	c #FF5C43",
"^e 	c #FF5F46",
"/e 	c #FDB896",
"(e 	c #FED3AA",
"_e 	c #FED4AE",
":e 	c #FDCCA5",
"<e 	c #FE4734",
"[e 	c #FF251B",
"}e 	c #FC2319",
"|e 	c #D10503",
"1e 	c #A80000",
"2e 	c #980100",
"3e 	c #9F5B09",
"4e 	c #E99815",
"5e 	c #EB9B15",
"6e 	c #E39D1C",
"7e 	c #6D3D07",
"8e 	c #421902",
"9e 	c #BFB028",
"0e 	c #FED129",
"ae 	c #FDCB20",
"be 	c #BB9E2E",
"ce 	c #1C2165",
"de 	c #0D1F6D",
"ee 	c #0C2774",
"fe 	c #014DD0",
"ge 	c #015FE0",
"he 	c #016EEA",
"ie 	c #0273ED",
"je 	c #21C6F8",
"ke 	c #27D8FF",
"le 	c #3AD0FE",
"me 	c #B3E3FE",
"ne 	c #EDFDFE",
"oe 	c #F5FEFD",
"pe 	c #F8FEFD",
"qe 	c #ECF9FE",
"re 	c #DBF5FE",
"se 	c #83C3F9",
"te 	c #0E96F8",
"ue 	c #0474F5",
"ve 	c #0353C3",
"we 	c #07298C",
"xe 	c #0C207A",
"ye 	c #403859",
"ze 	c #F2B917",
"Ae 	c #F9A805",
"Be 	c #EF9901",
"Ce 	c #A86801",
"De 	c #7F3300",
"Ee 	c #9C6506",
"Fe 	c #F7C91E",
"Ge 	c #FCC61E",
"He 	c #FAC41A",
"Ie 	c #927018",
"Je 	c #46031F",
"Ke 	c #450124",
"Le 	c #990264",
"Me 	c #AD0472",
"Ne 	c #B60B77",
"Oe 	c #E53097",
"Pe 	c #EB43A0",
"Qe 	c #F47AB9",
"Re 	c #F695C1",
"Se 	c #FCDEE9",
"Te 	c #FDEDF1",
"Ue 	c #FDEEF3",
"Ve 	c #FDEAF2",
"We 	c #FDF2F3",
"Xe 	c #FDEDF2",
"Ye 	c #FDCDDE",
"Ze 	c #FA6FB2",
"`e 	c #FB55AE",
" f 	c #F952AF",
".f 	c #CE218B",
"+f 	c #C30A7E",
"@f 	c #C50982",
"#f 	c #A0056A",
"$f 	c #580334",
"%f 	c #560231",
"&f 	c #966D25",
"*f 	c #F6B915",
"=f 	c #FCB711",
"-f 	c #E5B00C",
";f 	c #5F3B03",
">f 	c #451502",
",f 	c #411301",
"'f 	c #7E4201",
")f 	c #A35700",
"!f 	c #783600",
"~f 	c #7A3604",
"{f 	c #301205",
"]f 	c #5F2A02",
"^f 	c #893D00",
"/f 	c #803800",
"(f 	c #AB982D",
"_f 	c #FDE748",
":f 	c #FFE748",
"<f 	c #EDCA46",
"[f 	c #C97307",
"}f 	c #CA6F00",
"|f 	c #CB7205",
"1f 	c #F5D845",
"2f 	c #FFE74B",
"3f 	c #FFE84A",
"4f 	c #FEEB75",
"5f 	c #FEFEC8",
"6f 	c #FFFFDB",
"7f 	c #FFFA9E",
"8f 	c #FFFA98",
"9f 	c #FEF99E",
"0f 	c #FEE03B",
"af 	c #FFDF39",
"bf 	c #FEDF38",
"cf 	c #DCC030",
"df 	c #874001",
"ef 	c #803904",
"ff 	c #CCBF49",
"gf 	c #DECC4A",
"hf 	c #71370A",
"if 	c #712900",
"jf 	c #C2A932",
"kf 	c #FEDB3A",
"lf 	c #FEDA31",
"mf 	c #EDCD29",
"nf 	c #522D03",
"of 	c #410100",
"pf 	c #740000",
"qf 	c #8C0000",
"rf 	c #CF0000",
"sf 	c #EF0001",
"tf 	c #FA0604",
"uf 	c #FD4430",
"vf 	c #FF523B",
"wf 	c #FF533D",
"xf 	c #FF8E68",
"yf 	c #FF976F",
"zf 	c #FF936D",
"Af 	c #FE956E",
"Bf 	c #FF3424",
"Cf 	c #FF0006",
"Df 	c #FB0004",
"Ef 	c #CE0001",
"Ff 	c #8D0100",
"Gf 	c #9A4200",
"Hf 	c #E07B01",
"If 	c #E78B00",
"Jf 	c #E29702",
"Kf 	c #6B4001",
"Lf 	c #4B1300",
"Mf 	c #461A03",
"Nf 	c #C0AE29",
"Of 	c #FDC81D",
"Pf 	c #BC9C30",
"Qf 	c #1D1F5E",
"Rf 	c #101960",
"Sf 	c #0D2773",
"Tf 	c #0159DB",
"Uf 	c #015BDC",
"Vf 	c #0161E0",
"Wf 	c #0167E4",
"Xf 	c #14B9F5",
"Yf 	c #17C4FF",
"Zf 	c #20C0FE",
"`f 	c #AFDEFE",
" g 	c #EBFCFE",
".g 	c #F3FDFD",
"+g 	c #F0FCFC",
"@g 	c #B4E3FD",
"#g 	c #4EC7FC",
"$g 	c #53C0FC",
"%g 	c #328BF0",
"&g 	c #0166EA",
"*g 	c #0163E9",
"=g 	c #024CBF",
"-g 	c #082A8A",
";g 	c #132071",
">g 	c #413755",
",g 	c #F2B417",
"'g 	c #F59F03",
")g 	c #EB9301",
"!g 	c #A16101",
"~g 	c #752E00",
"{g 	c #782F00",
"]g 	c #986407",
"^g 	c #F9C920",
"/g 	c #FFC51E",
"(g 	c #FCC81B",
"_g 	c #927017",
":g 	c #40021E",
"<g 	c #3E0123",
"[g 	c #A2036C",
"}g 	c #B30477",
"|g 	c #BA087C",
"1g 	c #EA299C",
"2g 	c #F03DA4",
"3g 	c #FD80C4",
"4g 	c #FE94CA",
"5g 	c #FEDFEC",
"6g 	c #FFF1F4",
"7g 	c #FEEEF4",
"8g 	c #FEB1D3",
"9g 	c #FD9BC7",
"0g 	c #FD95C3",
"ag 	c #FB82B8",
"bg 	c #FC4FAA",
"cg 	c #FC55AE",
"dg 	c #D5248E",
"eg 	c #C80A80",
"fg 	c #C50983",
"gg 	c #A5056E",
"hg 	c #5A0136",
"ig 	c #540033",
"jg 	c #936A26",
"kg 	c #F7B919",
"lg 	c #FDB813",
"mg 	c #E6AF0D",
"ng 	c #5B3903",
"og 	c #411102",
"pg 	c #3D1002",
"qg 	c #703101",
"rg 	c #793401",
"sg 	c #060104",
"tg 	c #5D2902",
"ug 	c #A99932",
"vg 	c #FCE94E",
"wg 	c #FFEA50",
"xg 	c #EBCA49",
"yg 	c #C36D07",
"zg 	c #C66E05",
"Ag 	c #F4D746",
"Bg 	c #FFE84C",
"Cg 	c #FFE94B",
"Dg 	c #FEEB74",
"Eg 	c #FEFFD7",
"Fg 	c #FEFFDC",
"Gg 	c #FEFEDE",
"Hg 	c #FFFA91",
"Ig 	c #FFFA87",
"Jg 	c #FFF88B",
"Kg 	c #FEDD32",
"Lg 	c #FFDD35",
"Mg 	c #FEDB36",
"Ng 	c #DCC12F",
"Og 	c #823D01",
"Pg 	c #7C3704",
"Qg 	c #CBBD46",
"Rg 	c #FFE445",
"Sg 	c #DECA42",
"Tg 	c #703707",
"Ug 	c #702900",
"Vg 	c #C1A831",
"Wg 	c #FDDA3A",
"Xg 	c #FED72D",
"Yg 	c #EDC722",
"Zg 	c #512B02",
"`g 	c #710000",
" h 	c #8A0000",
".h 	c #8E0000",
"+h 	c #A00000",
"@h 	c #CC0000",
"#h 	c #EB0001",
"$h 	c #FA0805",
"%h 	c #FD4E37",
"&h 	c #FF5A43",
"*h 	c #FF5C44",
"=h 	c #FF916D",
"-h 	c #FF9D73",
";h 	c #FF9670",
">h 	c #FF956C",
",h 	c #FF3625",
"'h 	c #FF0008",
")h 	c #FC0005",
"!h 	c #C80001",
"~h 	c #900000",
"{h 	c #850100",
"]h 	c #944200",
"^h 	c #DB7A00",
"/h 	c #E19600",
"(h 	c #6B4000",
"_h 	c #4C1400",
":h 	c #481B02",
"<h 	c #BFB02B",
"[h 	c #FDC51C",
"}h 	c #BC9C33",
"|h 	c #1E1F5F",
"1h 	c #111963",
"2h 	c #0D2975",
"3h 	c #025CDC",
"4h 	c #015CDB",
"5h 	c #0165E0",
"6h 	c #0168E4",
"7h 	c #0ABAF6",
"8h 	c #0FC7FE",
"9h 	c #1AC1FF",
"0h 	c #B1E1FE",
"ah 	c #EDFBFE",
"bh 	c #F6FCFD",
"ch 	c #F0FBFD",
"dh 	c #ADDFFD",
"eh 	c #26C5FF",
"fh 	c #18BCFF",
"gh 	c #0689F1",
"hh 	c #0067E9",
"ih 	c #005FE5",
"jh 	c #0249BC",
"kh 	c #0C2886",
"lh 	c #161E6C",
"mh 	c #413354",
"nh 	c #EFAA17",
"oh 	c #F19601",
"ph 	c #9F6000",
"qh 	c #926007",
"rh 	c #F8CA20",
"sh 	c #FFC820",
"th 	c #FCCB1D",
"uh 	c #917015",
"vh 	c #3B011C",
"wh 	c #3A0022",
"xh 	c #A4046E",
"yh 	c #B00476",
"zh 	c #B70779",
"Ah 	c #EA249D",
"Bh 	c #F13BA6",
"Ch 	c #FC7EC4",
"Dh 	c #FE8DCA",
"Eh 	c #FED8E9",
"Fh 	c #FFEDF2",
"Gh 	c #FFE9F2",
"Hh 	c #FEA8D2",
"Ih 	c #FF89C2",
"Jh 	c #FF87C0",
"Kh 	c #FC79B6",
"Lh 	c #FD4CAA",
"Mh 	c #FE55AD",
"Nh 	c #FD55AD",
"Oh 	c #D4268D",
"Ph 	c #C60980",
"Qh 	c #C20881",
"Rh 	c #A4036D",
"Sh 	c #5B0136",
"Th 	c #530034",
"Uh 	c #926929",
"Vh 	c #F7BB1C",
"Wh 	c #FDB814",
"Xh 	c #E6B00D",
"Yh 	c #5B3A03",
"Zh 	c #431201",
"`h 	c #3E1001",
" i 	c #703001",
".i 	c #823800",
"+i 	c #250B03",
"@i 	c #522202",
"#i 	c #7E3600",
"$i 	c #7B3500",
"%i 	c #AA9931",
"&i 	c #FDE94C",
"*i 	c #EACB4B",
"=i 	c #C16A08",
"-i 	c #C46B04",
";i 	c #F3D642",
">i 	c #FEE748",
",i 	c #FFE848",
"'i 	c #FEEA70",
")i 	c #FEFEBC",
"!i 	c #FEFECD",
"~i 	c #FEFED4",
"{i 	c #FEFED8",
"]i 	c #FFFC92",
"^i 	c #FFFC87",
"/i 	c #FEF98C",
"(i 	c #FEDD35",
"_i 	c #FFDB32",
":i 	c #FEDA32",
"<i 	c #DEC12A",
"[i 	c #854001",
"}i 	c #7E3804",
"|i 	c #CBBA41",
"1i 	c #DEC73F",
"2i 	c #713707",
"3i 	c #C1A82E",
"4i 	c #FDD834",
"5i 	c #FED422",
"6i 	c #EDC518",
"7i 	c #3C0000",
"8i 	c #750100",
"9i 	c #930000",
"0i 	c #A50000",
"ai 	c #CE0000",
"bi 	c #E80000",
"ci 	c #F50806",
"di 	c #FC4A37",
"ei 	c #FE5742",
"fi 	c #FE5A43",
"gi 	c #FD8A66",
"hi 	c #FE956D",
"ii 	c #FE916C",
"ji 	c #FE936C",
"ki 	c #FC3525",
"li 	c #FC0106",
"mi 	c #F90104",
"ni 	c #C20100",
"oi 	c #850200",
"pi 	c #974000",
"qi 	c #D97802",
"ri 	c #E78D03",
"si 	c #E29704",
"ti 	c #6F4101",
"ui 	c #4D1500",
"vi 	c #481A02",
"wi 	c #C0AC25",
"xi 	c #FDCB24",
"yi 	c #FDC417",
"zi 	c #BF9D30",
"Ai 	c #1F205F",
"Bi 	c #101A65",
"Ci 	c #0C2874",
"Di 	c #0159D6",
"Ei 	c #005BDA",
"Fi 	c #0165E3",
"Gi 	c #0268E5",
"Hi 	c #09B5F8",
"Ii 	c #0CC2FE",
"Ji 	c #19C4FF",
"Ki 	c #A6E1FF",
"Li 	c #E1F9FE",
"Mi 	c #EEFBFD",
"Ni 	c #E9F9FD",
"Oi 	c #A6DEFD",
"Pi 	c #25C1FE",
"Qi 	c #1ABFFE",
"Ri 	c #088FF2",
"Si 	c #016AE9",
"Ti 	c #005FE4",
"Ui 	c #0348BC",
"Vi 	c #0E227B",
"Wi 	c #191C64",
"Xi 	c #412E4D",
"Yi 	c #E99D14",
"Zi 	c #EA9002",
"`i 	c #E18700",
" j 	c #A06000",
".j 	c #6B2700",
"+j 	c #905D06",
"@j 	c #F7C71A",
"#j 	c #FEC61B",
"$j 	c #FCCF1C",
"%j 	c #8F7215",
"&j 	c #3C011D",
"*j 	c #3C0023",
"=j 	c #A1036D",
"-j 	c #AC0374",
";j 	c #B30578",
">j 	c #E41E99",
",j 	c #EB31A0",
"'j 	c #FB6EBD",
")j 	c #FC80C4",
"!j 	c #FDD1E6",
"~j 	c #FFE7F0",
"{j 	c #FEE6F2",
"]j 	c #FEADD3",
"^j 	c #FF87C2",
"/j 	c #FF85BE",
"(j 	c #FC76B6",
"_j 	c #FD4EAE",
":j 	c #FD54AF",
"<j 	c #FC52AE",
"[j 	c #D52591",
"}j 	c #C70985",
"|j 	c #BF0782",
"1j 	c #9E036B",
"2j 	c #590136",
"3j 	c #510134",
"4j 	c #8E6226",
"5j 	c #F5B312",
"6j 	c #FAB10C",
"7j 	c #E5AE0B",
"8j 	c #583A04",
"9j 	c #3B0F02",
"0j 	c #6D2F01",
"aj 	c #934300",
"bj 	c #914100",
"cj 	c #783401",
"dj 	c #391102",
"ej 	c #AB9327",
"fj 	c #FBD93B",
"gj 	c #FEDC41",
"hj 	c #E9C847",
"ij 	c #BD6707",
"jj 	c #BF6700",
"kj 	c #BE6501",
"lj 	c #F1BB20",
"mj 	c #FDC522",
"nj 	c #FDC523",
"oj 	c #FDC83E",
"pj 	c #FEE866",
"qj 	c #FEE76A",
"rj 	c #FEEA6F",
"sj 	c #FEF7A3",
"tj 	c #FFFFA1",
"uj 	c #FFFF9B",
"vj 	c #FEFB98",
"wj 	c #FDC72E",
"xj 	c #FEBF1B",
"yj 	c #FDBD19",
"zj 	c #DBA411",
"Aj 	c #853C00",
"Bj 	c #7B3703",
"Cj 	c #CCBA3D",
"Dj 	c #DFC63C",
"Ej 	c #723706",
"Fj 	c #742C00",
"Gj 	c #C3A21B",
"Hj 	c #FCC21C",
"Ij 	c #FCB50F",
"Jj 	c #EDAF09",
"Kj 	c #632A02",
"Lj 	c #601200",
"Mj 	c #610600",
"Nj 	c #5F0000",
"Oj 	c #670000",
"Pj 	c #890000",
"Qj 	c #B40000",
"Rj 	c #C80000",
"Sj 	c #D00101",
"Tj 	c #E61713",
"Uj 	c #E11F19",
"Vj 	c #E22319",
"Wj 	c #F64330",
"Xj 	c #FD4B36",
"Yj 	c #FB4D38",
"Zj 	c #F64E39",
"`j 	c #D0150E",
" k 	c #BD0001",
".k 	c #B50101",
"+k 	c #890100",
"@k 	c #680100",
"#k 	c #690300",
"$k 	c #936B07",
"%k 	c #F4C11F",
"&k 	c #F9C52A",
"*k 	c #EFC533",
"=k 	c #6C4B11",
"-k 	c #431902",
";k 	c #BFA61E",
">k 	c #FDBE1A",
",k 	c #FCB80D",
"'k 	c #C09B28",
")k 	c #211F56",
"!k 	c #131654",
"~k 	c #101A57",
"{k 	c #013AA3",
"]k 	c #0141B2",
"^k 	c #0050CD",
"/k 	c #0055D4",
"(k 	c #018CF5",
"_k 	c #0294F8",
":k 	c #078FF7",
"<k 	c #4DAAF8",
"[k 	c #70C4FD",
"}k 	c #80BFFE",
"|k 	c #79BEFE",
"1k 	c #54A6F6",
"2k 	c #0F88F0",
"3k 	c #0A8DEE",
"4k 	c #0365D0",
"5k 	c #0151C7",
"6k 	c #0049C4",
"7k 	c #0B3AA4",
"8k 	c #1F1358",
"9k 	c #2C1046",
"0k 	c #4A3738",
"ak 	c #F0C827",
"bk 	c #F7C326",
"ck 	c #F3B00C",
"dk 	c #A97803",
"ek 	c #995C03",
"fk 	c #F4B70E",
"gk 	c #F8B00D",
"hk 	c #F4B10D",
"ik 	c #8F6613",
"jk 	c #40011F",
"kk 	c #3C0024",
"lk 	c #85015B",
"mk 	c #8F0163",
"nk 	c #930263",
"ok 	c #C10A80",
"pk 	c #D42A8B",
"qk 	c #DA3C90",
"rk 	c #F78CBF",
"sk 	c #FD88C3",
"tk 	c #FE8DC6",
"uk 	c #FF99CD",
"vk 	c #FF8FC8",
"wk 	c #FF8AC5",
"xk 	c #FD72BA",
"yk 	c #F837A7",
"zk 	c #F0309E",
"Ak 	c #EB299A",
"Bk 	c #A80F6E",
"Ck 	c #870259",
"Dk 	c #89015E",
"Ek 	c #71014C",
"Fk 	c #50012F",
"Gk 	c #50022E",
"Hk 	c #936A25",
"Ik 	c #F8BB19",
"Jk 	c #FCBC16",
"Kk 	c #E5B812",
"Lk 	c #503B07",
"Mk 	c #340B04",
"Nk 	c #340C03",
"Ok 	c #753302",
"Pk 	c #733001",
"Qk 	c #270C04",
"Rk 	c #0D0504",
"Sk 	c #0D0605",
"Tk 	c #0A0206",
"Uk 	c #3A1203",
"Vk 	c #AA952A",
"Wk 	c #FCDE3E",
"Xk 	c #FFDE3E",
"Yk 	c #E8C63F",
"Zk 	c #B96305",
"`k 	c #F0B10A",
" l 	c #FDB90B",
".l 	c #FCB709",
"+l 	c #FCBB1B",
"@l 	c #FFE13B",
"#l 	c #FFE13A",
"$l 	c #FFE542",
"%l 	c #FEF58D",
"&l 	c #FEFF9D",
"*l 	c #FFFF9A",
"=l 	c #FDFA97",
"-l 	c #FDBB24",
";l 	c #FDB305",
">l 	c #FCB105",
",l 	c #D99B05",
"'l 	c #7D3803",
")l 	c #CBBD40",
"!l 	c #E0C942",
"~l 	c #7E3F08",
"{l 	c #C5A116",
"]l 	c #FDBE13",
"^l 	c #FDB40C",
"/l 	c #EDAB05",
"(l 	c #792D01",
"_l 	c #7C1F00",
":l 	c #641000",
"<l 	c #4E0000",
"[l 	c #4F0000",
"}l 	c #770000",
"|l 	c #B80000",
"1l 	c #DA0102",
"2l 	c #D20000",
"3l 	c #D30101",
"4l 	c #F2120F",
"5l 	c #FD1411",
"6l 	c #FB110E",
"7l 	c #F30D0D",
"8l 	c #BD0101",
"9l 	c #A30000",
"0l 	c #9B0000",
"al 	c #570200",
"bl 	c #5A0300",
"cl 	c #917309",
"dl 	c #FCCA20",
"el 	c #FFD02C",
"fl 	c #F3D037",
"gl 	c #664E13",
"hl 	c #421903",
"il 	c #C0AB24",
"jl 	c #FEC822",
"kl 	c #FDC214",
"ll 	c #C4A227",
"ml 	c #25204D",
"nl 	c #171446",
"ol 	c #14154D",
"pl 	c #022E91",
"ql 	c #0139A8",
"rl 	c #004BC7",
"sl 	c #0053D1",
"tl 	c #0081F5",
"ul 	c #0084F8",
"vl 	c #017EF7",
"wl 	c #0696F9",
"xl 	c #09ABFE",
"yl 	c #09A8FE",
"zl 	c #09A6FF",
"Al 	c #0591F7",
"Bl 	c #0077EE",
"Cl 	c #0172E9",
"Dl 	c #014DC2",
"El 	c #0145BC",
"Fl 	c #003FB7",
"Gl 	c #0E2F97",
"Hl 	c #1F1151",
"Il 	c #290F42",
"Jl 	c #4A3D35",
"Kl 	c #F7D526",
"Ll 	c #FFCE28",
"Ml 	c #FBBF13",
"Nl 	c #A98407",
"Ol 	c #833700",
"Pl 	c #975801",
"Ql 	c #F5B106",
"Rl 	c #FAAB06",
"Sl 	c #F5AB05",
"Tl 	c #8E6013",
"Ul 	c #3E011F",
"Vl 	c #3C0022",
"Wl 	c #73004E",
"Xl 	c #7E0056",
"Yl 	c #7F0054",
"Zl 	c #B80779",
"`l 	c #C0077F",
" m 	c #CA0C80",
".m 	c #D22085",
"+m 	c #F766B4",
"@m 	c #FE5BB6",
"#m 	c #FF67BA",
"$m 	c #FF8FC9",
"%m 	c #FF92C8",
"&m 	c #FF8CC6",
"*m 	c #FC73BB",
"=m 	c #F52DA4",
"-m 	c #ED1C99",
";m 	c #E71796",
">m 	c #A00B6A",
",m 	c #74004B",
"'m 	c #780051",
")m 	c #650143",
"!m 	c #4D012B",
"~m 	c #4F022C",
"{m 	c #947226",
"]m 	c #F9C824",
"^m 	c #FEC821",
"/m 	c #E5BE1A",
"(m 	c #4E3C08",
"_m 	c #330B04",
":m 	c #733402",
"<m 	c #2A0E03",
"[m 	c #040204",
"}m 	c #431703",
"|m 	c #692800",
"1m 	c #A79527",
"2m 	c #FDE342",
"3m 	c #FFE242",
"4m 	c #E5C53E",
"5m 	c #B26005",
"6m 	c #B65F00",
"7m 	c #F1AE07",
"8m 	c #FEB80A",
"9m 	c #FDB608",
"0m 	c #FCB91C",
"am 	c #FEE13F",
"bm 	c #FFDF37",
"cm 	c #FEF189",
"dm 	c #FFFF92",
"em 	c #FDF785",
"fm 	c #FAB61C",
"gm 	c #FDB102",
"hm 	c #FCAE02",
"im 	c #D49503",
"jm 	c #793503",
"km 	c #CBBD42",
"lm 	c #FFE243",
"mm 	c #DFC93D",
"nm 	c #854105",
"om 	c #C69F13",
"pm 	c #FCBE11",
"qm 	c #E69A04",
"rm 	c #742A01",
"sm 	c #751D00",
"tm 	c #590E00",
"um 	c #480100",
"vm 	c #4D0000",
"wm 	c #A40100",
"xm 	c #AC0000",
"ym 	c #D10102",
"zm 	c #CA0001",
"Am 	c #CB0001",
"Bm 	c #F0090B",
"Cm 	c #F80C0E",
"Dm 	c #FB0D0B",
"Em 	c #F30907",
"Fm 	c #B50000",
"Gm 	c #9D0000",
"Hm 	c #970000",
"Im 	c #730200",
"Jm 	c #580300",
"Km 	c #550600",
"Lm 	c #91730D",
"Mm 	c #FACA20",
"Nm 	c #FECC22",
"Om 	c #F1CC27",
"Pm 	c #5E4B0C",
"Qm 	c #441902",
"Rm 	c #BFA91C",
"Sm 	c #FCC91D",
"Tm 	c #FEC717",
"Um 	c #C9A22D",
"Vm 	c #281D4C",
"Wm 	c #18154D",
"Xm 	c #181144",
"Ym 	c #0B2375",
"Zm 	c #043194",
"`m 	c #0046C0",
" n 	c #0052CA",
".n 	c #017BF1",
"+n 	c #0281F5",
"@n 	c #017CF4",
"#n 	c #0492F7",
"$n 	c #07A6FD",
"%n 	c #07AAFE",
"&n 	c #06A8FE",
"*n 	c #048DF6",
"=n 	c #0175EC",
"-n 	c #0273EA",
";n 	c #004BBD",
">n 	c #0143B5",
",n 	c #023CAD",
"'n 	c #112C84",
")n 	c #1F0E53",
"!n 	c #230C4D",
"~n 	c #463A37",
"{n 	c #F4CE1E",
"]n 	c #FCC720",
"^n 	c #FABE13",
"/n 	c #A38A0C",
"(n 	c #732C00",
"_n 	c #722B00",
":n 	c #8A4F02",
"<n 	c #F2AF07",
"[n 	c #FAB009",
"}n 	c #F9B40B",
"|n 	c #906112",
"1n 	c #3B0320",
"2n 	c #410120",
"3n 	c #750052",
"4n 	c #80005A",
"5n 	c #810059",
"6n 	c #B10477",
"7n 	c #BF0581",
"8n 	c #D00C89",
"9n 	c #D8198E",
"0n 	c #F75AB5",
"an 	c #FF61B9",
"bn 	c #FF6BBD",
"cn 	c #FF89C6",
"dn 	c #FF8BC7",
"en 	c #FF82C4",
"fn 	c #FA6DB9",
"gn 	c #EF27A4",
"hn 	c #E5169A",
"in 	c #E2139B",
"jn 	c #A50B73",
"kn 	c #75004E",
"ln 	c #74004F",
"mn 	c #620142",
"nn 	c #4B0329",
"on 	c #4D0529",
"pn 	c #966F22",
"qn 	c #F9C21B",
"rn 	c #FEC017",
"sn 	c #E5BB13",
"tn 	c #513A06",
"un 	c #310904",
"vn 	c #2B0904",
"wn 	c #723402",
"xn 	c #6C2C00",
"yn 	c #260B04",
"zn 	c #0E0206",
"An 	c #431602",
"Bn 	c #642600",
"Cn 	c #A59225",
"Dn 	c #FDDF3F",
"En 	c #E1C33C",
"Fn 	c #A45805",
"Gn 	c #A45300",
"Hn 	c #A55400",
"In 	c #E8A205",
"Jn 	c #F4A906",
"Kn 	c #F4A705",
"Ln 	c #F6AF17",
"Mn 	c #FFD72E",
"Nn 	c #FFD62B",
"On 	c #FEE468",
"Pn 	c #FFEE77",
"Qn 	c #FEEC73",
"Rn 	c #F9E66A",
"Sn 	c #DD9814",
"Tn 	c #E09B01",
"Un 	c #E19801",
"Vn 	c #BE8201",
"Wn 	c #763303",
"Xn 	c #CBB83B",
"Yn 	c #FDD73D",
"Zn 	c #DBBE36",
"`n 	c #753704",
" o 	c #A47E0B",
".o 	c #CD9E0E",
"+o 	c #CD8E04",
"@o 	c #DB8D02",
"#o 	c #B28003",
"$o 	c #B17F02",
"%o 	c #7A5202",
"&o 	c #3C0200",
"*o 	c #400101",
"=o 	c #640000",
"-o 	c #8C0100",
";o 	c #960000",
">o 	c #B80001",
",o 	c #B10001",
"'o 	c #B40002",
")o 	c #D60506",
"!o 	c #DF0708",
"~o 	c #DC0705",
"{o 	c #D10403",
"]o 	c #8C0D00",
"^o 	c #996E11",
"/o 	c #9C8519",
"(o 	c #9F8613",
"_o 	c #977C14",
":o 	c #C4A01B",
"<o 	c #C79D11",
"[o 	c #BE9911",
"}o 	c #563803",
"|o 	c #451201",
"1o 	c #A88C16",
"2o 	c #DAAF1B",
"3o 	c #DDAA15",
"4o 	c #C99C22",
"5o 	c #A28F3B",
"6o 	c #A38C3C",
"7o 	c #8A7035",
"8o 	c #1B1F5F",
"9o 	c #0B2779",
"0o 	c #0537A2",
"ao 	c #0442AC",
"bo 	c #0168DD",
"co 	c #016CE1",
"do 	c #0169DF",
"eo 	c #0282EA",
"fo 	c #0397F7",
"go 	c #0396F6",
"ho 	c #0391F5",
"io 	c #027FEF",
"jo 	c #0070E7",
"ko 	c #036DE5",
"lo 	c #053FA3",
"mo 	c #09379A",
"no 	c #112E8E",
"oo 	c #706863",
"po 	c #988241",
"qo 	c #9A843A",
"ro 	c #A18627",
"so 	c #D1A91A",
"to 	c #CEA41A",
"uo 	c #CEA112",
"vo 	c #987305",
"wo 	c #804501",
"xo 	c #C19504",
"yo 	c #C7970A",
"zo 	c #C79410",
"Ao 	c #B19322",
"Bo 	c #A88F23",
"Co 	c #A78D22",
"Do 	c #8F5144",
"Eo 	c #750150",
"Fo 	c #750050",
"Go 	c #9B0269",
"Ho 	c #B00376",
"Io 	c #C00980",
"Jo 	c #C51282",
"Ko 	c #E841A2",
"Lo 	c #EF48A6",
"Mo 	c #F353A8",
"No 	c #F66EAF",
"Oo 	c #F66CAF",
"Po 	c #F366AF",
"Qo 	c #E856A7",
"Ro 	c #D21B8F",
"So 	c #C70D87",
"To 	c #C50B87",
"Uo 	c #930466",
"Vo 	c #6B0045",
"Wo 	c #6E0148",
"Xo 	c #77473C",
"Yo 	c #9D7D1E",
"Zo 	c #A48119",
"`o 	c #BA8D15",
" p 	c #DEA710",
".p 	c #DBA50F",
"+p 	c #C89F0D",
"@p 	c #5F3303",
"#p 	c #491802",
"$p 	c #5A2603",
"%p 	c #783502",
"&p 	c #6C2C01",
"*p 	c #2B0E04",
"=p 	c #080005",
"-p 	c #0A0304",
";p 	c #0C0204",
">p 	c #A28D1E",
",p 	c #FDDC39",
"'p 	c #FFDD3A",
")p 	c #DDC035",
"!p 	c #833E04",
"~p 	c #7D3200",
"{p 	c #D98A01",
"]p 	c #E78F00",
"^p 	c #ED9E0F",
"/p 	c #FED12A",
"(p 	c #FFD028",
"_p 	c #FFCF25",
":p 	c #FFCC27",
"<p 	c #FFCC26",
"[p 	c #F7CC1F",
"}p 	c #A25503",
"|p 	c #8D4200",
"1p 	c #793100",
"2p 	c #763302",
"3p 	c #C9B02B",
"4p 	c #FCC727",
"5p 	c #DCB62C",
"6p 	c #673104",
"7p 	c #612000",
"8p 	c #844901",
"9p 	c #EDA604",
"0p 	c #F9AF07",
"ap 	c #9B8106",
"bp 	c #300201",
"cp 	c #2F0101",
"dp 	c #470101",
"ep 	c #5E0100",
"fp 	c #630000",
"gp 	c #810000",
"hp 	c #9E0000",
"ip 	c #A40000",
"jp 	c #9D0100",
"kp 	c #880100",
"lp 	c #6C0300",
"mp 	c #702202",
"np 	c #E0C628",
"op 	c #FBD62B",
"pp 	c #FAD526",
"qp 	c #B39515",
"rp 	c #531D02",
"sp 	c #541E00",
"tp 	c #521E00",
"up 	c #4C1600",
"vp 	c #823E02",
"wp 	c #984901",
"xp 	c #964601",
"yp 	c #BC9323",
"zp 	c #FAE53E",
"Ap 	c #FCE33C",
"Bp 	c #D7B42D",
"Cp 	c #2E1E44",
"Dp 	c #151143",
"Ep 	c #0F1859",
"Fp 	c #0E2573",
"Gp 	c #0246BF",
"Hp 	c #0147C0",
"Ip 	c #0147BE",
"Jp 	c #016DD8",
"Kp 	c #017FF0",
"Lp 	c #017CEE",
"Mp 	c #0179ED",
"Np 	c #015BD3",
"Op 	c #025AD1",
"Pp 	c #122A79",
"Qp 	c #16195D",
"Rp 	c #1F1D5E",
"Sp 	c #B6A242",
"Tp 	c #FAC928",
"Up 	c #FCCB27",
"Vp 	c #F6D428",
"Wp 	c #945608",
"Xp 	c #8A3F01",
"Yp 	c #823C01",
"Zp 	c #7D3401",
"`p 	c #572002",
" q 	c #5B2F07",
".q 	c #DCC830",
"+q 	c #FCD430",
"@q 	c #FCD52E",
"#q 	c #B1892A",
"$q 	c #520236",
"%q 	c #510036",
"&q 	c #6A0043",
"*q 	c #90005F",
"=q 	c #A3016B",
"-q 	c #A4016C",
";q 	c #D50F8D",
">q 	c #DD108D",
",q 	c #E31490",
"'q 	c #EB1A95",
")q 	c #E71994",
"!q 	c #E61995",
"~q 	c #CD1186",
"{q 	c #9E0168",
"]q 	c #8A005C",
"^q 	c #85005C",
"/q 	c #640044",
"(q 	c #540031",
"_q 	c #5D0233",
":q 	c #9D8027",
"<q 	c #F6BC14",
"[q 	c #F9B80F",
"}q 	c #DFA109",
"|q 	c #431402",
"1q 	c #310C04",
"2q 	c #330C03",
"3q 	c #652801",
"4q 	c #743100",
"5q 	c #3D1503",
"6q 	c #1B0405",
"7q 	c #040004",
"8q 	c #350F03",
"9q 	c #481700",
"0q 	c #4B1900",
"aq 	c #A18918",
"bq 	c #FDDC35",
"cq 	c #FFDD36",
"dq 	c #DDBF2E",
"eq 	c #7D3C03",
"fq 	c #762E00",
"gq 	c #743000",
"hq 	c #D98B00",
"iq 	c #E58E00",
"jq 	c #E58C00",
"kq 	c #EB9B10",
"lq 	c #FED42D",
"mq 	c #FFD029",
"nq 	c #FFCF28",
"oq 	c #FFCC25",
"pq 	c #FECB25",
"qq 	c #FECC24",
"rq 	c #F6D119",
"sq 	c #975002",
"tq 	c #904000",
"uq 	c #833900",
"vq 	c #C9B324",
"wq 	c #FECC29",
"xq 	c #DEBE32",
"yq 	c #673306",
"zq 	c #622200",
"Aq 	c #632300",
"Bq 	c #7F4E01",
"Cq 	c #EFAE05",
"Dq 	c #FBB10B",
"Eq 	c #F8B50E",
"Fq 	c #97850A",
"Gq 	c #2E0301",
"Hq 	c #2D0201",
"Iq 	c #470200",
"Jq 	c #610200",
"Kq 	c #670100",
"Lq 	c #6C0000",
"Mq 	c #800000",
"Nq 	c #810100",
"Oq 	c #990100",
"Pq 	c #920300",
"Qq 	c #780100",
"Rq 	c #5A0200",
"Sq 	c #600500",
"Tq 	c #672002",
"Uq 	c #E1C52B",
"Vq 	c #FED92F",
"Wq 	c #FDDC2F",
"Xq 	c #B2991B",
"Yq 	c #4C1201",
"Zq 	c #4A1300",
"`q 	c #471200",
" r 	c #3F0F00",
".r 	c #823D00",
"+r 	c #944400",
"@r 	c #944100",
"#r 	c #BA9627",
"$r 	c #FDEA47",
"%r 	c #FFE743",
"&r 	c #DEB731",
"*r 	c #30214E",
"=r 	c #141046",
"-r 	c #0D1653",
";r 	c #0E2474",
">r 	c #0142BD",
",r 	c #0043BD",
"'r 	c #0144B7",
")r 	c #0165D3",
"!r 	c #0179EE",
"~r 	c #007DED",
"{r 	c #0079EA",
"]r 	c #0162D3",
"^r 	c #0157CB",
"/r 	c #0455C8",
"(r 	c #15276D",
"_r 	c #191757",
":r 	c #211E5B",
"<r 	c #BBAB3C",
"[r 	c #FDCE2E",
"}r 	c #FFD231",
"|r 	c #FADA33",
"1r 	c #915609",
"2r 	c #511601",
"3r 	c #552B04",
"4r 	c #DFC92B",
"5r 	c #FFD937",
"6r 	c #B28F28",
"7r 	c #48032C",
"8r 	c #46002D",
"9r 	c #5A0039",
"0r 	c #870059",
"ar 	c #9F006A",
"br 	c #9F006B",
"cr 	c #D20D8C",
"dr 	c #D70F8C",
"er 	c #DE1290",
"fr 	c #E61796",
"gr 	c #E21593",
"hr 	c #E31695",
"ir 	c #C70B85",
"jr 	c #990169",
"kr 	c #84005B",
"lr 	c #620045",
"mr 	c #4D002D",
"nr 	c #58032B",
"or 	c #9D861F",
"pr 	c #FBBF12",
"qr 	c #FEBE11",
"rr 	c #DDA40B",
"sr 	c #A95400",
"tr 	c #A24E00",
"ur 	c #622501",
"vr 	c #4B1701",
"wr 	c #3C1003",
"xr 	c #753100",
"yr 	c #200605",
"zr 	c #020003",
"Ar 	c #310D03",
"Br 	c #481601",
"Cr 	c #9D8313",
"Dr 	c #F6DA2B",
"Er 	c #F9DD31",
"Fr 	c #DCC42A",
"Gr 	c #7C4E06",
"Hr 	c #754303",
"Ir 	c #754504",
"Jr 	c #D29A03",
"Kr 	c #E5A902",
"Lr 	c #E5A102",
"Mr 	c #EAAE11",
"Nr 	c #FAD829",
"Or 	c #FBD52B",
"Pr 	c #FCD22A",
"Qr 	c #FECF28",
"Rr 	c #F5CD18",
"Sr 	c #934C01",
"Tr 	c #8D3E00",
"Ur 	c #883A00",
"Vr 	c #7B4007",
"Wr 	c #6D460D",
"Xr 	c #70480B",
"Yr 	c #CDB924",
"Zr 	c #F8D630",
"`r 	c #D6BF2D",
" s 	c #613105",
".s 	c #5D1E00",
"+s 	c #7C4F03",
"@s 	c #EABB19",
"#s 	c #F6C416",
"$s 	c #F3C716",
"%s 	c #97870C",
"&s 	c #4C3504",
"*s 	c #4D3605",
"=s 	c #533102",
"-s 	c #690901",
";s 	c #730500",
">s 	c #790300",
",s 	c #860200",
"'s 	c #870200",
")s 	c #960300",
"!s 	c #9A0300",
"~s 	c #900601",
"{s 	c #771E02",
"]s 	c #5A2E03",
"^s 	c #592602",
"/s 	c #603304",
"(s 	c #DDC72D",
"_s 	c #F9DF36",
":s 	c #F7E23E",
"<s 	c #B09F24",
"[s 	c #481201",
"}s 	c #451100",
"|s 	c #3E0F00",
"1s 	c #843F00",
"2s 	c #934100",
"3s 	c #B98E24",
"4s 	c #F8E447",
"5s 	c #FAE44A",
"6s 	c #E1BD3D",
"7s 	c #4D3951",
"8s 	c #362951",
"9s 	c #362B4F",
"0s 	c #333275",
"as 	c #084FC3",
"bs 	c #0650C1",
"cs 	c #0350C0",
"ds 	c #0267D2",
"es 	c #027BEC",
"fs 	c #017AEC",
"gs 	c #0170E4",
"hs 	c #0260D3",
"is 	c #0354C7",
"js 	c #114EBE",
"ks 	c #3D356A",
"ls 	c #3E2F4F",
"ms 	c #41314F",
"ns 	c #BAA736",
"os 	c #F8D73D",
"ps 	c #F9DB40",
"qs 	c #F3DB38",
"rs 	c #955609",
"ss 	c #8B3F00",
"ts 	c #863B00",
"us 	c #562200",
"vs 	c #6C3306",
"ws 	c #DECB3B",
"xs 	c #F8E05A",
"ys 	c #F8DF5F",
"zs 	c #AF8D34",
"As 	c #512323",
"Bs 	c #4B1F23",
"Cs 	c #591131",
"Ds 	c #7F0051",
"Es 	c #910061",
"Fs 	c #930162",
"Gs 	c #CF0C8E",
"Hs 	c #D71091",
"Is 	c #DC1397",
"Js 	c #E61BA1",
"Ks 	c #E2179D",
"Ls 	c #C90D8D",
"Ms 	c #9D0270",
"Ns 	c #8E0163",
"Os 	c #880360",
"Ps 	c #612C3D",
"Qs 	c #583523",
"Rs 	c #603521",
"Ss 	c #A08918",
"Ts 	c #F6C811",
"Us 	c #F8CC11",
"Vs 	c #DFAD0B",
"Ws 	c #904300",
"Xs 	c #592002",
"Ys 	c #441402",
"Zs 	c #370E03",
"`s 	c #331004",
" t 	c #341003",
".t 	c #371102",
"+t 	c #5D2301",
"@t 	c #6B2900",
"#t 	c #461702",
"$t 	c #270904",
"%t 	c #010003",
"&t 	c #4A2902",
"*t 	c #5D4406",
"=t 	c #644708",
"-t 	c #987B10",
";t 	c #F2D020",
">t 	c #F6CE22",
",t 	c #F2D127",
"'t 	c #86680E",
")t 	c #724200",
"!t 	c #743E00",
"~t 	c #7C4501",
"{t 	c #AC5F06",
"]t 	c #AE5F08",
"^t 	c #D88F0A",
"/t 	c #FAAA0C",
"(t 	c #F9AB0B",
"_t 	c #EDA807",
":t 	c #873F00",
"<t 	c #964501",
"[t 	c #D3B434",
"}t 	c #F6E446",
"|t 	c #F7E140",
"1t 	c #D6C534",
"2t 	c #604C0D",
"3t 	c #533B07",
"4t 	c #582001",
"5t 	c #7E4705",
"6t 	c #7D4903",
"7t 	c #7A4C04",
"8t 	c #C9A924",
"9t 	c #F4CD29",
"0t 	c #F5CF2B",
"at 	c #D5BB19",
"bt 	c #592601",
"ct 	c #4B0200",
"dt 	c #540300",
"et 	c #5C0300",
"ft 	c #620400",
"gt 	c #630500",
"ht 	c #680A01",
"it 	c #9C8112",
"jt 	c #E9C522",
"kt 	c #E5B821",
"lt 	c #DBB621",
"mt 	c #8D5C0D",
"nt 	c #814D0C",
"ot 	c #7F4D10",
"pt 	c #6A3706",
"qt 	c #541A00",
"rt 	c #421000",
"st 	c #843E00",
"tt 	c #934703",
"ut 	c #9D5911",
"vt 	c #9B5914",
"wt 	c #AB6B14",
"xt 	c #EBCB24",
"yt 	c #E4BF25",
"zt 	c #E4BB1D",
"At 	c #CAAC34",
"Bt 	c #333263",
"Ct 	c #201D50",
"Dt 	c #132665",
"Et 	c #132D75",
"Ft 	c #082F7F",
"Gt 	c #0B2B7C",
"Ht 	c #152B76",
"It 	c #554D61",
"Jt 	c #E4BF32",
"Kt 	c #EBC728",
"Lt 	c #EBC62A",
"Mt 	c #C69D22",
"Nt 	c #744A11",
"Ot 	c #6D4812",
"Pt 	c #68450C",
"Qt 	c #883D00",
"Rt 	c #602501",
"St 	c #4A1800",
"Tt 	c #481701",
"Ut 	c #753801",
"Vt 	c #BA6301",
"Wt 	c #B05B00",
"Xt 	c #A14F01",
"Yt 	c #754811",
"Zt 	c #67471F",
"`t 	c #674922",
" u 	c #C79F20",
".u 	c #E6B91E",
"+u 	c #DEB31E",
"@u 	c #AE722B",
"#u 	c #6F0438",
"$u 	c #600036",
"%u 	c #590034",
"&u 	c #79014E",
"*u 	c #790150",
"=u 	c #7C0256",
"-u 	c #7F045C",
";u 	c #7F035C",
">u 	c #7F0259",
",u 	c #730150",
"'u 	c #600042",
")u 	c #520035",
"!u 	c #561830",
"~u 	c #C9AB2A",
"{u 	c #F3CC26",
"]u 	c #F4C724",
"^u 	c #CAA320",
"/u 	c #8E4D02",
"(u 	c #844D02",
"_u 	c #804401",
":u 	c #8C4000",
"<u 	c #7E3701",
"[u 	c #3B1004",
"}u 	c #2C0805",
"|u 	c #2F0B04",
"1u 	c #8D4302",
"2u 	c #A44F00",
"3u 	c #4B1901",
"4u 	c #360F02",
"5u 	c #300C02",
"6u 	c #1A0403",
"7u 	c #0E0205",
"8u 	c #3B0F01",
"9u 	c #3A0E01",
"0u 	c #3B0E01",
"au 	c #491101",
"bu 	c #88720C",
"cu 	c #F8CC1D",
"du 	c #F9D429",
"eu 	c #84640F",
"fu 	c #6D2600",
"gu 	c #A95000",
"hu 	c #A34D00",
"iu 	c #D48801",
"ju 	c #F9A703",
"ku 	c #EDA102",
"lu 	c #A04D01",
"mu 	c #DCB730",
"nu 	c #FEDC39",
"ou 	c #D6C336",
"pu 	c #472305",
"qu 	c #3F0E01",
"ru 	c #451200",
"su 	c #6D2C01",
"tu 	c #CDAC27",
"uu 	c #FDD029",
"vu 	c #FECF29",
"wu 	c #D9BD1C",
"xu 	c #4C2702",
"yu 	c #430500",
"zu 	c #460400",
"Au 	c #480400",
"Bu 	c #4A0400",
"Cu 	c #4C0400",
"Du 	c #520601",
"Eu 	c #570701",
"Fu 	c #5D0D01",
"Gu 	c #9E8617",
"Hu 	c #FBCE23",
"Iu 	c #FDCD25",
"Ju 	c #EFC824",
"Ku 	c #875006",
"Lu 	c #7A2F00",
"Mu 	c #5A1D00",
"Nu 	c #561A00",
"Ou 	c #481300",
"Pu 	c #853F00",
"Qu 	c #994900",
"Ru 	c #934200",
"Su 	c #A9680A",
"Tu 	c #FBE02B",
"Uu 	c #FFD529",
"Vu 	c #FDCF1E",
"Wu 	c #DAC02B",
"Xu 	c #373352",
"Yu 	c #20103C",
"Zu 	c #191549",
"`u 	c #161C58",
" v 	c #172066",
".v 	c #0D2671",
"+v 	c #12246A",
"@v 	c #1D245F",
"#v 	c #201C53",
"$v 	c #5A5554",
"%v 	c #F3D633",
"&v 	c #FED72A",
"*v 	c #D0AE23",
"=v 	c #682601",
"-v 	c #5D1F00",
";v 	c #5C2001",
">v 	c #5B2301",
",v 	c #3C0D01",
"'v 	c #753800",
")v 	c #A55200",
"!v 	c #6E2B01",
"~v 	c #5B2101",
"{v 	c #DBB624",
"]v 	c #FED025",
"^v 	c #FDCB27",
"/v 	c #C38C29",
"(v 	c #66052C",
"_v 	c #59002D",
":v 	c #55002D",
"<v 	c #750147",
"[v 	c #73004B",
"}v 	c #770050",
"|v 	c #790056",
"1v 	c #780055",
"2v 	c #740051",
"3v 	c #6B004B",
"4v 	c #5B003C",
"5v 	c #4E002E",
"6v 	c #511627",
"7v 	c #CDAA23",
"8v 	c #FEC722",
"9v 	c #CFA21F",
"0v 	c #8E3C00",
"av 	c #803500",
"bv 	c #3A1004",
"cv 	c #2B0805",
"dv 	c #894101",
"ev 	c #8F4300",
"fv 	c #592000",
"gv 	c #3B1101",
"hv 	c #340E01",
"iv 	c #1D0602",
"jv 	c #130303",
"kv 	c #140304",
"lv 	c #190405",
"mv 	c #441400",
"nv 	c #461401",
"ov 	c #481500",
"pv 	c #817210",
"qv 	c #F4C51C",
"rv 	c #FBC924",
"sv 	c #F7CC21",
"tv 	c #895C06",
"uv 	c #6B2B00",
"vv 	c #CF8602",
"wv 	c #F4A403",
"xv 	c #F5A503",
"yv 	c #EB9C03",
"zv 	c #BD6802",
"Av 	c #B76104",
"Bv 	c #B66205",
"Cv 	c #DBAD25",
"Dv 	c #F8CF29",
"Ev 	c #F8CD28",
"Fv 	c #CDAE27",
"Gv 	c #451E03",
"Hv 	c #3F0F01",
"Iv 	c #491600",
"Jv 	c #CEAB28",
"Kv 	c #FBD130",
"Lv 	c #FBD12F",
"Mv 	c #D8C12B",
"Nv 	c #583106",
"Ov 	c #4C1801",
"Pv 	c #4D1300",
"Qv 	c #4D1400",
"Rv 	c #5C1701",
"Sv 	c #611900",
"Tv 	c #631D01",
"Uv 	c #A17D17",
"Vv 	c #F7C522",
"Wv 	c #F9C420",
"Xv 	c #E8BE22",
"Yv 	c #874A04",
"Zv 	c #752D00",
"`v 	c #602502",
" w 	c #501C02",
".w 	c #803902",
"+w 	c #904201",
"@w 	c #924500",
"#w 	c #9E6514",
"$w 	c #F8DF3E",
"%w 	c #FCDB36",
"&w 	c #FCDA32",
"*w 	c #DAC435",
"=w 	c #3E304B",
"-w 	c #2E1C41",
";w 	c #2A1B48",
">w 	c #272059",
",w 	c #292662",
"'w 	c #252A64",
")w 	c #252660",
"!w 	c #292256",
"~w 	c #2B1E4E",
"{w 	c #5C4B43",
"]w 	c #EDCE29",
"^w 	c #FAD527",
"/w 	c #FAD125",
"(w 	c #C9AB21",
"_w 	c #6C2B01",
":w 	c #632400",
"<w 	c #632B02",
"[w 	c #4E1E02",
"}w 	c #501F02",
"|w 	c #7A3B02",
"1w 	c #A14F00",
"2w 	c #914200",
"3w 	c #622100",
"4w 	c #E1BE30",
"5w 	c #FDD837",
"6w 	c #FCD635",
"7w 	c #CA9C27",
"8w 	c #691C26",
"9w 	c #5E1627",
"0w 	c #581328",
"aw 	c #6F0343",
"bw 	c #6E0048",
"cw 	c #730050",
"dw 	c #790055",
"ew 	c #780054",
"fw 	c #70004E",
"gw 	c #660045",
"hw 	c #480025",
"iw 	c #4C1722",
"jw 	c #CEAF27",
"kw 	c #FDD22C",
"lw 	c #CAA623",
"mw 	c #883C00",
"nw 	c #7C3500",
"ow 	c #7F3701",
"pw 	c #390F05",
"qw 	c #270705",
"rw 	c #803B02",
"sw 	c #9A4A00",
"tw 	c #813B00",
"uw 	c #541E01",
"vw 	c #4C1901",
"ww 	c #330E02",
"xw 	c #2A0B03",
"yw 	c #120303",
"zw 	c #0E0705",
"Aw 	c #0B0503",
"Bw 	c #110404",
"Cw 	c #713303",
"Dw 	c #753602",
"Ew 	c #783702",
"Fw 	c #6F3202",
"Gw 	c #3C1302",
"Hw 	c #2C0B03",
"Iw 	c #612E04",
"Jw 	c #974D01",
"Kw 	c #984D01",
"Lw 	c #7C3B00",
"Mw 	c #461400",
"Nw 	c #644608",
"Ow 	c #B78817",
"Pw 	c #BF901C",
"Qw 	c #CC9816",
"Rw 	c #CAA515",
"Sw 	c #C5A318",
"Tw 	c #C6A115",
"Uw 	c #BB950E",
"Vw 	c #7D3B00",
"Ww 	c #9C6C02",
"Xw 	c #B48402",
"Yw 	c #B48004",
"Zw 	c #B47911",
"`w 	c #E9C533",
" x 	c #EBC935",
".x 	c #EAC937",
"+x 	c #C0A830",
"@x 	c #938D23",
"#x 	c #948C21",
"$x 	c #867520",
"%x 	c #602702",
"&x 	c #612500",
"*x 	c #934F00",
"=x 	c #9F5500",
"-x 	c #A05400",
";x 	c #967020",
">x 	c #AC912B",
",x 	c #AB902A",
"'x 	c #B8A12E",
")x 	c #CCB12B",
"!x 	c #C6AB21",
"~x 	c #C5A91F",
"{x 	c #BA8508",
"]x 	c #BF9107",
"^x 	c #C09309",
"/x 	c #C19E11",
"(x 	c #C19F13",
"_x 	c #C4A11A",
":x 	c #C1A220",
"<x 	c #A88B1F",
"[x 	c #A68E1E",
"}x 	c #9D821B",
"|x 	c #6F3402",
"1x 	c #876412",
"2x 	c #C5AD2A",
"3x 	c #C3AF33",
"4x 	c #C3AD34",
"5x 	c #C1AC34",
"6x 	c #C2AB34",
"7x 	c #C3AC32",
"8x 	c #C9AB27",
"9x 	c #CFA91D",
"0x 	c #CFA414",
"ax 	c #B88F10",
"bx 	c #703100",
"cx 	c #743E0E",
"dx 	c #A68B33",
"ex 	c #AD8E2C",
"fx 	c #B08E2D",
"gx 	c #B59B39",
"hx 	c #C4AF32",
"ix 	c #C2AB26",
"jx 	c #BFAA2A",
"kx 	c #BEA82D",
"lx 	c #BFA32D",
"mx 	c #BFA128",
"nx 	c #BFA226",
"ox 	c #BFA42B",
"px 	c #C5A625",
"qx 	c #A4901B",
"rx 	c #988A1B",
"sx 	c #978D1C",
"tx 	c #846C16",
"ux 	c #5E2100",
"vx 	c #602200",
"wx 	c #793700",
"xx 	c #7A3800",
"yx 	c #783802",
"zx 	c #A28B28",
"Ax 	c #C2AE2A",
"Bx 	c #C2AE26",
"Cx 	c #BBA11E",
"Dx 	c #843D00",
"Ex 	c #501800",
"Fx 	c #A48029",
"Gx 	c #B79331",
"Hx 	c #B6912C",
"Ix 	c #B88C1F",
"Jx 	c #CCA819",
"Kx 	c #C9A21D",
"Lx 	c #C5A121",
"Mx 	c #73362F",
"Nx 	c #5D0034",
"Ox 	c #60003B",
"Px 	c #640140",
"Qx 	c #620140",
"Rx 	c #5D003B",
"Sx 	c #570034",
"Tx 	c #500128",
"Ux 	c #4C031D",
"Vx 	c #50171A",
"Wx 	c #CAA31A",
"Xx 	c #F7BC1E",
"Yx 	c #F8BB21",
"Zx 	c #C59B1A",
"`x 	c #773501",
" y 	c #652C02",
".y 	c #642C02",
"+y 	c #582303",
"@y 	c #1A0306",
"#y 	c #512303",
"$y 	c #733703",
"%y 	c #723602",
"&y 	c #7C3901",
"*y 	c #914400",
"=y 	c #8F4400",
"-y 	c #542102",
";y 	c #1D0604",
">y 	c #763502",
",y 	c #893F00",
"'y 	c #813A01",
")y 	c #3F1401",
"!y 	c #340F03",
"~y 	c #140305",
"{y 	c #773903",
"]y 	c #481401",
"^y 	c #592201",
"/y 	c #B36301",
"(y 	c #F7C219",
"_y 	c #FEC922",
":y 	c #FCC21E",
"<y 	c #E5AD12",
"[y 	c #6D3201",
"}y 	c #652100",
"|y 	c #642100",
"1y 	c #732B00",
"2y 	c #7E3100",
"3y 	c #8F5C14",
"4y 	c #F9E13F",
"5y 	c #FDE33E",
"6y 	c #B6A72C",
"7y 	c #2E0E02",
"8y 	c #4E1A01",
"9y 	c #6C2900",
"0y 	c #B36100",
"ay 	c #B66100",
"by 	c #753200",
"cy 	c #5F2000",
"dy 	c #672200",
"ey 	c #AA9121",
"fy 	c #FACF28",
"gy 	c #FAC920",
"hy 	c #EE9C07",
"iy 	c #F7AC09",
"jy 	c #FBBB16",
"ky 	c #FDC41C",
"ly 	c #FDC71D",
"my 	c #DDBB1F",
"ny 	c #6E3202",
"oy 	c #9C821C",
"py 	c #FBDB33",
"qy 	c #FEDE3B",
"ry 	c #FEDB38",
"sy 	c #FED834",
"ty 	c #FDD734",
"uy 	c #FDD934",
"vy 	c #FDC61A",
"wy 	c #FDBB11",
"xy 	c #DCA30C",
"yy 	c #6B2E00",
"zy 	c #672600",
"Ay 	c #7A3000",
"By 	c #813400",
"Cy 	c #AB8B26",
"Dy 	c #FCDD33",
"Ey 	c #FED82B",
"Fy 	c #FDD326",
"Gy 	c #FCC719",
"Hy 	c #FCBF13",
"Iy 	c #FCBC11",
"Jy 	c #FBBC13",
"Ky 	c #FDC91D",
"Ly 	c #FDCD20",
"My 	c #F4CD21",
"Ny 	c #845C0A",
"Oy 	c #501602",
"Py 	c #491301",
"Qy 	c #581C00",
"Ry 	c #521800",
"Sy 	c #5E2502",
"Ty 	c #C4AC2B",
"Uy 	c #FCDD36",
"Vy 	c #E4CC2F",
"Wy 	c #683603",
"Xy 	c #883800",
"Yy 	c #AF8815",
"Zy 	c #FCD226",
"`y 	c #F5CC30",
" z 	c #7A4A1E",
".z 	c #4D011F",
"+z 	c #4D0122",
"@z 	c #4F0125",
"#z 	c #4E0127",
"$z 	c #4D0026",
"%z 	c #4E0024",
"&z 	c #4D0120",
"*z 	c #4A0218",
"=z 	c #4E1715",
"-z 	c #CC9F0E",
";z 	c #F9B30D",
">z 	c #FAB30F",
",z 	c #C49914",
"'z 	c #773601",
")z 	c #230604",
"!z 	c #180305",
"~z 	c #170103",
"{z 	c #813E01",
"]z 	c #9F4E00",
"^z 	c #552103",
"/z 	c #160303",
"(z 	c #6E2F02",
"_z 	c #421402",
":z 	c #3D1202",
"<z 	c #330E03",
"[z 	c #6F3303",
"}z 	c #9E5201",
"|z 	c #A15100",
"1z 	c #B76A01",
"2z 	c #F5C321",
"3z 	c #FBCE2C",
"4z 	c #F9C727",
"5z 	c #E3B017",
"6z 	c #6D3401",
"7z 	c #622601",
"8z 	c #713001",
"9z 	c #793502",
"0z 	c #783302",
"az 	c #8F5E12",
"bz 	c #F6DC3B",
"cz 	c #F8D93A",
"dz 	c #F7D93A",
"ez 	c #B4A52D",
"fz 	c #2F0F03",
"gz 	c #2B0702",
"hz 	c #4F1B02",
"iz 	c #B76400",
"jz 	c #BB6400",
"kz 	c #733200",
"lz 	c #5C2400",
"mz 	c #592400",
"nz 	c #5C2301",
"oz 	c #A68E1A",
"pz 	c #F5C820",
"qz 	c #F8C824",
"rz 	c #F5C71E",
"sz 	c #ECA509",
"tz 	c #F3B007",
"uz 	c #F3B009",
"vz 	c #F6BC17",
"wz 	c #F9C61E",
"xz 	c #F9C51B",
"yz 	c #DCB81A",
"zz 	c #6B3101",
"Az 	c #652600",
"Bz 	c #662B00",
"Cz 	c #692C00",
"Dz 	c #6A2C00",
"Ez 	c #9D831C",
"Fz 	c #F9D935",
"Gz 	c #FBD738",
"Hz 	c #FBD431",
"Iz 	c #FAD331",
"Jz 	c #FBD430",
"Kz 	c #FACE27",
"Lz 	c #F9C21A",
"Mz 	c #F8BA0B",
"Nz 	c #DA9D04",
"Oz 	c #6F3300",
"Pz 	c #6C2E00",
"Qz 	c #843800",
"Rz 	c #AA8823",
"Sz 	c #F9D837",
"Tz 	c #FBD634",
"Uz 	c #FAD32E",
"Vz 	c #F9C81D",
"Wz 	c #F8C014",
"Xz 	c #F8BD11",
"Yz 	c #F7BB13",
"Zz 	c #F7C420",
"`z 	c #F7C722",
" A 	c #F1CA20",
".A 	c #8B6308",
"+A 	c #591D00",
"@A 	c #552202",
"#A 	c #562403",
"$A 	c #5F2B03",
"%A 	c #C2AB2C",
"&A 	c #F9D93E",
"*A 	c #FADA3F",
"=A 	c #E2CB36",
"-A 	c #683704",
";A 	c #672900",
">A 	c #461301",
",A 	c #A6861B",
"'A 	c #F8D530",
")A 	c #FAD12E",
"!A 	c #F3CF35",
"~A 	c #7D4D1B",
"{A 	c #4F1619",
"]A 	c #4F161D",
"^A 	c #4F141E",
"/A 	c #4E1320",
"(A 	c #501420",
"_A 	c #52151F",
":A 	c #50161C",
"<A 	c #4E1613",
"[A 	c #522211",
"}A 	c #CEA510",
"|A 	c #F3B90D",
"1A 	c #F5B60B",
"2A 	c #C29708",
"3A 	c #793701",
"4A 	c #250503",
"5A 	c #210704",
"6A 	c #1F0A04",
"7A 	c #1A0603",
"8A 	c #140105",
"9A 	c #7E3B02",
"0A 	c #4D1D04",
"aA 	c #160404",
"bA 	c #773502",
"cA 	c #813D01",
"dA 	c #7A3801",
"eA 	c #722F01",
"fA 	c #320D03",
"gA 	c #2B0A03",
"hA 	c #250704",
"iA 	c #3B1904",
"jA 	c #6D3702",
"kA 	c #703D02",
"lA 	c #905202",
"mA 	c #A65B01",
"nA 	c #A15600",
"oA 	c #914901",
"pA 	c #632901",
"qA 	c #733801",
"rA 	c #784602",
"sA 	c #9D7A15",
"tA 	c #A5801F",
"uA 	c #A47E1C",
"vA 	c #A37A0B",
"wA 	c #CB9505",
"xA 	c #CB980A",
"yA 	c #CE9D14",
"zA 	c #CFAB25",
"AA 	c #CFB12D",
"BA 	c #D0B02D",
"CA 	c #B99824",
"DA 	c #927D28",
"EA 	c #8B7C24",
"FA 	c #897B21",
"GA 	c #635719",
"HA 	c #2C0902",
"IA 	c #511D02",
"JA 	c #6B2800",
"KA 	c #6A2800",
"LA 	c #9D4E00",
"MA 	c #A25601",
"NA 	c #C68402",
"OA 	c #CA9505",
"PA 	c #CB9D07",
"QA 	c #B07E04",
"RA 	c #6C4B0A",
"SA 	c #8B7812",
"TA 	c #8C7916",
"UA 	c #8C7910",
"VA 	c #886F06",
"WA 	c #887304",
"XA 	c #897404",
"YA 	c #907609",
"ZA 	c #927A0E",
"`A 	c #917B10",
" B 	c #846A0C",
".B 	c #551B00",
"+B 	c #C49703",
"@B 	c #C99C04",
"#B 	c #C68E03",
"$B 	c #A36C0C",
"%B 	c #A57F1F",
"&B 	c #A37F23",
"*B 	c #A48022",
"=B 	c #A9801B",
"-B 	c #A9801A",
";B 	c #A4801B",
">B 	c #A07E18",
",B 	c #9B7B12",
"'B 	c #997A06",
")B 	c #956B03",
"!B 	c #C79705",
"~B 	c #CB9603",
"{B 	c #CB9403",
"]B 	c #894C01",
"^B 	c #7D5211",
"/B 	c #AF861F",
"(B 	c #AC8620",
"_B 	c #A8821D",
":B 	c #9A7D12",
"<B 	c #907A0B",
"[B 	c #8E7907",
"}B 	c #8E790A",
"|B 	c #8E7914",
"1B 	c #8D7914",
"2B 	c #8B7810",
"3B 	c #501900",
"4B 	c #561C00",
"5B 	c #663605",
"6B 	c #C6AF27",
"7B 	c #CBB12B",
"8B 	c #CAAE21",
"9B 	c #B0921E",
"0B 	c #A8842B",
"aB 	c #A9852B",
"bB 	c #B18222",
"cB 	c #B76702",
"dB 	c #B36500",
"eB 	c #B16300",
"fB 	c #763A00",
"gB 	c #632701",
"hB 	c #774E0E",
"iB 	c #AA831E",
"jB 	c #AC821B",
"kB 	c #AE801E",
"lB 	c #C6A224",
"mB 	c #D0B125",
"nB 	c #D0B12A",
"oB 	c #CCAD28",
"pB 	c #CCAE2D",
"qB 	c #CBB02A",
"rB 	c #CBAF28",
"sB 	c #CBAA23",
"tB 	c #CCA818",
"uB 	c #CCA717",
"vB 	c #AB860B",
"wB 	c #957806",
"xB 	c #947704",
"yB 	c #7A5902",
"zB 	c #5D2A01",
"AB 	c #5E2701",
"BB 	c #552201",
"CB 	c #471701",
"DB 	c #6B3901",
"EB 	c #A36002",
"FB 	c #A46302",
"GB 	c #8D4F02",
"HB 	c #1F0805",
"IB 	c #612902",
"JB 	c #7C3600",
"KB 	c #793600",
"LB 	c #3A1204",
"MB 	c #0B0404",
"NB 	c #1C0604",
"OB 	c #883B02",
"PB 	c #682801",
"QB 	c #220604",
"RB 	c #1E0505",
"SB 	c #240804",
"TB 	c #170303",
"UB 	c #8A4701",
"VB 	c #A45400",
"WB 	c #3E1302",
"XB 	c #360B01",
"YB 	c #350A02",
"ZB 	c #F4AE04",
"`B 	c #F5A508",
" C 	c #F9AE0E",
".C 	c #FFCB25",
"+C 	c #FECB23",
"@C 	c #CDAE13",
"#C 	c #421E03",
"$C 	c #340C02",
"%C 	c #320A01",
"&C 	c #330B01",
"*C 	c #4C1A02",
"=C 	c #8B4C00",
"-C 	c #E49301",
";C 	c #F19C04",
">C 	c #F6A306",
",C 	c #C98304",
"'C 	c #400F00",
")C 	c #511800",
"!C 	c #4E1700",
"~C 	c #4F1700",
"{C 	c #541B00",
"]C 	c #5C1F00",
"^C 	c #994E00",
"/C 	c #EB9902",
"(C 	c #F29D02",
"_C 	c #EC9601",
":C 	c #AB6401",
"<C 	c #7B3100",
"[C 	c #682400",
"}C 	c #662200",
"|C 	c #6C3400",
"1C 	c #EE9E01",
"2C 	c #F09A00",
"3C 	c #905401",
"4C 	c #6A2A00",
"5C 	c #401100",
"6C 	c #431300",
"7C 	c #6A3F05",
"8C 	c #F6D327",
"9C 	c #FBC922",
"0C 	c #AA8F15",
"aC 	c #762D00",
"bC 	c #964D00",
"cC 	c #D07700",
"dC 	c #CC7400",
"eC 	c #8C4A00",
"fC 	c #924704",
"gC 	c #E8C32D",
"hC 	c #FFD130",
"iC 	c #FEC527",
"jC 	c #FECA2B",
"kC 	c #FECD2C",
"lC 	c #FECB29",
"mC 	c #FCBD1C",
"nC 	c #FDBD18",
"oC 	c #FBC016",
"pC 	c #9C7B08",
"qC 	c #310A02",
"rC 	c #2E0902",
"sC 	c #803D00",
"tC 	c #B86100",
"uC 	c #A75A01",
"vC 	c #260C04",
"wC 	c #521E02",
"xC 	c #5E2300",
"yC 	c #351003",
"zC 	c #050203",
"AC 	c #1E0704",
"BC 	c #823702",
"CC 	c #732F00",
"DC 	c #682901",
"EC 	c #2D0B03",
"FC 	c #1F0604",
"GC 	c #8B4601",
"HC 	c #AB5A01",
"IC 	c #742F00",
"JC 	c #9D5E01",
"KC 	c #F1B205",
"LC 	c #F3B010",
"MC 	c #F7BA17",
"NC 	c #FAC71F",
"OC 	c #FBCE25",
"PC 	c #FBCD23",
"QC 	c #CCAC13",
"RC 	c #3E1C03",
"SC 	c #2E0A03",
"TC 	c #320B02",
"UC 	c #360D01",
"VC 	c #380D02",
"WC 	c #4B1902",
"XC 	c #602100",
"YC 	c #874C01",
"ZC 	c #E39602",
"`C 	c #F19D03",
" D 	c #F6A304",
".D 	c #C68004",
"+D 	c #572401",
"@D 	c #552100",
"#D 	c #541F01",
"$D 	c #431200",
"%D 	c #3D0F00",
"&D 	c #3F1001",
"*D 	c #491B00",
"=D 	c #501E00",
"-D 	c #4D1D00",
";D 	c #4E1C00",
">D 	c #954A00",
",D 	c #E89502",
"'D 	c #F09B02",
")D 	c #A86402",
"!D 	c #733303",
"~D 	c #743203",
"{D 	c #773603",
"]D 	c #783603",
"^D 	c #743403",
"/D 	c #6C2F02",
"(D 	c #652A02",
"_D 	c #6A3802",
":D 	c #EEA001",
"<D 	c #F29C00",
"[D 	c #EE9400",
"}D 	c #935802",
"|D 	c #512202",
"1D 	c #582402",
"2D 	c #662B01",
"3D 	c #662900",
"4D 	c #3D1000",
"5D 	c #461800",
"6D 	c #421500",
"7D 	c #511E00",
"8D 	c #4E1D00",
"9D 	c #6A4205",
"0D 	c #F4D528",
"aD 	c #FED32C",
"bD 	c #FBCB21",
"cD 	c #AA8D12",
"dD 	c #955000",
"eD 	c #D27A00",
"fD 	c #D37C00",
"gD 	c #914E00",
"hD 	c #682900",
"iD 	c #4F1800",
"jD 	c #8F4604",
"kD 	c #E7C029",
"lD 	c #FECC2A",
"mD 	c #FDC829",
"nD 	c #FCC021",
"oD 	c #FDC324",
"pD 	c #FDCA28",
"qD 	c #FDC826",
"rD 	c #FCBC17",
"sD 	c #FCBC15",
"tD 	c #F9BE13",
"uD 	c #9A7907",
"vD 	c #451601",
"wD 	c #300901",
"xD 	c #2E0A02",
"yD 	c #B76000",
"zD 	c #A85B02",
"AD 	c #290D03",
"BD 	c #5B2200",
"CD 	c #4B1C04",
"DD 	c #964901",
"ED 	c #AA5800",
"FD 	c #C06E01",
"GD 	c #D18301",
"HD 	c #CF8100",
"ID 	c #CA7900",
"JD 	c #AC6501",
"KD 	c #361302",
"LD 	c #280703",
"MD 	c #260704",
"ND 	c #4B1A02",
"OD 	c #0F0204",
"PD 	c #552703",
"QD 	c #783D02",
"RD 	c #763B02",
"SD 	c #6D3402",
"TD 	c #3A1002",
"UD 	c #3A0F01",
"VD 	c #4C1B03",
"WD 	c #511F03",
"XD 	c #5A2403",
"YD 	c #6B3803",
"ZD 	c #896105",
"`D 	c #7D600B",
" E 	c #7F610E",
".E 	c #85640F",
"+E 	c #896711",
"@E 	c #8F6B10",
"#E 	c #896608",
"$E 	c #743402",
"%E 	c #7B3701",
"&E 	c #803B00",
"*E 	c #7F3A00",
"=E 	c #723000",
"-E 	c #A95C00",
";E 	c #AF6000",
">E 	c #A55C01",
",E 	c #AC7001",
"'E 	c #B37902",
")E 	c #B78404",
"!E 	c #C99F0F",
"~E 	c #CEAA13",
"{E 	c #CDA613",
"]E 	c #BA8F11",
"^E 	c #7E3B01",
"/E 	c #934900",
"(E 	c #BD8707",
"_E 	c #CA9506",
":E 	c #C89003",
"<E 	c #B08402",
"[E 	c #5F2800",
"}E 	c #783400",
"|E 	c #B07401",
"1E 	c #B97E01",
"2E 	c #BA7703",
"3E 	c #CDA92A",
"4E 	c #D8BD39",
"5E 	c #D9BC38",
"6E 	c #D9BD38",
"7E 	c #DABD36",
"8E 	c #DBBE37",
"9E 	c #DAC038",
"0E 	c #DAB82C",
"aE 	c #DBB728",
"bE 	c #DDB82A",
"cE 	c #D9B626",
"dE 	c #BC7E06",
"eE 	c #B87801",
"fE 	c #B87605",
"gE 	c #D0BC31",
"hE 	c #CCB829",
"iE 	c #C6A821",
"jE 	c #D58E04",
"kE 	c #D68D02",
"lE 	c #D59003",
"mE 	c #8D5D02",
"nE 	c #653601",
"oE 	c #BA7E02",
"pE 	c #BE7B01",
"qE 	c #B87201",
"rE 	c #7E3C00",
"sE 	c #612600",
"tE 	c #9C8103",
"uE 	c #CA9705",
"vE 	c #CC9705",
"wE 	c #CD9F08",
"xE 	c #B69D19",
"yE 	c #B09B1D",
"zE 	c #B49C17",
"AE 	c #C3A116",
"BE 	c #D5AC1D",
"CE 	c #D4AC1A",
"DE 	c #CC9D10",
"EE 	c #B27102",
"FE 	c #B26900",
"GE 	c #B36701",
"HE 	c #C27901",
"IE 	c #C97900",
"JE 	c #CC7C00",
"KE 	c #B46500",
"LE 	c #A55700",
"ME 	c #A15400",
"NE 	c #944801",
"OE 	c #853B00",
"PE 	c #B4830D",
"QE 	c #C19514",
"RE 	c #BE9614",
"SE 	c #B49715",
"TE 	c #B29916",
"UE 	c #AF9C15",
"VE 	c #AD9A11",
"WE 	c #AE9108",
"XE 	c #AF9408",
"YE 	c #AD9106",
"ZE 	c #714E02",
"`E 	c #6C2D01",
" F 	c #773401",
".F 	c #743201",
"+F 	c #733101",
"@F 	c #964B00",
"#F 	c #944D01",
"$F 	c #894801",
"%F 	c #723101",
"&F 	c #2A0A04",
"*F 	c #060303",
"=F 	c #5B2403",
"-F 	c #9A4C00",
";F 	c #D07901",
">F 	c #EA9201",
",F 	c #C27501",
"'F 	c #361503",
")F 	c #280802",
"!F 	c #280904",
"~F 	c #4E1B01",
"{F 	c #4C1902",
"]F 	c #260805",
"^F 	c #350C03",
"/F 	c #350C02",
"(F 	c #370E02",
"_F 	c #421202",
":F 	c #2F0904",
"<F 	c #180105",
"[F 	c #1A0204",
"}F 	c #230305",
"|F 	c #351102",
"1F 	c #BB6600",
"2F 	c #AB5800",
"3F 	c #CDA517",
"4F 	c #FDC11B",
"5F 	c #FDBE1B",
"6F 	c #DFAE17",
"7F 	c #864101",
"8F 	c #E39103",
"9F 	c #F6A005",
"0F 	c #F19901",
"aF 	c #D49700",
"bF 	c #672E00",
"cF 	c #8C3D01",
"dF 	c #D2B42F",
"eF 	c #FFDA38",
"fF 	c #FFDE3D",
"gF 	c #FED531",
"hF 	c #FECD27",
"iF 	c #FECB27",
"jF 	c #F9CF29",
"kF 	c #935308",
"lF 	c #7E3E06",
"mF 	c #E6CB38",
"nF 	c #FEDD37",
"oF 	c #FED730",
"pF 	c #F4C427",
"qF 	c #EF9B04",
"rF 	c #EA9901",
"sF 	c #986701",
"tF 	c #774100",
"uF 	c #D88001",
"vF 	c #BC9903",
"wF 	c #F3A204",
"xF 	c #F5A104",
"yF 	c #F1AE05",
"zF 	c #744201",
"AF 	c #5E1D00",
"BF 	c #CBA413",
"CF 	c #FCBF1A",
"DF 	c #FDBC17",
"EF 	c #E3AB0F",
"FF 	c #813D00",
"GF 	c #853800",
"HF 	c #D38100",
"IF 	c #E68D00",
"JF 	c #EC9401",
"KF 	c #CF7701",
"LF 	c #491300",
"MF 	c #441200",
"NF 	c #682700",
"OF 	c #4F1C01",
"PF 	c #290A04",
"QF 	c #5E2902",
"RF 	c #672B00",
"SF 	c #9C4F02",
"TF 	c #B35E03",
"UF 	c #C97202",
"VF 	c #E58C01",
"WF 	c #E98F01",
"XF 	c #E28901",
"YF 	c #C47B01",
"ZF 	c #391702",
"`F 	c #461701",
" G 	c #451602",
".G 	c #441502",
"+G 	c #260804",
"@G 	c #391002",
"#G 	c #3C1102",
"$G 	c #3D1102",
"%G 	c #390E02",
"&G 	c #421301",
"*G 	c #1D0204",
"=G 	c #BA6300",
"-G 	c #B45F00",
";G 	c #AC5900",
">G 	c #763300",
",G 	c #7C3A01",
"'G 	c #D3A81D",
")G 	c #FCC11E",
"!G 	c #FCC01C",
"~G 	c #E0B315",
"{G 	c #834001",
"]G 	c #E28C01",
"^G 	c #EC9302",
"/G 	c #D08F02",
"(G 	c #713400",
"_G 	c #904100",
":G 	c #8F4101",
"<G 	c #D4B428",
"[G 	c #FBDE35",
"}G 	c #FCE03A",
"|G 	c #FBE03B",
"1G 	c #FBE03D",
"2G 	c #FBE13B",
"3G 	c #FBE13A",
"4G 	c #FADB31",
"5G 	c #FBD428",
"6G 	c #FCD225",
"7G 	c #F8D025",
"8G 	c #9A620A",
"9G 	c #803A03",
"0G 	c #834207",
"aG 	c #E3CB35",
"bG 	c #FCDE32",
"cG 	c #FBD42A",
"dG 	c #F0BF20",
"eG 	c #EB9502",
"fG 	c #E79001",
"gG 	c #9B6201",
"hG 	c #4E2100",
"iG 	c #502200",
"jG 	c #794501",
"kG 	c #DD8C02",
"lG 	c #DA8300",
"mG 	c #884100",
"nG 	c #BD9804",
"oG 	c #F3A103",
"pG 	c #F39F02",
"qG 	c #F1B808",
"rG 	c #724802",
"sG 	c #581D00",
"tG 	c #622701",
"uG 	c #CEA615",
"vG 	c #FEC21D",
"wG 	c #FEBE1B",
"xG 	c #E6AE14",
"yG 	c #864303",
"zG 	c #8E4201",
"AG 	c #D78902",
"BG 	c #E99201",
"CG 	c #C46C00",
"DG 	c #813B02",
"EG 	c #572804",
"FG 	c #562804",
"GG 	c #512604",
"HG 	c #482303",
"IG 	c #492402",
"JG 	c #472201",
"KG 	c #532600",
"LG 	c #602A00",
"MG 	c #612901",
"NG 	c #843C00",
"OG 	c #873D00",
"PG 	c #5A2201",
"QG 	c #602500",
"RG 	c #5E2400",
"SG 	c #4F1E02",
"TG 	c #0E0504",
"UG 	c #1B0505",
"VG 	c #9C6E05",
"WG 	c #C98204",
"XG 	c #CC8A09",
"YG 	c #D5B12F",
"ZG 	c #E2BF38",
"`G 	c #E7B92D",
" H 	c #DAA31D",
".H 	c #AB6102",
"+H 	c #AC6100",
"@H 	c #995801",
"#H 	c #4E1B02",
"$H 	c #270804",
"%H 	c #240704",
"&H 	c #632802",
"*H 	c #672A01",
"=H 	c #5A2102",
"-H 	c #561F01",
";H 	c #380E03",
">H 	c #2A0803",
",H 	c #632702",
"'H 	c #582002",
")H 	c #722F00",
"!H 	c #814101",
"~H 	c #A05500",
"{H 	c #A85A00",
"]H 	c #AC5C00",
"^H 	c #984C00",
"/H 	c #8D4300",
"(H 	c #8E4B00",
"_H 	c #C07B00",
":H 	c #C98302",
"<H 	c #CE8902",
"[H 	c #E0980B",
"}H 	c #E99A0A",
"|H 	c #E99708",
"1H 	c #D19605",
"2H 	c #6D2D00",
"3H 	c #743801",
"4H 	c #D39304",
"5H 	c #DE9706",
"6H 	c #E19C07",
"7H 	c #BD7E03",
"8H 	c #A05800",
"9H 	c #9F5B00",
"0H 	c #A86701",
"aH 	c #C07601",
"bH 	c #BD6F00",
"cH 	c #BC6F01",
"dH 	c #CE9813",
"eH 	c #D19E19",
"fH 	c #D0A416",
"gH 	c #A98014",
"hH 	c #9B7814",
"iH 	c #926D14",
"jH 	c #926E15",
"kH 	c #94751A",
"lH 	c #957718",
"mH 	c #987816",
"nH 	c #997611",
"oH 	c #9D6F0C",
"pH 	c #9F6D08",
"qH 	c #A37910",
"rH 	c #DBC839",
"sH 	c #D5C135",
"tH 	c #D3BB28",
"uH 	c #B69D27",
"vH 	c #AB8F1C",
"wH 	c #AC9416",
"xH 	c #AA850E",
"yH 	c #D78301",
"zH 	c #CD8A02",
"AH 	c #CE9A04",
"BH 	c #CD9E04",
"CH 	c #C89702",
"DH 	c #A16501",
"EH 	c #9D6001",
"FH 	c #985901",
"GH 	c #6B3100",
"HH 	c #612800",
"IH 	c #582501",
"JH 	c #BA9E0A",
"KH 	c #F5A707",
"LH 	c #F6A404",
"MH 	c #F3BB0C",
"NH 	c #6D4802",
"OH 	c #572101",
"PH 	c #CA9F0C",
"QH 	c #FCBD1A",
"RH 	c #FDBA19",
"SH 	c #F1B019",
"TH 	c #DCB82A",
"UH 	c #DCB623",
"VH 	c #D9AE17",
"WH 	c #BA810A",
"XH 	c #AE6300",
"YH 	c #B06500",
"ZH 	c #A25800",
"`H 	c #844104",
" I 	c #C7A927",
".I 	c #D5B622",
"+I 	c #D4B624",
"@I 	c #D3BA31",
"#I 	c #D5BE37",
"$I 	c #D1BD36",
"%I 	c #D1BB33",
"&I 	c #D0B42A",
"*I 	c #D0B21E",
"=I 	c #D0B019",
"-I 	c #D1AB0D",
";I 	c #D1A20A",
">I 	c #CC9D0B",
",I 	c #7B5B05",
"'I 	c #622800",
")I 	c #622900",
"!I 	c #7B3800",
"~I 	c #8C4100",
"{I 	c #4E1A00",
"]I 	c #5E2500",
"^I 	c #8F4301",
"/I 	c #441803",
"(I 	c #401703",
"_I 	c #341204",
":I 	c #200C05",
"<I 	c #0F0704",
"[I 	c #0E0805",
"}I 	c #070205",
"|I 	c #120405",
"1I 	c #230A05",
"2I 	c #BA8408",
"3I 	c #EB9708",
"4I 	c #F5A711",
"5I 	c #F9CC36",
"6I 	c #FFD93E",
"7I 	c #FFD133",
"8I 	c #DFBA27",
"9I 	c #783A02",
"0I 	c #5E2202",
"aI 	c #712F00",
"bI 	c #642700",
"cI 	c #662800",
"dI 	c #511A00",
"eI 	c #401202",
"fI 	c #360D03",
"gI 	c #330C02",
"hI 	c #370D01",
"iI 	c #390E01",
"jI 	c #682A01",
"kI 	c #965700",
"lI 	c #8D4800",
"mI 	c #854A01",
"nI 	c #E29502",
"oI 	c #EB9402",
"pI 	c #EE9901",
"qI 	c #EA9301",
"rI 	c #CF9002",
"sI 	c #4E2300",
"tI 	c #511700",
"uI 	c #653301",
"vI 	c #EEAE09",
"wI 	c #F9AF0C",
"xI 	c #F9B60D",
"yI 	c #AC8105",
"zI 	c #642200",
"AI 	c #955700",
"BI 	c #E89201",
"CI 	c #E48D00",
"DI 	c #E48D01",
"EI 	c #F7BF1F",
"FI 	c #FECC27",
"GI 	c #FAD328",
"HI 	c #997413",
"II 	c #541600",
"JI 	c #501400",
"KI 	c #511400",
"LI 	c #531500",
"MI 	c #71460A",
"NI 	c #F8DF38",
"OI 	c #FFDF36",
"PI 	c #FBDC31",
"QI 	c #A2881A",
"RI 	c #672000",
"SI 	c #6E2600",
"TI 	c #7A3700",
"UI 	c #E09403",
"VI 	c #F7A605",
"WI 	c #E9A403",
"XI 	c #663000",
"YI 	c #471301",
"ZI 	c #421802",
"`I 	c #BAA010",
" J 	c #F9AE0A",
".J 	c #FBAC06",
"+J 	c #F5BD0A",
"@J 	c #6D4702",
"#J 	c #531F01",
"$J 	c #C89C0C",
"%J 	c #FCBB19",
"&J 	c #FDBA1A",
"*J 	c #F9B318",
"=J 	c #FECA2A",
"-J 	c #FECA27",
";J 	c #FBC71D",
">J 	c #A9780B",
",J 	c #984F03",
"'J 	c #FEC81F",
")J 	c #FEC920",
"!J 	c #FDD32D",
"~J 	c #FED82D",
"{J 	c #FED427",
"]J 	c #FDC115",
"^J 	c #FDBE12",
"/J 	c #FBB70D",
"(J 	c #FBB40C",
"_J 	c #F4B40E",
":J 	c #756607",
"<J 	c #390B01",
"[J 	c #874401",
"}J 	c #A65600",
"|J 	c #4B1A01",
"1J 	c #642900",
"2J 	c #8D4101",
"3J 	c #210905",
"4J 	c #100607",
"5J 	c #140206",
"6J 	c #270E04",
"7J 	c #C27804",
"8J 	c #EA960A",
"9J 	c #F6AF15",
"0J 	c #FACC2F",
"aJ 	c #DEBA1E",
"bJ 	c #6D3602",
"cJ 	c #692A00",
"dJ 	c #582102",
"eJ 	c #471601",
"fJ 	c #501B01",
"gJ 	c #3E1102",
"hJ 	c #3B1001",
"iJ 	c #3D1001",
"jJ 	c #965A00",
"kJ 	c #D88200",
"lJ 	c #8C4C00",
"mJ 	c #713000",
"nJ 	c #E19A02",
"oJ 	c #EA9703",
"pJ 	c #EB9A03",
"qJ 	c #E79402",
"rJ 	c #E79301",
"sJ 	c #D09602",
"tJ 	c #5A2F00",
"uJ 	c #562501",
"vJ 	c #663B01",
"wJ 	c #EAAD0D",
"xJ 	c #F6B10D",
"yJ 	c #F6B50E",
"zJ 	c #B08707",
"AJ 	c #9B5F01",
"BJ 	c #EE9E02",
"CJ 	c #ED9A02",
"DJ 	c #F6C424",
"EJ 	c #F8D831",
"FJ 	c #977417",
"GJ 	c #561B00",
"HJ 	c #522000",
"IJ 	c #522300",
"JJ 	c #542700",
"KJ 	c #5A2B00",
"LJ 	c #652D00",
"MJ 	c #724708",
"NJ 	c #F4DA39",
"OJ 	c #FBDC3A",
"PJ 	c #F8DB35",
"QJ 	c #A68920",
"RJ 	c #DC8300",
"SJ 	c #DC8D04",
"TJ 	c #F9AA0A",
"UJ 	c #EBAB09",
"VJ 	c #673501",
"WJ 	c #481A00",
"XJ 	c #BCA112",
"YJ 	c #FCB10C",
"ZJ 	c #FCAC08",
"`J 	c #F6BA0F",
" K 	c #6C4402",
".K 	c #531E00",
"+K 	c #C79F14",
"@K 	c #FCBD1B",
"#K 	c #FEBC1B",
"$K 	c #FABB19",
"%K 	c #FAC422",
"&K 	c #FAC420",
"*K 	c #F7C51C",
"=K 	c #A87D0A",
"-K 	c #7E3D00",
";K 	c #7F3E01",
">K 	c #874100",
",K 	c #9C5000",
"'K 	c #9F5400",
")K 	c #A35601",
"!K 	c #E5B516",
"~K 	c #F9C61C",
"{K 	c #F8C61E",
"]K 	c #F8C91D",
"^K 	c #F9CB1F",
"/K 	c #FACE26",
"(K 	c #F9CB24",
"_K 	c #F6BD17",
":K 	c #F6B711",
"<K 	c #F6B40E",
"[K 	c #F6B20E",
"}K 	c #F6B40F",
"|K 	c #F1B70E",
"1K 	c #7B6404",
"2K 	c #411901",
"3K 	c #431C01",
"4K 	c #945001",
"5K 	c #B36602",
"6K 	c #531F00",
"7K 	c #692D01",
"8K 	c #944600",
"9K 	c #220905",
"0K 	c #0B0306",
"aK 	c #4A1902",
"bK 	c #491B01",
"cK 	c #C46F02",
"dK 	c #C97C06",
"eK 	c #DA9C1E",
"fK 	c #E8AA25",
"gK 	c #E7A71F",
"hK 	c #D29910",
"iK 	c #5A2901",
"jK 	c #572001",
"kK 	c #411403",
"lK 	c #3F1403",
"mK 	c #6D2C00",
"nK 	c #561D01",
"oK 	c #421302",
"pK 	c #4A1B01",
"qK 	c #7C3701",
"rK 	c #7A3501",
"sK 	c #893E01",
"tK 	c #8E4100",
"uK 	c #7C4800",
"vK 	c #AB6A01",
"wK 	c #AD6500",
"xK 	c #AC6301",
"yK 	c #C07C02",
"zK 	c #CE8502",
"AK 	c #CC8001",
"BK 	c #BF7502",
"CK 	c #9D7203",
"DK 	c #A07802",
"EK 	c #A17C02",
"FK 	c #9D7E03",
"GK 	c #9A8003",
"HK 	c #9A7B03",
"IK 	c #B19606",
"JK 	c #D99E05",
"KK 	c #D89D06",
"LK 	c #D7A808",
"MK 	c #A8880F",
"NK 	c #A48A0B",
"OK 	c #A4880A",
"PK 	c #C29006",
"QK 	c #D99A04",
"RK 	c #DAA205",
"SK 	c #E0AA08",
"TK 	c #F7B50A",
"UK 	c #F7AC08",
"VK 	c #E1A409",
"WK 	c #A08C1F",
"XK 	c #9D9127",
"YK 	c #9C9122",
"ZK 	c #90610C",
"`K 	c #D38800",
" L 	c #D89400",
".L 	c #DB9F02",
"+L 	c #DBA202",
"@L 	c #D88C00",
"#L 	c #D58A03",
"$L 	c #B19127",
"%L 	c #A4932E",
"&L 	c #A39323",
"*L 	c #CA8C09",
"=L 	c #D28301",
"-L 	c #D48401",
";L 	c #D28201",
">L 	c #CC7300",
",L 	c #D37E01",
"'L 	c #F19E05",
")L 	c #F3A106",
"!L 	c #E8A307",
"~L 	c #643301",
"{L 	c #4B1500",
"]L 	c #BEA616",
"^L 	c #FCC21F",
"/L 	c #FEC11F",
"(L 	c #F8CA1E",
"_L 	c #8A5104",
":L 	c #672B01",
"<L 	c #CBA81E",
"[L 	c #FEC523",
"}L 	c #EBBB22",
"|L 	c #B18F1A",
"1L 	c #AD8D18",
"2L 	c #A8901B",
"3L 	c #BD7C06",
"4L 	c #BF6D00",
"5L 	c #D39C04",
"6L 	c #DEAB0B",
"7L 	c #DEAD0D",
"8L 	c #CAA00B",
"9L 	c #AB6D01",
"0L 	c #BA7201",
"aL 	c #938110",
"bL 	c #949011",
"cL 	c #949014",
"dL 	c #929212",
"eL 	c #959314",
"fL 	c #958F11",
"gL 	c #948B0E",
"hL 	c #938A09",
"iL 	c #928907",
"jL 	c #928707",
"kL 	c #928909",
"lL 	c #938807",
"mL 	c #B47602",
"nL 	c #CD7C01",
"oL 	c #A56B01",
"pL 	c #8D4E00",
"qL 	c #8E4C00",
"rL 	c #8C4D01",
"sL 	c #8A4200",
"tL 	c #853E01",
"uL 	c #713100",
"vL 	c #723201",
"wL 	c #682D02",
"xL 	c #190506",
"yL 	c #0C0106",
"zL 	c #0B0405",
"AL 	c #AA5C01",
"BL 	c #B55D00",
"CL 	c #DE8301",
"DL 	c #DF8301",
"EL 	c #CE8101",
"FL 	c #4E2102",
"GL 	c #3E1103",
"HL 	c #1B0406",
"IL 	c #1B0404",
"JL 	c #512101",
"KL 	c #D98602",
"LL 	c #E48C01",
"ML 	c #CF7D01",
"NL 	c #5E2200",
"OL 	c #998C0A",
"PL 	c #F7B80D",
"QL 	c #FBB310",
"RL 	c #F4C317",
"SL 	c #6A3E02",
"TL 	c #602000",
"UL 	c #CC9D09",
"VL 	c #FBB309",
"WL 	c #FBB40E",
"XL 	c #F9B10E",
"YL 	c #F8AC0A",
"ZL 	c #D8A407",
"`L 	c #5B2801",
" M 	c #7E3900",
".M 	c #B85D00",
"+M 	c #BD6200",
"@M 	c #C26700",
"#M 	c #E99300",
"$M 	c #ED9800",
"%M 	c #F09E01",
"&M 	c #EE9A01",
"*M 	c #EC9300",
"=M 	c #E89401",
"-M 	c #713401",
";M 	c #621F00",
">M 	c #642A00",
",M 	c #D68E02",
"'M 	c #E08900",
")M 	c #BD6700",
"!M 	c #C77301",
"~M 	c #E89202",
"{M 	c #DE9002",
"]M 	c #5D2D01",
"^M 	c #420E00",
"/M 	c #431000",
"(M 	c #4D1C01",
"_M 	c #BFA318",
":M 	c #FCC61D",
"<M 	c #FFC41C",
"[M 	c #F9C91A",
"}M 	c #895003",
"|M 	c #CAA516",
"1M 	c #FDC41D",
"2M 	c #FEC51F",
"3M 	c #E4BC1B",
"4M 	c #C97600",
"5M 	c #DC8200",
"6M 	c #F0A705",
"7M 	c #FAB50D",
"8M 	c #F9B60E",
"9M 	c #DBAD0D",
"0M 	c #666101",
"aM 	c #675B01",
"bM 	c #6B5C00",
"cM 	c #344500",
"dM 	c #003800",
"eM 	c #003B00",
"fM 	c #004500",
"gM 	c #014A00",
"hM 	c #024800",
"iM 	c #024400",
"jM 	c #013200",
"kM 	c #022800",
"lM 	c #022600",
"mM 	c #022300",
"nM 	c #052400",
"oM 	c #1B2102",
"pM 	c #C18F03",
"qM 	c #EE9501",
"rM 	c #EC9201",
"sM 	c #A77301",
"tM 	c #853D00",
"uM 	c #150405",
"vM 	c #120707",
"wM 	c #5E2702",
"xM 	c #592301",
"yM 	c #9D5201",
"zM 	c #D27A01",
"AM 	c #D57D01",
"BM 	c #C57F01",
"CM 	c #471E03",
"DM 	c #3F1201",
"EM 	c #190406",
"FM 	c #481A03",
"GM 	c #5F2401",
"HM 	c #551E01",
"IM 	c #501A01",
"JM 	c #521B01",
"KM 	c #562201",
"LM 	c #572701",
"MM 	c #6A3201",
"NM 	c #7F4500",
"OM 	c #7D4501",
"PM 	c #7C4601",
"QM 	c #7D4601",
"RM 	c #7D4300",
"SM 	c #7D3F00",
"TM 	c #803E01",
"UM 	c #DD9410",
"VM 	c #E79C18",
"WM 	c #E49819",
"XM 	c #CC8211",
"YM 	c #572200",
"ZM 	c #978809",
"`M 	c #EEBF11",
" N 	c #F2B510",
".N 	c #EDBE11",
"+N 	c #683C01",
"@N 	c #662A01",
"#N 	c #CDA10B",
"$N 	c #FCB70D",
"%N 	c #FBB611",
"&N 	c #F5B40F",
"*N 	c #E9A908",
"=N 	c #EAA402",
"-N 	c #CC9E04",
";N 	c #713700",
">N 	c #753900",
",N 	c #773F00",
"'N 	c #945901",
")N 	c #C17501",
"!N 	c #C77902",
"~N 	c #CC7F0F",
"{N 	c #E7A33C",
"]N 	c #EBA740",
"^N 	c #EFAA3C",
"/N 	c #EFA435",
"(N 	c #EFA027",
"_N 	c #EEA027",
":N 	c #EAA229",
"<N 	c #8E6606",
"[N 	c #895F01",
"}N 	c #895F02",
"|N 	c #DF8801",
"1N 	c #DF8900",
"2N 	c #DB8700",
"3N 	c #B25F00",
"4N 	c #C67C1B",
"5N 	c #E9A22C",
"6N 	c #E69D27",
"7N 	c #DD9724",
"8N 	c #7B4303",
"9N 	c #6D3700",
"0N 	c #6A3A02",
"aN 	c #726011",
"bN 	c #776813",
"cN 	c #7B660D",
"dN 	c #BE9E16",
"eN 	c #EBC61B",
"fN 	c #EDC51B",
"gN 	c #E9C419",
"hN 	c #A07B1D",
"iN 	c #906C1B",
"jN 	c #8B6A15",
"kN 	c #C19914",
"lN 	c #EEBF17",
"mN 	c #EFC21B",
"nN 	c #DAB917",
"oN 	c #8A4501",
"pN 	c #C77F01",
"qN 	c #E39E06",
"rN 	c #E5B20C",
"sN 	c #E1B00D",
"tN 	c #C1AB0A",
"uN 	c #245200",
"vN 	c #124E00",
"wN 	c #165200",
"xN 	c #0D5001",
"yN 	c #004C00",
"zN 	c #004D00",
"AN 	c #006201",
"BN 	c #016D04",
"CN 	c #016A03",
"DN 	c #016502",
"EN 	c #005301",
"FN 	c #005201",
"GN 	c #014D01",
"HN 	c #022E00",
"IN 	c #042600",
"JN 	c #172601",
"KN 	c #B79102",
"LN 	c #E69A02",
"MN 	c #E59601",
"NN 	c #A76E01",
"ON 	c #6D3901",
"PN 	c #5C2401",
"QN 	c #531E02",
"RN 	c #120805",
"SN 	c #542203",
"TN 	c #8E4300",
"UN 	c #642801",
"VN 	c #5A2300",
"WN 	c #511F01",
"XN 	c #532201",
"YN 	c #4D2202",
"ZN 	c #230603",
"`N 	c #1F0505",
" O 	c #0D0106",
".O 	c #461903",
"+O 	c #662701",
"@O 	c #632601",
"#O 	c #290905",
"$O 	c #290803",
"%O 	c #944601",
"&O 	c #934A00",
"*O 	c #DD8701",
"=O 	c #DB8501",
"-O 	c #DA8501",
";O 	c #D58001",
">O 	c #D07A00",
",O 	c #CE7701",
"'O 	c #5A2401",
")O 	c #DFBB30",
"!O 	c #FDD63B",
"~O 	c #FAD539",
"{O 	c #B6A730",
"]O 	c #471401",
"^O 	c #9E5400",
"/O 	c #B86801",
"(O 	c #BB6701",
"_O 	c #BF6E01",
":O 	c #7E3700",
"<O 	c #CEA113",
"[O 	c #FBBB15",
"}O 	c #FCBA15",
"|O 	c #D9B116",
"1O 	c #5E3902",
"2O 	c #622E01",
"3O 	c #612E00",
"4O 	c #D07400",
"5O 	c #EA9D02",
"6O 	c #FBB905",
"7O 	c #FDBE07",
"8O 	c #FCC222",
"9O 	c #FBF180",
"0O 	c #FDFA8D",
"aO 	c #FDFB8E",
"bO 	c #FDF17C",
"cO 	c #FEEA4D",
"dO 	c #FEEB51",
"eO 	c #FDED56",
"fO 	c #F7B915",
"gO 	c #F8B505",
"hO 	c #F4B504",
"iO 	c #AE6A00",
"jO 	c #BBAB3D",
"kO 	c #FDEC5A",
"lO 	c #FEE953",
"mO 	c #F5DD4D",
"nO 	c #C1730C",
"oO 	c #C27105",
"pO 	c #EDCD30",
"qO 	c #F8DB32",
"rO 	c #F6D027",
"sO 	c #AA901B",
"tO 	c #563303",
"uO 	c #543202",
"vO 	c #7C5B11",
"wO 	c #F5E041",
"xO 	c #FAE13D",
"yO 	c #F6DC36",
"zO 	c #B29524",
"AO 	c #8D4702",
"BO 	c #8D4802",
"CO 	c #914A01",
"DO 	c #B56200",
"EO 	c #B35F00",
"FO 	c #A95800",
"GO 	c #E2AD05",
"HO 	c #F8AA05",
"IO 	c #F6A603",
"JO 	c #996F02",
"KO 	c #334701",
"LO 	c #314801",
"MO 	c #294C01",
"NO 	c #044700",
"OO 	c #014E00",
"PO 	c #015400",
"QO 	c #017C04",
"RO 	c #007C01",
"SO 	c #008202",
"TO 	c #01B30E",
"UO 	c #03C317",
"VO 	c #04BF17",
"WO 	c #04B513",
"XO 	c #019706",
"YO 	c #009805",
"ZO 	c #015301",
"`O 	c #002700",
" P 	c #0B2A00",
".P 	c #714100",
"+P 	c #7E4501",
"@P 	c #7A4101",
"#P 	c #B06A02",
"$P 	c #CD7601",
"%P 	c #B16A01",
"&P 	c #391803",
"*P 	c #2D0F04",
"=P 	c #300E03",
"-P 	c #3E1303",
";P 	c #3A1104",
">P 	c #100606",
",P 	c #090305",
"'P 	c #4F1E03",
")P 	c #220503",
"!P 	c #230503",
"~P 	c #200504",
"{P 	c #441903",
"]P 	c #5E2401",
"^P 	c #552003",
"/P 	c #2D0902",
"(P 	c #672A00",
"_P 	c #904900",
":P 	c #BD7001",
"<P 	c #5E2501",
"[P 	c #DFBC34",
"}P 	c #FFD83E",
"|P 	c #FCD238",
"1P 	c #B6A62E",
"2P 	c #421201",
"3P 	c #9C4B00",
"4P 	c #BF6900",
"5P 	c #C67000",
"6P 	c #6F2F00",
"7P 	c #7F3901",
"8P 	c #CEA819",
"9P 	c #FEC620",
"0P 	c #FEC61C",
"aP 	c #DABA1A",
"bP 	c #502902",
"cP 	c #501700",
"dP 	c #C66D00",
"eP 	c #EE9D02",
"fP 	c #FFBB06",
"gP 	c #FEBF22",
"hP 	c #FCF48E",
"iP 	c #FDFEA2",
"jP 	c #FEFFA3",
"kP 	c #FEF487",
"lP 	c #FFEB48",
"mP 	c #FFEE54",
"nP 	c #FEEF58",
"oP 	c #FCB317",
"pP 	c #FDB106",
"qP 	c #FAAE03",
"rP 	c #AF6C00",
"sP 	c #6D2900",
"tP 	c #742D01",
"uP 	c #BCA939",
"vP 	c #FEEF56",
"wP 	c #FFEB51",
"xP 	c #F6E04B",
"yP 	c #BC6F0D",
"zP 	c #C16B06",
"AP 	c #F1CD39",
"BP 	c #FFDB39",
"CP 	c #FCCD28",
"DP 	c #AD921C",
"EP 	c #815913",
"FP 	c #F8E343",
"GP 	c #FFE43F",
"HP 	c #FCDE38",
"IP 	c #B39422",
"JP 	c #B05D00",
"KP 	c #E4A905",
"LP 	c #F7A504",
"MP 	c #F5A202",
"NP 	c #916D01",
"OP 	c #034500",
"PP 	c #004600",
"QP 	c #004900",
"RP 	c #004F00",
"SP 	c #005800",
"TP 	c #005D00",
"UP 	c #008405",
"VP 	c #008302",
"WP 	c #008A04",
"XP 	c #03BE17",
"YP 	c #04CB1F",
"ZP 	c #04C41E",
"`P 	c #05BA1B",
" Q 	c #009807",
".Q 	c #009506",
"+Q 	c #019B08",
"@Q 	c #015902",
"#Q 	c #002C00",
"$Q 	c #0E2900",
"%Q 	c #7A3C00",
"&Q 	c #B76F00",
"*Q 	c #C97200",
"=Q 	c #C76E00",
"-Q 	c #B26B02",
";Q 	c #311305",
">Q 	c #1C0405",
",Q 	c #350F05",
"'Q 	c #100909",
")Q 	c #0F0606",
"!Q 	c #290F04",
"~Q 	c #4C1F03",
"{Q 	c #491C04",
"]Q 	c #451B03",
"^Q 	c #562202",
"/Q 	c #6C2E01",
"(Q 	c #7B3600",
"_Q 	c #743200",
":Q 	c #896A0A",
"<Q 	c #8D760E",
"[Q 	c #917B12",
"}Q 	c #866F12",
"|Q 	c #6B3802",
"1Q 	c #6D3502",
"2Q 	c #5E2C02",
"3Q 	c #381103",
"4Q 	c #3D1504",
"5Q 	c #310F04",
"6Q 	c #491902",
"7Q 	c #411503",
"8Q 	c #2C0903",
"9Q 	c #2D0803",
"0Q 	c #994A01",
"aQ 	c #A95600",
"bQ 	c #632700",
"cQ 	c #8A4400",
"dQ 	c #CF7C01",
"eQ 	c #CC7600",
"fQ 	c #D28408",
"gQ 	c #D38A0D",
"hQ 	c #D4860A",
"iQ 	c #C2820B",
"jQ 	c #DCB12A",
"kQ 	c #FCC930",
"lQ 	c #F8C32B",
"mQ 	c #B5A027",
"nQ 	c #974E01",
"oQ 	c #A75600",
"pQ 	c #AB5B00",
"qQ 	c #B76801",
"rQ 	c #996806",
"sQ 	c #9F6D0D",
"tQ 	c #A1710F",
"uQ 	c #C7AB1D",
"vQ 	c #E3C324",
"wQ 	c #E3C126",
"xQ 	c #C4AD1C",
"yQ 	c #633302",
"zQ 	c #652A00",
"AQ 	c #662A00",
"BQ 	c #CA7F01",
"CQ 	c #DA8A03",
"DQ 	c #E38F02",
"EQ 	c #F2A512",
"FQ 	c #FEC627",
"GQ 	c #FECA29",
"HQ 	c #FFCE40",
"IQ 	c #FDF8AA",
"JQ 	c #FEFFBA",
"KQ 	c #FEFFBE",
"LQ 	c #FEF6A2",
"MQ 	c #FFF07B",
"NQ 	c #FEF385",
"OQ 	c #FEF282",
"PQ 	c #FDBE2C",
"QQ 	c #FDBB1A",
"RQ 	c #FBBB11",
"SQ 	c #B17407",
"TQ 	c #894307",
"UQ 	c #927525",
"VQ 	c #967821",
"WQ 	c #9A7C26",
"XQ 	c #B29C30",
"YQ 	c #E4D74E",
"ZQ 	c #E5D74F",
"`Q 	c #E4D047",
" R 	c #C98711",
".R 	c #C48007",
"+R 	c #C4830E",
"@R 	c #DCC240",
"#R 	c #E7CD3B",
"$R 	c #E3BE21",
"%R 	c #AA8813",
"&R 	c #723801",
"*R 	c #935F10",
"=R 	c #E0D240",
"-R 	c #E4D141",
";R 	c #E0C938",
">R 	c #A78521",
",R 	c #CD7D00",
"'R 	c #CC7900",
")R 	c #C47301",
"!R 	c #D0A004",
"~R 	c #DB9603",
"{R 	c #D88D02",
"]R 	c #795E01",
"^R 	c #014900",
"/R 	c #005100",
"(R 	c #006701",
"_R 	c #006E02",
":R 	c #0A760B",
"<R 	c #569C51",
"[R 	c #55A151",
"}R 	c #56A654",
"|R 	c #47CE49",
"1R 	c #45D74A",
"2R 	c #4DD053",
"3R 	c #43C44A",
"4R 	c #06A310",
"5R 	c #029E0E",
"6R 	c #03A513",
"7R 	c #027009",
"8R 	c #014801",
"9R 	c #044501",
"0R 	c #493700",
"aR 	c #4A2F00",
"bR 	c #B77101",
"cR 	c #CF7600",
"dR 	c #B76F01",
"eR 	c #311405",
"fR 	c #180405",
"gR 	c #3B1403",
"hR 	c #0E0506",
"iR 	c #090306",
"jR 	c #090207",
"kR 	c #3A1604",
"lR 	c #461402",
"mR 	c #481501",
"nR 	c #8E4501",
"oR 	c #E3AD15",
"pR 	c #F9BB1A",
"qR 	c #FAC21D",
"rR 	c #E1B41D",
"sR 	c #672902",
"tR 	c #190504",
"uR 	c #210605",
"vR 	c #2B0802",
"wR 	c #330D02",
"xR 	c #AE5800",
"yR 	c #BD6401",
"zR 	c #8B4000",
"AR 	c #994B01",
"BR 	c #DBA014",
"CR 	c #FBBA1C",
"DR 	c #FBBD1D",
"ER 	c #D8B921",
"FR 	c #643103",
"GR 	c #D89D13",
"HR 	c #FDB518",
"IR 	c #FAB618",
"JR 	c #BA9D15",
"KR 	c #361001",
"LR 	c #B76D01",
"MR 	c #C88001",
"NR 	c #672D00",
"OR 	c #6B3A02",
"PR 	c #F0B816",
"QR 	c #FBC121",
"RR 	c #F8C324",
"SR 	c #A1861C",
"TR 	c #673704",
"UR 	c #643504",
"VR 	c #713A02",
"WR 	c #A45200",
"XR 	c #E6B308",
"YR 	c #FCBF0D",
"ZR 	c #FDB708",
"`R 	c #FCC42B",
" S 	c #FDEC50",
".S 	c #FDED4D",
"+S 	c #FDEE6A",
"@S 	c #FEFDDD",
"#S 	c #FFFFDE",
"$S 	c #FFFFD8",
"%S 	c #FEFED3",
"&S 	c #FEFFD3",
"*S 	c #FEFDCC",
"=S 	c #FEE857",
"-S 	c #FEE648",
";S 	c #FDE33A",
">S 	c #C4951F",
",S 	c #8E5916",
"'S 	c #F1DE48",
")S 	c #FBE345",
"!S 	c #FAE549",
"~S 	c #A38C30",
"{S 	c #61340B",
"]S 	c #62350D",
"^S 	c #926F0E",
"/S 	c #FAB80F",
"(S 	c #FCB611",
"_S 	c #E7B20E",
":S 	c #914E0A",
"<S 	c #8D4908",
"[S 	c #894502",
"}S 	c #B06001",
"|S 	c #BE6A01",
"1S 	c #703E08",
"2S 	c #67360A",
"3S 	c #653508",
"4S 	c #884302",
"5S 	c #A45A00",
"6S 	c #EFAA04",
"7S 	c #EBA003",
"8S 	c #6B5602",
"9S 	c #2C4100",
"0S 	c #2B4200",
"aS 	c #134900",
"bS 	c #005300",
"cS 	c #005600",
"dS 	c #007001",
"eS 	c #009A06",
"fS 	c #009F06",
"gS 	c #21A822",
"hS 	c #ADE4A9",
"iS 	c #A6F8A1",
"jS 	c #A7FAA2",
"kS 	c #99FA9A",
"lS 	c #9CFB9C",
"mS 	c #ABFCAE",
"nS 	c #A3EAA7",
"oS 	c #1CC527",
"pS 	c #08D124",
"qS 	c #0DDB2C",
"rS 	c #05A117",
"sS 	c #017F02",
"tS 	c #007401",
"uS 	c #014B00",
"vS 	c #052200",
"wS 	c #1E2600",
"xS 	c #B67101",
"yS 	c #DD8500",
"zS 	c #BE7801",
"AS 	c #321504",
"BS 	c #341004",
"CS 	c #391204",
"DS 	c #371105",
"ES 	c #090106",
"FS 	c #381604",
"GS 	c #853A00",
"HS 	c #8D4401",
"IS 	c #E3AA11",
"JS 	c #FCB818",
"KS 	c #FCBF1C",
"LS 	c #E3B41D",
"MS 	c #A05301",
"NS 	c #A15000",
"OS 	c #954800",
"PS 	c #6A2B00",
"QS 	c #180504",
"RS 	c #280805",
"SS 	c #260703",
"TS 	c #340D02",
"US 	c #B35B00",
"VS 	c #793400",
"WS 	c #D69B0D",
"XS 	c #FCB515",
"YS 	c #FCB918",
"ZS 	c #D8B81E",
"`S 	c #6B3502",
" T 	c #D6990D",
".T 	c #FBB114",
"+T 	c #F9B315",
"@T 	c #BA9E14",
"#T 	c #3D1301",
"$T 	c #3B0F00",
"%T 	c #401301",
"&T 	c #B56A01",
"*T 	c #D67D00",
"=T 	c #CA8101",
"-T 	c #5F2200",
";T 	c #693802",
">T 	c #F1B719",
",T 	c #FEC222",
"'T 	c #FBC422",
")T 	c #9F8317",
"!T 	c #5D2000",
"~T 	c #743400",
"{T 	c #E9B90D",
"]T 	c #FFC715",
"^T 	c #FEC111",
"/T 	c #FECB2F",
"(T 	c #FEEF55",
"_T 	c #FEF052",
":T 	c #FDF06B",
"<T 	c #FEFDDC",
"[T 	c #FEFFE1",
"}T 	c #FEFFD5",
"|T 	c #FEEB5D",
"1T 	c #FFEB4F",
"2T 	c #FDE53E",
"3T 	c #C69720",
"4T 	c #8E5A17",
"5T 	c #F4DC46",
"6T 	c #FDE341",
"7T 	c #A28C27",
"8T 	c #591C00",
"9T 	c #8E6B06",
"0T 	c #FCB90F",
"aT 	c #FEB610",
"bT 	c #E8AF0D",
"cT 	c #8A4301",
"dT 	c #9F4D01",
"eT 	c #A25C00",
"fT 	c #EEAA02",
"gT 	c #F29F01",
"hT 	c #EAA103",
"iT 	c #645301",
"jT 	c #013C00",
"kT 	c #003C00",
"lT 	c #005700",
"mT 	c #005900",
"nT 	c #007602",
"oT 	c #01A007",
"pT 	c #00A407",
"qT 	c #20A922",
"rT 	c #ABE6A8",
"sT 	c #A7FBA1",
"tT 	c #A7FCA2",
"uT 	c #97FC96",
"vT 	c #A0FD9D",
"wT 	c #B4FEB4",
"xT 	c #ACEBAC",
"yT 	c #25C42C",
"zT 	c #14CF27",
"AT 	c #1BDB34",
"BT 	c #10A51E",
"CT 	c #008102",
"DT 	c #007601",
"ET 	c #012600",
"FT 	c #192700",
"GT 	c #B46D01",
"HT 	c #D78100",
"IT 	c #BD7300",
"JT 	c #311504",
"KT 	c #320F04",
"LT 	c #371104",
"MT 	c #351004",
"NT 	c #080204",
"OT 	c #220903",
"PT 	c #612A02",
"QT 	c #6A2D02",
"RT 	c #8C4201",
"ST 	c #884300",
"TT 	c #894200",
"UT 	c #9B6508",
"VT 	c #C69C19",
"WT 	c #C29719",
"XT 	c #C3961A",
"YT 	c #C39A0E",
"ZT 	c #C8A014",
"`T 	c #CDA716",
" U 	c #BF9514",
".U 	c #984900",
"+U 	c #5F2602",
"@U 	c #572102",
"#U 	c #2F0D04",
"$U 	c #572203",
"%U 	c #602902",
"&U 	c #672C02",
"*U 	c #904C01",
"=U 	c #9F5100",
"-U 	c #AD6001",
";U 	c #965000",
">U 	c #924A00",
",U 	c #914A00",
"'U 	c #863E00",
")U 	c #894100",
"!U 	c #AD6901",
"~U 	c #AF6A01",
"{U 	c #B27101",
"]U 	c #B78A07",
"^U 	c #CDA00E",
"/U 	c #CEA00E",
"(U 	c #BF9510",
"_U 	c #A55501",
":U 	c #DCAA26",
"<U 	c #FAC12B",
"[U 	c #F8BF26",
"}U 	c #C2A01E",
"|U 	c #803F01",
"1U 	c #7F4001",
"2U 	c #7F4201",
"3U 	c #C0962D",
"4U 	c #E3B43C",
"5U 	c #E8B435",
"6U 	c #CEA128",
"7U 	c #5A2B03",
"8U 	c #673A04",
"9U 	c #F1C22D",
"0U 	c #FDD03D",
"aU 	c #FBD23C",
"bU 	c #9F861E",
"cU 	c #844300",
"dU 	c #C36C00",
"eU 	c #C76B02",
"fU 	c #F3C92A",
"gU 	c #FFDA35",
"hU 	c #FFD830",
"iU 	c #FEDD40",
"jU 	c #FEF35F",
"kU 	c #FFEF51",
"lU 	c #FEEB67",
"mU 	c #FEFCDF",
"nU 	c #FEFFE3",
"oU 	c #FFFFDF",
"pU 	c #FFFFDC",
"qU 	c #FEFEDA",
"rU 	c #FDEB5D",
"sU 	c #FEEC4E",
"tU 	c #FEE844",
"uU 	c #D8A028",
"vU 	c #C26C00",
"wU 	c #B25D00",
"xU 	c #AE6C1F",
"yU 	c #F6E358",
"zU 	c #FFE448",
"AU 	c #FDE23D",
"BU 	c #A48B22",
"CU 	c #5A1E01",
"DU 	c #8F6F16",
"EU 	c #FCCF3A",
"FU 	c #FED03E",
"GU 	c #E8C639",
"HU 	c #7B4005",
"IU 	c #984D00",
"JU 	c #A35300",
"KU 	c #9F5000",
"LU 	c #A15601",
"MU 	c #A98F13",
"NU 	c #AA941E",
"OU 	c #AF9022",
"PU 	c #C1A136",
"QU 	c #C5AB39",
"RU 	c #C7A835",
"SU 	c #B08C26",
"TU 	c #B38B02",
"UU 	c #B58B03",
"VU 	c #B08E03",
"WU 	c #515101",
"XU 	c #014600",
"YU 	c #006901",
"ZU 	c #017B02",
"`U 	c #027F04",
" V 	c #3D973E",
".V 	c #64C465",
"+V 	c #5DC966",
"@V 	c #67D171",
"#V 	c #BCF2BD",
"$V 	c #D0FDCB",
"%V 	c #D3FDCC",
"&V 	c #D5FEC9",
"*V 	c #E6FFD8",
"=V 	c #EBFFE4",
"-V 	c #D6F7D0",
";V 	c #9FEA9C",
">V 	c #60E568",
",V 	c #60E869",
"'V 	c #52BA54",
")V 	c #018D07",
"!V 	c #016503",
"~V 	c #003100",
"{V 	c #0F3200",
"]V 	c #8B6502",
"^V 	c #B47C02",
"/V 	c #9F6C02",
"(V 	c #2E1304",
"_V 	c #200704",
":V 	c #240805",
"<V 	c #2D0D04",
"[V 	c #2B0C04",
"}V 	c #290B04",
"|V 	c #130505",
"1V 	c #0A0405",
"2V 	c #0A0406",
"3V 	c #2F0D03",
"4V 	c #360F03",
"5V 	c #8C4501",
"6V 	c #C68712",
"7V 	c #FAC623",
"8V 	c #F9BD22",
"9V 	c #F6C426",
"0V 	c #91690C",
"aV 	c #521F00",
"bV 	c #562301",
"cV 	c #743301",
"dV 	c #883C01",
"eV 	c #320E04",
"fV 	c #2C0904",
"gV 	c #2D0B05",
"hV 	c #220706",
"iV 	c #763900",
"jV 	c #8C4300",
"kV 	c #E29302",
"lV 	c #DE8601",
"mV 	c #E08B02",
"nV 	c #895901",
"oV 	c #602800",
"pV 	c #905001",
"qV 	c #BD6800",
"rV 	c #A05101",
"sV 	c #E0BE31",
"tV 	c #FDCF33",
"uV 	c #FDCB2D",
"vV 	c #CDA624",
"wV 	c #9B5002",
"xV 	c #DEC337",
"yV 	c #FDE145",
"zV 	c #FEE043",
"AV 	c #DBC536",
"BV 	c #4B2C05",
"CV 	c #5C3C07",
"DV 	c #F3D638",
"EV 	c #FFE249",
"FV 	c #FCE44A",
"GV 	c #A18B27",
"HV 	c #D67902",
"IV 	c #F6D136",
"JV 	c #FEE747",
"KV 	c #FFEB49",
"LV 	c #FEE948",
"MV 	c #FEF156",
"NV 	c #FFEC46",
"OV 	c #FEE762",
"PV 	c #FEFCE0",
"QV 	c #FEFFDF",
"RV 	c #FEFFDD",
"SV 	c #FDFDDC",
"TV 	c #FDE95B",
"UV 	c #FEEB4C",
"VV 	c #FEE946",
"WV 	c #E6AB27",
"XV 	c #BE761F",
"YV 	c #F7E85E",
"ZV 	c #FCE33E",
"`V 	c #9E891E",
" W 	c #887622",
".W 	c #FBE651",
"+W 	c #FFE750",
"@W 	c #E9D54A",
"#W 	c #693808",
"$W 	c #7F4501",
"%W 	c #F3C00F",
"&W 	c #FABA18",
"*W 	c #F9BD1D",
"=W 	c #FAD33E",
"-W 	c #FDE142",
";W 	c #FCDD3F",
">W 	c #BFAD34",
",W 	c #253B02",
"'W 	c #183D00",
")W 	c #153D00",
"!W 	c #074E00",
"~W 	c #005400",
"{W 	c #018B03",
"]W 	c #019D04",
"^W 	c #02A308",
"/W 	c #4EBA54",
"(W 	c #6CEF78",
"_W 	c #61EE71",
":W 	c #67ED78",
"<W 	c #DBF9D9",
"[W 	c #FBFFF3",
"}W 	c #FCFFF2",
"|W 	c #FCFFF1",
"1W 	c #FAFFEE",
"2W 	c #F9FFF1",
"3W 	c #E6FEE0",
"4W 	c #D3FECB",
"5W 	c #75ED7A",
"6W 	c #6AED70",
"7W 	c #62C562",
"8W 	c #04AA0F",
"9W 	c #039C0C",
"0W 	c #017304",
"aW 	c #003500",
"bW 	c #003300",
"cW 	c #133900",
"dW 	c #1F4502",
"eW 	c #234602",
"fW 	c #2A2803",
"gW 	c #2D0C03",
"hW 	c #220805",
"iW 	c #220804",
"jW 	c #240702",
"kW 	c #2A0901",
"lW 	c #8D4502",
"mW 	c #C78A13",
"nW 	c #FCC823",
"oW 	c #FDC322",
"pW 	c #FAC924",
"qW 	c #96740B",
"rW 	c #8F4302",
"sW 	c #461803",
"tW 	c #703600",
"uW 	c #C66C00",
"vW 	c #824600",
"wW 	c #E69401",
"xW 	c #E48E02",
"yW 	c #8F5A01",
"zW 	c #682500",
"AW 	c #914C00",
"BW 	c #BD6600",
"CW 	c #A55401",
"DW 	c #E0B92D",
"EW 	c #FCCA28",
"FW 	c #CDA822",
"GW 	c #9F5202",
"HW 	c #E1BF34",
"IW 	c #DBC537",
"JW 	c #4E2C06",
"KW 	c #481301",
"LW 	c #5E3D06",
"MW 	c #F3D430",
"NW 	c #FDDF42",
"OW 	c #A58D26",
"PW 	c #D27800",
"QW 	c #DD8003",
"RW 	c #F8D339",
"SW 	c #FFE94A",
"TW 	c #FFED4D",
"UW 	c #FFE946",
"VW 	c #FFED4B",
"WW 	c #FFEC43",
"XW 	c #FEEA5C",
"YW 	c #FEFDD8",
"ZW 	c #FEFFE2",
"`W 	c #FFFFDD",
" X 	c #FEFDD6",
".X 	c #FEE353",
"+X 	c #FEE643",
"@X 	c #E3A72A",
"#X 	c #C96F00",
"$X 	c #C37715",
"%X 	c #F7DF48",
"&X 	c #FEDF3F",
"*X 	c #FCDD35",
"=X 	c #A18A1C",
"-X 	c #471100",
";X 	c #86701D",
">X 	c #FBE349",
",X 	c #FFE347",
"'X 	c #E8D140",
")X 	c #653706",
"!X 	c #F5BA0C",
"~X 	c #FBB511",
"{X 	c #FBBD17",
"]X 	c #FAD23A",
"^X 	c #FFDE41",
"/X 	c #BEB038",
"(X 	c #1B3902",
"_X 	c #053600",
":X 	c #023500",
"<X 	c #025600",
"[X 	c #005B00",
"}X 	c #018B04",
"|X 	c #019A05",
"1X 	c #01A208",
"2X 	c #56C05C",
"3X 	c #74EF7F",
"4X 	c #5FED6E",
"5X 	c #66EF75",
"6X 	c #D9FAD6",
"7X 	c #FBFFF1",
"8X 	c #F8FFEC",
"9X 	c #F4FFE5",
"0X 	c #F5FFEB",
"aX 	c #E7FEE0",
"bX 	c #D5FDCB",
"cX 	c #6DE670",
"dX 	c #59E863",
"eX 	c #4FC653",
"fX 	c #02A60C",
"gX 	c #029B0B",
"hX 	c #017A04",
"iX 	c #003700",
"jX 	c #003000",
"kX 	c #013000",
"lX 	c #043401",
"mX 	c #083302",
"nX 	c #171B03",
"oX 	c #300D02",
"pX 	c #2B0B03",
"qX 	c #1E0605",
"rX 	c #2C1A04",
"sX 	c #683F03",
"tX 	c #5A3301",
"uX 	c #5C3201",
"vX 	c #844101",
"wX 	c #B1770D",
"xX 	c #E1AC19",
"yX 	c #D99E15",
"zX 	c #D7A415",
"AX 	c #8B4C01",
"BX 	c #7D3900",
"CX 	c #7B3700",
"DX 	c #310D04",
"EX 	c #0B0006",
"FX 	c #6D2E01",
"GX 	c #642D00",
"HX 	c #A65700",
"IX 	c #9A4E00",
"JX 	c #8B4200",
"KX 	c #CE8400",
"LX 	c #CA7D01",
"MX 	c #A56700",
"NX 	c #9C5800",
"OX 	c #A15D00",
"PX 	c #AA6900",
"QX 	c #A95A01",
"RX 	c #A45700",
"SX 	c #984E01",
"TX 	c #DDA31D",
"UX 	c #F3B01B",
"VX 	c #F2B019",
"WX 	c #BF9116",
"XX 	c #9A4B00",
"YX 	c #934801",
"ZX 	c #DBA927",
"`X 	c #F9C12D",
" Y 	c #F6C431",
".Y 	c #D3B430",
"+Y 	c #4E2905",
"@Y 	c #583103",
"#Y 	c #E2B11E",
"$Y 	c #EDB527",
"%Y 	c #EBB728",
"&Y 	c #9C7514",
"*Y 	c #945D01",
"=Y 	c #DD8E02",
"-Y 	c #E99004",
";Y 	c #FAD843",
">Y 	c #FFEB52",
",Y 	c #FEE968",
"'Y 	c #FEED94",
")Y 	c #FEF090",
"!Y 	c #FDEF96",
"~Y 	c #FEFAC4",
"{Y 	c #FDF3C0",
"]Y 	c #FDF5C0",
"^Y 	c #FEF9C5",
"/Y 	c #FEFDC4",
"(Y 	c #FEFEBE",
"_Y 	c #FEFBC2",
":Y 	c #FED342",
"<Y 	c #FED127",
"[Y 	c #D99416",
"}Y 	c #BC6E08",
"|Y 	c #D0B025",
"1Y 	c #D2AD21",
"2Y 	c #CEAC1F",
"3Y 	c #95730F",
"4Y 	c #86590E",
"5Y 	c #E5BA31",
"6Y 	c #E5B92F",
"7Y 	c #D1AB25",
"8Y 	c #793A00",
"9Y 	c #8E4600",
"0Y 	c #8E4500",
"aY 	c #9F5901",
"bY 	c #E19809",
"cY 	c #D5940B",
"dY 	c #E7B223",
"eY 	c #FBC62F",
"fY 	c #FCCA33",
"gY 	c #BEA732",
"hY 	c #1A3A01",
"iY 	c #033800",
"jY 	c #015E00",
"kY 	c #005F00",
"lY 	c #02920A",
"mY 	c #03A20C",
"nY 	c #04AA10",
"oY 	c #69C46F",
"pY 	c #A4F4A8",
"qY 	c #95F19A",
"rY 	c #9EF4A1",
"sY 	c #E0FCDA",
"tY 	c #FDFFF2",
"uY 	c #E1F1DC",
"vY 	c #C6E6BB",
"wY 	c #C7E2C1",
"xY 	c #C2E0BB",
"yY 	c #ACE0AB",
"zY 	c #4ACE53",
"AY 	c #32CE42",
"BY 	c #2EB63C",
"CY 	c #01A309",
"DY 	c #029C09",
"EY 	c #018605",
"FY 	c #002D00",
"GY 	c #012500",
"HY 	c #022001",
"IY 	c #422302",
"JY 	c #7F3C01",
"KY 	c #813F01",
"LY 	c #210A05",
"MY 	c #0C0604",
"NY 	c #534703",
"OY 	c #E09D04",
"PY 	c #E58E01",
"QY 	c #935100",
"RY 	c #9E4C01",
"SY 	c #9E4F00",
"TY 	c #CD7E01",
"UY 	c #EA9402",
"VY 	c #E99802",
"WY 	c #D29703",
"XY 	c #5C2901",
"YY 	c #1F0804",
"ZY 	c #873C01",
"`Y 	c #B66A00",
" Z 	c #D27700",
".Z 	c #924600",
"+Z 	c #E09A02",
"@Z 	c #EF9A01",
"#Z 	c #D49E03",
"$Z 	c #5F2A01",
"%Z 	c #D48B04",
"&Z 	c #EB9602",
"*Z 	c #EA9302",
"=Z 	c #B67302",
"-Z 	c #733100",
";Z 	c #D38C06",
">Z 	c #F4A106",
",Z 	c #F29E05",
"'Z 	c #D09B09",
")Z 	c #472502",
"!Z 	c #502101",
"~Z 	c #CD7602",
"{Z 	c #D78102",
"]Z 	c #D98502",
"^Z 	c #975901",
"/Z 	c #692700",
"(Z 	c #A06B01",
"_Z 	c #F5AC03",
":Z 	c #F7A603",
"<Z 	c #FBE04E",
"[Z 	c #FEF35E",
"}Z 	c #FFF460",
"|Z 	c #FEF395",
"1Z 	c #FEFEE2",
"2Z 	c #FFFFE0",
"3Z 	c #FFFFE2",
"4Z 	c #FEFACE",
"5Z 	c #FFE74F",
"6Z 	c #FFF58A",
"7Z 	c #FEFEA2",
"8Z 	c #FFFE9C",
"9Z 	c #FEFBA6",
"0Z 	c #FEC333",
"aZ 	c #FFBF0A",
"bZ 	c #FDC00D",
"cZ 	c #CB8404",
"dZ 	c #AB5600",
"eZ 	c #783301",
"fZ 	c #CF7903",
"gZ 	c #CE7702",
"hZ 	c #C37503",
"iZ 	c #4C1B00",
"jZ 	c #A76200",
"kZ 	c #D47D01",
"lZ 	c #D99C02",
"mZ 	c #5B3E01",
"nZ 	c #4B2701",
"oZ 	c #CC9407",
"pZ 	c #F9AE0C",
"qZ 	c #FAB010",
"rZ 	c #BE9B18",
"sZ 	c #193F00",
"tZ 	c #034000",
"uZ 	c #013B00",
"vZ 	c #016100",
"wZ 	c #006800",
"xZ 	c #0AB81C",
"yZ 	c #0AC81D",
"zZ 	c #0BCB1F",
"AZ 	c #80D280",
"BZ 	c #DAFDD3",
"CZ 	c #E1FFD8",
"DZ 	c #E4FFDB",
"EZ 	c #F1FEE8",
"FZ 	c #FBFFF0",
"GZ 	c #FAFEF0",
"HZ 	c #B3D8AF",
"IZ 	c #23BB25",
"JZ 	c #1DAE1F",
"KZ 	c #1BA91D",
"LZ 	c #17A91B",
"MZ 	c #04B30E",
"NZ 	c #03B50D",
"OZ 	c #04AF0E",
"PZ 	c #01AD0D",
"QZ 	c #03AA0C",
"RZ 	c #028E07",
"SZ 	c #004400",
"TZ 	c #012400",
"UZ 	c #021D00",
"VZ 	c #633001",
"WZ 	c #230A04",
"XZ 	c #0B0504",
"YZ 	c #544503",
"ZZ 	c #D89104",
"`Z 	c #DB8101",
" ` 	c #904E01",
".` 	c #E79202",
"+` 	c #E38A01",
"@` 	c #CB7C01",
"#` 	c #512001",
"$` 	c #4C1A01",
"%` 	c #381004",
"&` 	c #1F0904",
"*` 	c #863C01",
"=` 	c #7C3700",
"-` 	c #662600",
";` 	c #B66800",
">` 	c #D37A00",
",` 	c #914600",
"'` 	c #E19602",
")` 	c #ED9602",
"!` 	c #EC9502",
"~` 	c #D49502",
"{` 	c #612801",
"]` 	c #D08001",
"^` 	c #E38C01",
"/` 	c #E38C00",
"(` 	c #B47801",
"_` 	c #D08E05",
":` 	c #F5A203",
"<` 	c #D29F07",
"[` 	c #452601",
"}` 	c #411001",
"|` 	c #4E2001",
"1` 	c #CF7900",
"2` 	c #D17D01",
"3` 	c #985C01",
"4` 	c #9C6201",
"5` 	c #F4A704",
"6` 	c #F9AA05",
"7` 	c #F8A808",
"8` 	c #FCE152",
"9` 	c #FEF561",
"0` 	c #FFF665",
"a` 	c #FEF693",
"b` 	c #FFFFE1",
"c` 	c #FFFACA",
"d` 	c #FFE84E",
"e` 	c #FFEA4E",
"f` 	c #FFF697",
"g` 	c #FFFFAE",
"h` 	c #FEFBAB",
"i` 	c #FEC035",
"j` 	c #FEBE0D",
"k` 	c #FDC513",
"l` 	c #CB8A07",
"m` 	c #9E4E00",
"n` 	c #A25200",
"o` 	c #3E0C01",
"p` 	c #974F00",
"q` 	c #C26B00",
"r` 	c #D8A506",
"s` 	c #4C3C01",
"t` 	c #371901",
"u` 	c #C59907",
"v` 	c #F9AD0A",
"w` 	c #F9AF0E",
"x` 	c #BA9F18",
"y` 	c #174200",
"z` 	c #044200",
"A` 	c #013D00",
"B` 	c #006700",
"C` 	c #006600",
"D` 	c #10B320",
"E` 	c #12CE25",
"F` 	c #10CE25",
"G` 	c #83D684",
"H` 	c #DAFED3",
"I` 	c #D7FFCC",
"J` 	c #E7FEDE",
"K` 	c #F8FFF0",
"L` 	c #F7FEED",
"M` 	c #B1DAA7",
"N` 	c #12BD15",
"O` 	c #01B107",
"P` 	c #00AD06",
"Q` 	c #00AC07",
"R` 	c #00AF0B",
"S` 	c #01B40E",
"T` 	c #01B10D",
"U` 	c #01B00E",
"V` 	c #02AA0B",
"W` 	c #028B05",
"X` 	c #004000",
"Y` 	c #002F00",
"Z` 	c #012000",
"`` 	c #011C00",
"  .	c #582C02",
". .	c #8E4400",
"+ .	c #7F3B01",
"@ .	c #1F0803",
"# .	c #524003",
"$ .	c #D58902",
"% .	c #D98001",
"& .	c #985201",
"* .	c #935605",
"= .	c #BF840C",
"- .	c #BB7B05",
"; .	c #BB7E05",
"> .	c #C48202",
", .	c #CE8B03",
"' .	c #CD8402",
") .	c #B57102",
"! .	c #441A02",
"~ .	c #3B1201",
"{ .	c #441602",
"] .	c #401503",
"^ .	c #300D05",
"/ .	c #1E0805",
"( .	c #803802",
"_ .	c #B56800",
": .	c #CB8402",
"< .	c #D28501",
"[ .	c #D18401",
"} .	c #C68D03",
"| .	c #A97103",
"1 .	c #AA7103",
"2 .	c #A87003",
"3 .	c #C87D02",
"4 .	c #C08501",
"5 .	c #BF8701",
"6 .	c #976902",
"7 .	c #D2A024",
"8 .	c #F7BB2F",
"9 .	c #F6BB31",
"0 .	c #D0A91B",
"a .	c #492602",
"b .	c #542A02",
"c .	c #D29A15",
"d .	c #DAA11B",
"e .	c #DA9F17",
"f .	c #966706",
"g .	c #612100",
"h .	c #F3A303",
"i .	c #F8A806",
"j .	c #F7A608",
"k .	c #FBDA4E",
"l .	c #FEED5F",
"m .	c #FEF05F",
"n .	c #FFFCD3",
"o .	c #FEEFA1",
"p .	c #FEF0A3",
"q .	c #FEF6A7",
"r .	c #FFFB9C",
"s .	c #FFFB95",
"t .	c #FEF69C",
"u .	c #FCB830",
"v .	c #FBBF0F",
"w .	c #C78304",
"x .	c #9E5404",
"y .	c #AC921C",
"z .	c #AE941B",
"A .	c #B29D19",
"B .	c #9B6C0B",
"C .	c #914500",
"D .	c #934800",
"E .	c #974C00",
"F .	c #BC6700",
"G .	c #BC6E02",
"H .	c #AC9009",
"I .	c #AA8D0A",
"J .	c #A67E07",
"K .	c #BA7C03",
"L .	c #D27C00",
"M .	c #B6960A",
"N .	c #433103",
"O .	c #341802",
"P .	c #C19807",
"Q .	c #F6A908",
"R .	c #F8AC0B",
"S .	c #BA9C12",
"T .	c #164100",
"U .	c #013A00",
"V .	c #006B00",
"W .	c #026D02",
"X .	c #56BF58",
"Y .	c #63DD68",
"Z .	c #5ADB62",
"` .	c #86DD88",
" ..	c #C3F9BF",
"...	c #B4F8AE",
"+..	c #ACF6AA",
"@..	c #B9E5B5",
"#..	c #C5EBC1",
"$..	c #C2E7BD",
"%..	c #86CC7E",
"&..	c #0CC214",
"*..	c #03BD11",
"=..	c #06C21F",
"-..	c #09C428",
";..	c #03BD1A",
">..	c #02C017",
",..	c #02B210",
"'..	c #02A90A",
")..	c #02A007",
"!..	c #018102",
"~..	c #002E00",
"{..	c #001F00",
"]..	c #011D00",
"^..	c #653C01",
"/..	c #AB6000",
"(..	c #9C5401",
"_..	c #250E03",
":..	c #0A0504",
"<..	c #533B03",
"[..	c #D78701",
"}..	c #D57B01",
"|..	c #B57708",
"1..	c #F8BA17",
"2..	c #F6C11C",
"3..	c #AA6B05",
"4..	c #813B01",
"5..	c #170306",
"6..	c #140306",
"7..	c #1A0604",
"8..	c #692D00",
"9..	c #AD5900",
"0..	c #B26500",
"a..	c #C97000",
"b..	c #B47F04",
"c..	c #F5AB06",
"d..	c #F6AA0B",
"e..	c #F6B211",
"f..	c #D6910B",
"g..	c #FECF32",
"h..	c #DAC430",
"i..	c #522C05",
"j..	c #613A05",
"k..	c #F0CD2C",
"l..	c #FAD535",
"m..	c #9E8521",
"n..	c #F9A503",
"o..	c #FAA705",
"p..	c #FCD832",
"q..	c #FFE53C",
"r..	c #FFE63A",
"s..	c #FEEC7C",
"t..	c #FFFFD7",
"u..	c #FEFFD6",
"v..	c #FEFAB4",
"w..	c #FFF578",
"x..	c #FFF36E",
"y..	c #FFEE69",
"z..	c #FDAB19",
"A..	c #FDA901",
"B..	c #FBAE03",
"C..	c #C17701",
"D..	c #8F5B13",
"E..	c #F2DA3C",
"F..	c #FDDB35",
"G..	c #FCDA2C",
"H..	c #A48817",
"I..	c #743600",
"J..	c #AC5500",
"K..	c #B26603",
"L..	c #F7C718",
"M..	c #FCC81A",
"N..	c #FCC018",
"O..	c #F8B00B",
"P..	c #F6A502",
"Q..	c #F6A301",
"R..	c #EFA702",
"S..	c #533902",
"T..	c #290A02",
"U..	c #311604",
"V..	c #BB950D",
"W..	c #F5A607",
"X..	c #F8A908",
"Y..	c #BD9B09",
"Z..	c #173C00",
"`..	c #013900",
" +.	c #003900",
".+.	c #007701",
"++.	c #027B03",
"@+.	c #5BCC63",
"#+.	c #74F07F",
"$+.	c #79F384",
"%+.	c #84ED8A",
"&+.	c #9AF59A",
"*+.	c #85F589",
"=+.	c #82F088",
"-+.	c #31B834",
";+.	c #17A619",
">+.	c #16A718",
",+.	c #0CBB14",
"'+.	c #03BF11",
")+.	c #02BC11",
"!+.	c #0AD02A",
"~+.	c #0FDD36",
"{+.	c #09D029",
"]+.	c #07CC23",
"^+.	c #03AC13",
"/+.	c #019003",
"(+.	c #018603",
"_+.	c #016C02",
":+.	c #003A00",
"<+.	c #734101",
"[+.	c #BE6901",
"}+.	c #331703",
"|+.	c #090405",
"1+.	c #523503",
"2+.	c #D27F01",
"3+.	c #CD7400",
"4+.	c #D07500",
"5+.	c #B27203",
"6+.	c #F6AD10",
"7+.	c #FBB317",
"8+.	c #F7BC1B",
"9+.	c #A96905",
"0+.	c #863D01",
"a+.	c #2E0B03",
"b+.	c #220705",
"c+.	c #1A0405",
"d+.	c #190505",
"e+.	c #712D01",
"f+.	c #602601",
"g+.	c #B06400",
"h+.	c #C66E00",
"i+.	c #F7AA07",
"j+.	c #F8AA0D",
"k+.	c #F9B115",
"l+.	c #DE980D",
"m+.	c #6F3002",
"n+.	c #D5B334",
"o+.	c #FECD2E",
"p+.	c #FECE2D",
"q+.	c #DAC533",
"r+.	c #532D05",
"s+.	c #4F1701",
"t+.	c #623B06",
"u+.	c #F0CE2F",
"v+.	c #FED535",
"w+.	c #FBD538",
"x+.	c #A08925",
"y+.	c #9C5C01",
"z+.	c #F49E01",
"A+.	c #F9A502",
"B+.	c #FBA905",
"C+.	c #FCD931",
"D+.	c #FEE53B",
"E+.	c #FFE636",
"F+.	c #FEEB77",
"G+.	c #FEFECE",
"H+.	c #FEFFCF",
"I+.	c #FEFFD1",
"J+.	c #FEFBB5",
"K+.	c #FFF067",
"L+.	c #FEAC14",
"M+.	c #FEAA01",
"N+.	c #FCAF02",
"O+.	c #BD7400",
"P+.	c #954300",
"Q+.	c #8C5813",
"R+.	c #F2D33A",
"S+.	c #FED331",
"T+.	c #FCD42B",
"U+.	c #A08615",
"V+.	c #B75E00",
"W+.	c #B05700",
"X+.	c #B76703",
"Y+.	c #F8BF1A",
"Z+.	c #FEC11C",
"`+.	c #FDBB19",
" @.	c #F9AC0B",
".@.	c #F8A703",
"+@.	c #F8A502",
"@@.	c #F1AC03",
"#@.	c #513A02",
"$@.	c #2C0A03",
"%@.	c #BA960C",
"&@.	c #F5A808",
"*@.	c #F9AB09",
"=@.	c #C29B07",
"-@.	c #1B3A00",
";@.	c #013800",
">@.	c #006801",
",@.	c #007901",
"'@.	c #017F03",
")@.	c #4DC958",
"!@.	c #70F07C",
"~@.	c #79F284",
"{@.	c #87ED8B",
"]@.	c #98F598",
"^@.	c #84F58A",
"/@.	c #86F28C",
"(@.	c #2DBC31",
"_@.	c #01A405",
":@.	c #00A404",
"<@.	c #01B80B",
"[@.	c #01BC0E",
"}@.	c #02B90F",
"|@.	c #0ACE29",
"1@.	c #0EDD34",
"2@.	c #09CF28",
"3@.	c #03A710",
"4@.	c #007F00",
"5@.	c #017600",
"6@.	c #015B00",
"7@.	c #003400",
"8@.	c #032A00",
"9@.	c #082700",
"0@.	c #BD6901",
"a@.	c #351703",
"b@.	c #080305",
"c@.	c #4C2E02",
"d@.	c #C37201",
"e@.	c #A35401",
"f@.	c #904401",
"g@.	c #A26102",
"h@.	c #E19608",
"i@.	c #E69E0D",
"j@.	c #E4A20F",
"k@.	c #A25E03",
"l@.	c #8F4501",
"m@.	c #8C4301",
"n@.	c #7D3902",
"o@.	c #5B2702",
"p@.	c #522003",
"q@.	c #3E1503",
"r@.	c #0F0304",
"s@.	c #150404",
"t@.	c #682903",
"u@.	c #6E2C02",
"v@.	c #612601",
"w@.	c #612501",
"x@.	c #672C00",
"y@.	c #AC5901",
"z@.	c #833F00",
"A@.	c #B46200",
"B@.	c #B66300",
"C@.	c #B96500",
"D@.	c #A55300",
"E@.	c #A65300",
"F@.	c #8D4100",
"G@.	c #AD7A06",
"H@.	c #E1A608",
"I@.	c #E3AB0E",
"J@.	c #E4B715",
"K@.	c #CE950C",
"L@.	c #743501",
"M@.	c #6E2E00",
"N@.	c #864000",
"O@.	c #894401",
"P@.	c #8E4D01",
"Q@.	c #C8A729",
"R@.	c #E1BE28",
"S@.	c #E3C026",
"T@.	c #C7B329",
"U@.	c #5C2D03",
"V@.	c #6D4107",
"W@.	c #F2CD30",
"X@.	c #FECE30",
"Y@.	c #FBCE33",
"Z@.	c #A68B26",
"`@.	c #935602",
" #.	c #DE9001",
".#.	c #E39701",
"+#.	c #E29803",
"@#.	c #F5CD26",
"##.	c #FCD933",
"$#.	c #FEDE63",
"%#.	c #FEF2B4",
"&#.	c #FEF4BC",
"*#.	c #FDF3BC",
"=#.	c #FDF3BF",
"-#.	c #FEF5BE",
";#.	c #FDF6BA",
">#.	c #FBECA2",
",#.	c #F9E177",
"'#.	c #F7E074",
")#.	c #F7DC6B",
"!#.	c #F0A31A",
"~#.	c #EEA002",
"{#.	c #EDA403",
"]#.	c #B76C01",
"^#.	c #984600",
"/#.	c #92570C",
"(#.	c #EFC62D",
"_#.	c #FAC525",
":#.	c #FAC820",
"<#.	c #A88411",
"[#.	c #652501",
"}#.	c #794906",
"|#.	c #BC8B1C",
"1#.	c #BA8B1E",
"2#.	c #BF8C20",
"3#.	c #E2BC1E",
"4#.	c #E7BD1E",
"5#.	c #E7BA24",
"6#.	c #EBAE19",
"7#.	c #F4AC19",
"8#.	c #F4AB18",
"9#.	c #ECAF15",
"0#.	c #4E3A04",
"a#.	c #331204",
"b#.	c #B18A0B",
"c#.	c #E9A60B",
"d#.	c #EBAC0C",
"e#.	c #BD9306",
"f#.	c #807005",
"g#.	c #7F7106",
"h#.	c #7B7606",
"i#.	c #3A6102",
"j#.	c #016A01",
"k#.	c #017102",
"l#.	c #3FB94C",
"m#.	c #60DC6D",
"n#.	c #66DC71",
"o#.	c #71DA74",
"p#.	c #85E582",
"q#.	c #72E876",
"r#.	c #71E578",
"s#.	c #25B82B",
"t#.	c #00A003",
"u#.	c #04BC18",
"v#.	c #06C421",
"w#.	c #04C21C",
"x#.	c #08CC26",
"y#.	c #0ACF2C",
"z#.	c #06C31F",
"A#.	c #05BD19",
"B#.	c #03970C",
"C#.	c #007200",
"D#.	c #036902",
"E#.	c #4E6302",
"F#.	c #7C6302",
"G#.	c #7D5E01",
"H#.	c #775401",
"I#.	c #784C00",
"J#.	c #744800",
"K#.	c #8E5001",
"L#.	c #B96800",
"M#.	c #BD6C01",
"N#.	c #BA6A01",
"O#.	c #653102",
"P#.	c #5E2D03",
"Q#.	c #5C2D04",
"R#.	c #3C1802",
"S#.	c #8F4201",
"T#.	c #6A2E01",
"U#.	c #491700",
"V#.	c #6C2F01",
"W#.	c #682F01",
"X#.	c #300F03",
"Y#.	c #300D03",
"Z#.	c #682E02",
"`#.	c #2C0C04",
" $.	c #1A0505",
".$.	c #522103",
"+$.	c #4B1801",
"@$.	c #692F01",
"#$.	c #994B00",
"$$.	c #AA5901",
"%$.	c #763701",
"&$.	c #6E3501",
"*$.	c #BE7001",
"=$.	c #D07D01",
"-$.	c #D28001",
";$.	c #CC7901",
">$.	c #DC8501",
",$.	c #E18C01",
"'$.	c #9D6A03",
")$.	c #633002",
"!$.	c #703502",
"~$.	c #7F4706",
"{$.	c #F4CC2F",
"]$.	c #FECD2F",
"^$.	c #FBCF34",
"/$.	c #AB8E2D",
"($.	c #E49302",
"_$.	c #FBA405",
":$.	c #FCAC04",
"<$.	c #FEB40E",
"[$.	c #FEC424",
"}$.	c #FEC828",
"|$.	c #FED335",
"1$.	c #FEDA3B",
"2$.	c #F7BD34",
"3$.	c #EA8719",
"4$.	c #E6861B",
"5$.	c #E48419",
"6$.	c #BA5A02",
"7$.	c #B35700",
"8$.	c #B15900",
"9$.	c #934B01",
"0$.	c #E89B06",
"a$.	c #F19E04",
"b$.	c #F2A805",
"c$.	c #9E7503",
"d$.	c #3A0D00",
"e$.	c #867216",
"f$.	c #F9DB33",
"g$.	c #FCDC35",
"h$.	c #E8CE34",
"i$.	c #764607",
"j$.	c #713502",
"k$.	c #7A3E05",
"l$.	c #CCAD23",
"m$.	c #FCCF30",
"n$.	c #F6D02B",
"o$.	c #50450A",
"p$.	c #2C0802",
"q$.	c #955002",
"r$.	c #B05D01",
"s$.	c #AD5B01",
"t$.	c #B66903",
"u$.	c #F5BC11",
"v$.	c #FAB60F",
"w$.	c #F2B10A",
"x$.	c #014300",
"y$.	c #004800",
"z$.	c #047608",
"A$.	c #08840E",
"B$.	c #098C0F",
"C$.	c #109D16",
"D$.	c #18B41D",
"E$.	c #11AE15",
"F$.	c #0EA914",
"G$.	c #029A04",
"H$.	c #009500",
"I$.	c #009B04",
"J$.	c #09CD29",
"K$.	c #0EDB35",
"L$.	c #0BD62D",
"M$.	c #05BE1E",
"N$.	c #018905",
"O$.	c #007502",
"P$.	c #005F01",
"Q$.	c #084000",
"R$.	c #9A7A02",
"S$.	c #E49101",
"T$.	c #B06000",
"U$.	c #4E2202",
"V$.	c #461C02",
"W$.	c #743701",
"X$.	c #954901",
"Y$.	c #1E0A03",
"Z$.	c #090505",
"`$.	c #3E1A02",
" %.	c #934501",
".%.	c #6E2F01",
"+%.	c #401201",
"@%.	c #682F02",
"#%.	c #693003",
"$%.	c #592001",
"%%.	c #471501",
"&%.	c #642E01",
"*%.	c #BB6300",
"=%.	c #984A00",
"-%.	c #AB5700",
";%.	c #A65500",
">%.	c #CE7600",
",%.	c #C97300",
"'%.	c #DB8300",
")%.	c #9F6501",
"!%.	c #7F4505",
"~%.	c #F1CA30",
"{%.	c #FECF31",
"]%.	c #FCD137",
"^%.	c #AD8F2D",
"/%.	c #E39000",
"(%.	c #FAA100",
"_%.	c #FBA700",
":%.	c #FDB003",
"<%.	c #FFC109",
"[%.	c #FFC209",
"}%.	c #FFC40B",
"|%.	c #FFCC1A",
"1%.	c #FFD123",
"2%.	c #FFD72C",
"3%.	c #F7BC24",
"4%.	c #EA8601",
"5%.	c #E78600",
"6%.	c #E48300",
"7%.	c #B65900",
"8%.	c #B15600",
"9%.	c #AF5600",
"0%.	c #974E00",
"a%.	c #E99C02",
"b%.	c #F19E02",
"c%.	c #F1A603",
"d%.	c #867316",
"e%.	c #FBD932",
"f%.	c #FFD632",
"g%.	c #E9CA2F",
"h%.	c #6F3804",
"i%.	c #6B2500",
"j%.	c #743001",
"k%.	c #CAA81F",
"l%.	c #FDC827",
"m%.	c #FFC826",
"n%.	c #F7CB22",
"o%.	c #524206",
"p%.	c #380F03",
"q%.	c #954C01",
"r%.	c #B76903",
"s%.	c #F8BD12",
"t%.	c #FCB20C",
"u%.	c #F6A904",
"v%.	c #7D6002",
"w%.	c #014100",
"x%.	c #016F01",
"y%.	c #007B01",
"z%.	c #008101",
"A%.	c #029408",
"B%.	c #03AD0E",
"C%.	c #01A508",
"D%.	c #019F05",
"E%.	c #009903",
"F%.	c #009902",
"G%.	c #009F05",
"H%.	c #07C823",
"I%.	c #0DD62F",
"J%.	c #0AD32A",
"K%.	c #05BB1B",
"L%.	c #008602",
"M%.	c #007300",
"N%.	c #004200",
"O%.	c #093D00",
"P%.	c #9D7602",
"Q%.	c #6F3302",
"R%.	c #3F1C02",
"S%.	c #9C4D01",
"T%.	c #A55000",
"U%.	c #A54F00",
"V%.	c #AA5100",
"W%.	c #713101",
"X%.	c #723902",
"Y%.	c #582200",
"Z%.	c #250A04",
"`%.	c #230903",
" &.	c #1D0704",
".&.	c #512102",
"+&.	c #663501",
"@&.	c #C16B01",
"#&.	c #934700",
"$&.	c #9C4E00",
"%&.	c #A25300",
"&&.	c #DB8801",
"*&.	c #DD8C01",
"=&.	c #DF9100",
"-&.	c #A36601",
";&.	c #692600",
">&.	c #844B0C",
",&.	c #EED444",
"'&.	c #FADC41",
")&.	c #F8DB44",
"!&.	c #B08E2F",
"~&.	c #6D3301",
"{&.	c #E29700",
"]&.	c #F8A500",
"^&.	c #FAA800",
"/&.	c #FBB203",
"(&.	c #FEC80D",
"_&.	c #FECB0E",
":&.	c #FECA0F",
"<&.	c #FDD32C",
"[&.	c #FED52C",
"}&.	c #F6B824",
"|&.	c #EC8801",
"1&.	c #E98600",
"2&.	c #E88600",
"3&.	c #B45A00",
"4&.	c #B55900",
"5&.	c #B05801",
"6&.	c #984E02",
"7&.	c #975004",
"8&.	c #984D04",
"9&.	c #9C5705",
"0&.	c #E6AA03",
"a&.	c #EBAB02",
"b&.	c #EBAE04",
"c&.	c #A17603",
"d&.	c #3D1200",
"e&.	c #866C11",
"f&.	c #F7DB37",
"g&.	c #F9DC38",
"h&.	c #E5CD33",
"i&.	c #6F3903",
"j&.	c #6B2A01",
"k&.	c #C6AB2B",
"l&.	c #F8D12A",
"m&.	c #F9D227",
"n&.	c #F2C91F",
"o&.	c #5E4507",
"p&.	c #472704",
"q&.	c #4A2604",
"r&.	c #B05C00",
"s&.	c #BC6D02",
"t&.	c #F7B90C",
"u&.	c #FAAF08",
"v&.	c #F4A303",
"w&.	c #856603",
"x&.	c #254600",
"y&.	c #254800",
"z&.	c #116B01",
"A&.	c #007900",
"B&.	c #007E01",
"C&.	c #019305",
"D&.	c #02B00C",
"E&.	c #019F06",
"F&.	c #009504",
"G&.	c #00A108",
"H&.	c #00AD0B",
"I&.	c #01B30F",
"J&.	c #02C91C",
"K&.	c #05D325",
"L&.	c #07D226",
"M&.	c #04C01B",
"N&.	c #018904",
"O&.	c #006A00",
"P&.	c #014F00",
"Q&.	c #1E3E00",
"R&.	c #283C00",
"S&.	c #2B3D01",
"T&.	c #A06D04",
"U&.	c #E29202",
"V&.	c #E69900",
"W&.	c #D48100",
"X&.	c #BB6500",
"Y&.	c #A35801",
"Z&.	c #371203",
"`&.	c #230703",
" *.	c #994D01",
".*.	c #210B05",
"+*.	c #331403",
"@*.	c #823C03",
"#*.	c #391404",
"$*.	c #481D03",
"%*.	c #461C04",
"&*.	c #4E2003",
"**.	c #753502",
"=*.	c #552401",
"-*.	c #542001",
";*.	c #773701",
">*.	c #A25100",
",*.	c #9E5000",
"'*.	c #954701",
")*.	c #964900",
"!*.	c #3C1202",
"~*.	c #350E02",
"{*.	c #632A01",
"]*.	c #693402",
"^*.	c #8A4100",
"/*.	c #DB8601",
"(*.	c #DC8701",
"_*.	c #C88503",
":*.	c #AC5A00",
"<*.	c #9B5000",
"[*.	c #743C00",
"}*.	c #793F00",
"|*.	c #7F4300",
"1*.	c #A95602",
"2*.	c #A26318",
"3*.	c #AA6A17",
"4*.	c #A86A18",
"5*.	c #D6A114",
"6*.	c #ECB511",
"7*.	c #ECBA15",
"8*.	c #D2AD1C",
"9*.	c #D87901",
"0*.	c #ED8A02",
"a*.	c #F08D02",
"b*.	c #F18F02",
"c*.	c #F08B04",
"d*.	c #EF8A0C",
"e*.	c #ED8B0B",
"f*.	c #E07F07",
"g*.	c #CD6700",
"h*.	c #BF6000",
"i*.	c #B95C00",
"j*.	c #743902",
"k*.	c #D4BA25",
"l*.	c #F0D433",
"m*.	c #ECCF3B",
"n*.	c #CEB742",
"o*.	c #735009",
"p*.	c #6D4902",
"q*.	c #654702",
"r*.	c #854500",
"s*.	c #954600",
"t*.	c #9A4E02",
"u*.	c #885710",
"v*.	c #855811",
"w*.	c #84530F",
"x*.	c #AA5700",
"y*.	c #90530D",
"z*.	c #84550C",
"A*.	c #85560A",
"B*.	c #94620E",
"C*.	c #E1C831",
"D*.	c #E0C12E",
"E*.	c #D6BA28",
"F*.	c #947F1F",
"G*.	c #652901",
"H*.	c #8D5602",
"I*.	c #F4B106",
"J*.	c #F9A704",
"K*.	c #C98601",
"L*.	c #C98C02",
"M*.	c #6F6102",
"N*.	c #014400",
"O*.	c #006101",
"P*.	c #017A02",
"Q*.	c #008001",
"R*.	c #008701",
"S*.	c #009104",
"T*.	c #009304",
"U*.	c #019005",
"V*.	c #018105",
"W*.	c #017609",
"X*.	c #016C07",
"Y*.	c #016704",
"Z*.	c #015501",
"`*.	c #004B00",
" =.	c #164800",
".=.	c #A67802",
"+=.	c #CF8901",
"@=.	c #CE8702",
"#=.	c #A96B03",
"$=.	c #7F4601",
"%=.	c #884D00",
"&=.	c #A35B00",
"*=.	c #B76802",
"==.	c #3A1603",
"-=.	c #1F0503",
";=.	c #6B3302",
">=.	c #1D0905",
",=.	c #040105",
"'=.	c #381603",
")=.	c #753401",
"!=.	c #3D1101",
"~=.	c #3B0E00",
"{=.	c #733500",
"]=.	c #9D4D00",
"^=.	c #924701",
"/=.	c #602801",
"(=.	c #542101",
"_=.	c #873E00",
":=.	c #DF8802",
"<=.	c #E28C02",
"[=.	c #E38D02",
"}=.	c #D19A06",
"|=.	c #AD5A00",
"1=.	c #B86200",
"2=.	c #964E00",
"3=.	c #9A4C01",
"4=.	c #DCA611",
"5=.	c #FCBD16",
"6=.	c #FBB913",
"7=.	c #DEB419",
"8=.	c #5E2000",
"9=.	c #B35800",
"0=.	c #B75900",
"a=.	c #DA7100",
"b=.	c #F18500",
"c=.	c #F68900",
"d=.	c #F68A00",
"e=.	c #F18600",
"f=.	c #F08400",
"g=.	c #EF8500",
"h=.	c #DE7800",
"i=.	c #C36100",
"j=.	c #AA4F00",
"k=.	c #663203",
"l=.	c #DEC92D",
"m=.	c #FFE33C",
"n=.	c #DBCA43",
"o=.	c #4C2A08",
"p=.	c #3D0E00",
"q=.	c #884000",
"r=.	c #9F4D00",
"s=.	c #642300",
"t=.	c #6E3000",
"u=.	c #BC6801",
"v=.	c #934A01",
"w=.	c #71450B",
"x=.	c #FEDD3B",
"y=.	c #F9D634",
"z=.	c #9F922A",
"A=.	c #885502",
"B=.	c #F4B308",
"C=.	c #FAA905",
"D=.	c #F8A404",
"E=.	c #E48E00",
"F=.	c #E49000",
"G=.	c #845D01",
"H=.	c #023E00",
"I=.	c #003D00",
"J=.	c #017001",
"K=.	c #008601",
"L=.	c #008D02",
"M=.	c #008D03",
"N=.	c #008B03",
"O=.	c #004100",
"P=.	c #184201",
"Q=.	c #B16D00",
"R=.	c #602600",
"S=.	c #944F00",
"T=.	c #BA6D02",
"U=.	c #713602",
"V=.	c #964801",
"W=.	c #200905",
"X=.	c #703102",
"Y=.	c #200803",
"Z=.	c #1D0703",
"`=.	c #210503",
" -.	c #4B1D02",
".-.	c #421900",
"+-.	c #703401",
"@-.	c #8B4501",
"#-.	c #350D02",
"$-.	c #260603",
"%-.	c #5F2802",
"&-.	c #E18B06",
"*-.	c #E59007",
"=-.	c #E58F07",
"--.	c #D0A30D",
";-.	c #BD6702",
">-.	c #BB6502",
",-.	c #9D5308",
"'-.	c #A3590B",
")-.	c #A2590C",
"!-.	c #9C5106",
"~-.	c #A45401",
"{-.	c #974A00",
"]-.	c #D9A711",
"^-.	c #F9BF18",
"/-.	c #F7B514",
"(-.	c #DDAE16",
"_-.	c #764708",
":-.	c #6C4308",
"<-.	c #683F08",
"[-.	c #AB5200",
"}-.	c #AF5300",
"|-.	c #D87000",
"1-.	c #F28700",
"2-.	c #F68B00",
"3-.	c #F58A00",
"4-.	c #EE8500",
"5-.	c #EE8600",
"6-.	c #DC7600",
"7-.	c #C16000",
"8-.	c #B15500",
"9-.	c #A14A00",
"0-.	c #632F02",
"a-.	c #663B06",
"b-.	c #DECE32",
"c-.	c #FDE53D",
"d-.	c #FBE544",
"e-.	c #D9CB46",
"f-.	c #4F2B08",
"g-.	c #672C01",
"h-.	c #B9680A",
"i-.	c #BC680C",
"j-.	c #BA680C",
"k-.	c #954E05",
"l-.	c #6A440C",
"m-.	c #F6E242",
"n-.	c #FEDE40",
"o-.	c #FCD835",
"p-.	c #A09228",
"q-.	c #825502",
"r-.	c #F0B806",
"s-.	c #F6AB04",
"t-.	c #F5A402",
"u-.	c #EC9600",
"v-.	c #8B5F02",
"w-.	c #254501",
"x-.	c #244201",
"y-.	c #1F5002",
"z-.	c #026B01",
"A-.	c #007801",
"B-.	c #008C03",
"C-.	c #008A03",
"D-.	c #006900",
"E-.	c #074B00",
"F-.	c #1D4A00",
"G-.	c #214300",
"H-.	c #2B4400",
"I-.	c #B46B01",
"J-.	c #DE8700",
"K-.	c #B06F00",
"L-.	c #975300",
"M-.	c #D57B00",
"N-.	c #723802",
"O-.	c #9B4C00",
"P-.	c #954802",
"Q-.	c #210906",
"R-.	c #0D0307",
"S-.	c #070304",
"T-.	c #050205",
"U-.	c #1F0B03",
"V-.	c #602C02",
"W-.	c #6A2E03",
"X-.	c #682D04",
"Y-.	c #612701",
"Z-.	c #9E5A02",
"`-.	c #BE7301",
" ;.	c #C07500",
".;.	c #B16901",
"+;.	c #672D01",
"@;.	c #723200",
"#;.	c #7A3600",
"$;.	c #C88C06",
"%;.	c #E2A10E",
"&;.	c #E3A30F",
"*;.	c #B98B0F",
"=;.	c #5C2200",
"-;.	c #6F3100",
";;.	c #E28A01",
">;.	c #DC8401",
",;.	c #D88003",
"';.	c #EDB72F",
");.	c #F9D13C",
"!;.	c #F9D03A",
"~;.	c #D8C12F",
"{;.	c #783804",
"];.	c #894001",
"^;.	c #CE9E21",
"/;.	c #E1B02C",
"(;.	c #DEB02D",
"_;.	c #B3881E",
":;.	c #915B16",
"<;.	c #E8CA43",
"[;.	c #F4D547",
"};.	c #F4D747",
"|;.	c #ECC738",
"1;.	c #E2A515",
"2;.	c #E5A80F",
"3;.	c #DFA509",
"4;.	c #753B01",
"5;.	c #753400",
"6;.	c #753500",
"7;.	c #91740C",
"8;.	c #A38F11",
"9;.	c #A08710",
"0;.	c #B6A022",
"a;.	c #EBD53C",
"b;.	c #F2D93D",
"c;.	c #DDC93C",
"d;.	c #844B08",
"e;.	c #B36000",
"f;.	c #AD5700",
"g;.	c #9F4B00",
"h;.	c #903F00",
"i;.	c #844604",
"j;.	c #D5C129",
"k;.	c #DBC32E",
"l;.	c #DAC52F",
"m;.	c #C3A72B",
"n;.	c #B39832",
"o;.	c #AB993E",
"p;.	c #98853C",
"q;.	c #461C05",
"r;.	c #401000",
"s;.	c #AC8B07",
"t;.	c #E4AC0D",
"u;.	c #E4A20C",
"v;.	c #D6A00F",
"w;.	c #693201",
"x;.	c #571A00",
"y;.	c #6B4812",
"z;.	c #E4C847",
"A;.	c #EED352",
"B;.	c #EED451",
"C;.	c #BC9D35",
"D;.	c #944701",
"E;.	c #844E11",
"F;.	c #F8E54D",
"G;.	c #FFE547",
"H;.	c #FBDD3C",
"I;.	c #9D922F",
"J;.	c #582D01",
"K;.	c #916202",
"L;.	c #905901",
"M;.	c #8D5601",
"N;.	c #DEA505",
"O;.	c #F09C03",
"P;.	c #EF9A02",
"Q;.	c #DDA30A",
"R;.	c #D6B114",
"S;.	c #D5AB12",
"T;.	c #B7A10D",
"U;.	c #1E4D01",
"V;.	c #006501",
"W;.	c #006401",
"X;.	c #006000",
"Y;.	c #5B6401",
"Z;.	c #BF9602",
"`;.	c #C98901",
" >.	c #C78301",
".>.	c #CF7E00",
"+>.	c #D97D00",
"@>.	c #A66401",
"#>.	c #481801",
"$>.	c #663701",
"%>.	c #915102",
"&>.	c #794503",
"*>.	c #2A0904",
"=>.	c #4C2403",
"->.	c #7B3D02",
";>.	c #7C3D02",
">>.	c #6C3002",
",>.	c #160405",
"'>.	c #974C01",
")>.	c #451400",
"!>.	c #AC6300",
"~>.	c #C26E00",
"{>.	c #D39F09",
"]>.	c #F9AE0F",
"^>.	c #F9B112",
"/>.	c #C1A217",
"(>.	c #431301",
"_>.	c #B36400",
":>.	c #CB7000",
"<>.	c #C97201",
"[>.	c #ED9603",
"}>.	c #E58D02",
"|>.	c #DD8604",
"1>.	c #EEC43A",
"2>.	c #FEE046",
"3>.	c #FFDF43",
"4>.	c #DBC73B",
"5>.	c #7C3C06",
"6>.	c #974A01",
"7>.	c #E9C028",
"8>.	c #FED032",
"9>.	c #FDD334",
"0>.	c #C9AB2B",
"a>.	c #A26A1D",
"b>.	c #F8DB45",
"c>.	c #FEDC43",
"d>.	c #FEDE44",
"e>.	c #FCD73E",
"f>.	c #F8B219",
"g>.	c #FBB512",
"h>.	c #F2AE0B",
"i>.	c #613201",
"j>.	c #9C881D",
"k>.	c #FCE43D",
"l>.	c #E0C841",
"m>.	c #653808",
"n>.	c #652300",
"o>.	c #682300",
"p>.	c #6C2600",
"q>.	c #734508",
"r>.	c #F8DC36",
"s>.	c #FCE23A",
"t>.	c #AB891F",
"u>.	c #B79809",
"v>.	c #FAB20E",
"w>.	c #FAB312",
"x>.	c #E9B719",
"y>.	c #571900",
"z>.	c #6E520E",
"A>.	c #F2DC3D",
"B>.	c #FFE545",
"C>.	c #FEE84A",
"D>.	c #C5AE3A",
"E>.	c #874C13",
"F>.	c #F8E652",
"G>.	c #FFE645",
"H>.	c #FCE042",
"I>.	c #A19337",
"J>.	c #582C01",
"K>.	c #DBB90C",
"L>.	c #F9A806",
"M>.	c #F9A505",
"N>.	c #FBAE0D",
"O>.	c #FDB411",
"P>.	c #FBB20F",
"Q>.	c #D6AD0C",
"R>.	c #003F00",
"S>.	c #013300",
"T>.	c #004E00",
"U>.	c #024700",
"V>.	c #776101",
"W>.	c #EB9E01",
"X>.	c #EC9500",
"Y>.	c #DD8300",
"Z>.	c #A76301",
"`>.	c #3A0F02",
" ,.	c #3B1002",
".,.	c #3E1003",
"+,.	c #330D03",
"@,.	c #250703",
"#,.	c #0E0307",
"$,.	c #944A02",
"%,.	c #491A00",
"&,.	c #4B1D00",
"*,.	c #4F1D00",
"=,.	c #AD6701",
"-,.	c #D48301",
";,.	c #C27500",
">,.	c #572A00",
",,.	c #582700",
"',.	c #5C2900",
"),.	c #602D00",
"!,.	c #642E00",
"~,.	c #6A3200",
"{,.	c #D19C08",
"],.	c #F8B40E",
"^,.	c #F8B711",
"/,.	c #C3A214",
"(,.	c #673804",
"_,.	c #653504",
":,.	c #5B2D02",
"<,.	c #431302",
"[,.	c #CC7100",
"},.	c #CA7301",
"|,.	c #EE9A03",
"1,.	c #E79103",
"2,.	c #DF8804",
"3,.	c #EDC53B",
"4,.	c #FDDF47",
"5,.	c #FDDF46",
"6,.	c #DBCB41",
"7,.	c #87490A",
"8,.	c #934B06",
"9,.	c #9A5006",
"0,.	c #E5BC29",
"a,.	c #FCD135",
"b,.	c #FBD439",
"c,.	c #CEAF2F",
"d,.	c #A56C1B",
"e,.	c #F4DA46",
"f,.	c #FADC45",
"g,.	c #FBDE48",
"h,.	c #F8D545",
"i,.	c #F8B117",
"j,.	c #F9B314",
"k,.	c #EEAA0D",
"l,.	c #99811E",
"m,.	c #FADD43",
"n,.	c #DCC743",
"o,.	c #64420B",
"p,.	c #5B3202",
"q,.	c #5B3104",
"r,.	c #633405",
"s,.	c #693707",
"t,.	c #6A3808",
"u,.	c #6C3808",
"v,.	c #6C3000",
"w,.	c #683000",
"x,.	c #643201",
"y,.	c #663502",
"z,.	c #6B3501",
"A,.	c #734D09",
"B,.	c #F7DD38",
"C,.	c #FCE33B",
"D,.	c #B0891A",
"E,.	c #4E1E00",
"F,.	c #B9A00C",
"G,.	c #F9BB11",
"H,.	c #F8BC17",
"I,.	c #E8BF23",
"J,.	c #71440C",
"K,.	c #623509",
"L,.	c #735A13",
"M,.	c #EFDB3E",
"N,.	c #FCE549",
"O,.	c #FBE74F",
"P,.	c #C3AD3C",
"Q,.	c #904C0A",
"R,.	c #8E4A09",
"S,.	c #855213",
"T,.	c #F3DE49",
"U,.	c #FBDF42",
"V,.	c #F9DC42",
"W,.	c #A99533",
"X,.	c #573007",
"Y,.	c #553006",
"Z,.	c #512903",
"`,.	c #592D01",
" '.	c #D9B90C",
".'.	c #F5AD06",
"+'.	c #F6AB05",
"@'.	c #F8B008",
"#'.	c #F9B30C",
"$'.	c #F9B40C",
"%'.	c #D5AE0B",
"&'.	c #395101",
"*'.	c #2D4A01",
"='.	c #2D4501",
"-'.	c #2D3E00",
";'.	c #2D3A00",
">'.	c #2D4100",
",'.	c #2C5601",
"''.	c #2C5300",
")'.	c #2C4B00",
"!'.	c #806101",
"~'.	c #EB9A00",
"{'.	c #EA9200",
"]'.	c #DB8500",
"^'.	c #D78000",
"/'.	c #A66502",
"('.	c #3D1901",
"_'.	c #421A02",
":'.	c #3C1502",
"<'.	c #3A0F03",
"['.	c #320E03",
"}'.	c #3E1202",
"|'.	c #3D1203",
"1'.	c #0E0306",
"2'.	c #8C4402",
"3'.	c #4C1C01",
"4'.	c #9A5201",
"5'.	c #B26000",
"6'.	c #A96401",
"7'.	c #936A02",
"8'.	c #957101",
"9'.	c #976700",
"0'.	c #D69100",
"a'.	c #D88D00",
"b'.	c #D18901",
"c'.	c #DD9E03",
"d'.	c #DB9402",
"e'.	c #D88C01",
"f'.	c #AF7804",
"g'.	c #997C07",
"h'.	c #987D06",
"i'.	c #B99D1A",
"j'.	c #E1CA2F",
"k'.	c #E1C62B",
"l'.	c #CEAB19",
"m'.	c #894201",
"n'.	c #964A00",
"o'.	c #A15300",
"p'.	c #A75901",
"q'.	c #D48002",
"r'.	c #D27E02",
"s'.	c #CF7902",
"t'.	c #C78A23",
"u'.	c #C6932C",
"v'.	c #CB952D",
"w'.	c #D7B13A",
"x'.	c #E8C734",
"y'.	c #E9C836",
"z'.	c #E9C632",
"A'.	c #B49024",
"B'.	c #A58728",
"C'.	c #A9882C",
"D'.	c #B48114",
"E'.	c #DF9807",
"F'.	c #E29A08",
"G'.	c #DEA20E",
"H'.	c #A4882D",
"I'.	c #9A8632",
"J'.	c #9B8637",
"K'.	c #BCAA3E",
"L'.	c #F3C020",
"M'.	c #985204",
"N'.	c #B15E00",
"O'.	c #A85700",
"P'.	c #A46A13",
"Q'.	c #8F852D",
"R'.	c #8F8536",
"S'.	c #927F33",
"T'.	c #D4B31D",
"U'.	c #E1C11D",
"V'.	c #E0BC24",
"W'.	c #E0BC2B",
"X'.	c #E2CB38",
"Y'.	c #E2D03C",
"Z'.	c #E0CC3B",
"`'.	c #DB9F0E",
" ).	c #DD9C02",
".).	c #DC9D03",
"+).	c #DDB613",
"@).	c #E2BF19",
"#).	c #E2B813",
"$).	c #E2B512",
"%).	c #F9BE26",
"&).	c #F9BD29",
"*).	c #F5BB23",
"=).	c #9F750C",
"-).	c #692F00",
";).	c #C87400",
">).	c #C97701",
",).	c #AD7504",
"').	c #A6820B",
")).	c #A98312",
"!).	c #B39527",
"~).	c #E1D147",
"{).	c #E2D446",
"]).	c #CEC043",
"^).	c #93832C",
"/).	c #948636",
"().	c #998740",
"_).	c #C1AD3C",
":).	c #E2CC3F",
"<).	c #E3CF3F",
"[).	c #DBBB29",
"}).	c #9A882F",
"|).	c #9A8532",
"1).	c #9B8635",
"2).	c #C9AE31",
"3).	c #E0C835",
"4).	c #E1CB33",
"5).	c #C4AF27",
"6).	c #6B3001",
"7).	c #836E02",
"8).	c #907D03",
"9).	c #917F02",
"0).	c #BC8B03",
"a).	c #CC9005",
"b).	c #CE9608",
"c).	c #DEAD10",
"d).	c #DDA90D",
"e).	c #DEA80C",
"f).	c #DA9A08",
"g).	c #D99305",
"h).	c #D58802",
"i).	c #D38401",
"j).	c #CF8202",
"k).	c #D17D00",
"l).	c #E08600",
"m).	c #855C01",
"n).	c #875C01",
"o).	c #B07002",
"p).	c #B96901",
"q).	c #BB6B01",
"r).	c #8E5802",
"s).	c #702F02",
"t).	c #100306",
"u).	c #8A4201",
"v).	c #310B02",
"w).	c #9C4F01",
"x).	c #A05200",
"y).	c #EC9F01",
"z).	c #EC9200",
"A).	c #F39F03",
"B).	c #F19B02",
"C).	c #EC9301",
"D).	c #A85C00",
"E).	c #B7941C",
"F).	c #FED12D",
"G).	c #FFCF2A",
"H).	c #E5BA1D",
"I).	c #934901",
"J).	c #D47700",
"K).	c #CE7400",
"L).	c #A85200",
"M).	c #B05B01",
"N).	c #D09D28",
"O).	c #FED93C",
"P).	c #FED83A",
"Q).	c #FCD231",
"R).	c #A27012",
"S).	c #A05B02",
"T).	c #EFA709",
"U).	c #F5A307",
"V).	c #EEA507",
"W).	c #894901",
"X).	c #692300",
"Y).	c #A08610",
"Z).	c #FABD17",
"`).	c #FABA1A",
" !.	c #F5B919",
".!.	c #A45602",
"+!.	c #B15D00",
"@!.	c #C26900",
"#!.	c #BD6500",
"$!.	c #491100",
"%!.	c #663201",
"&!.	c #EAAF13",
"*!.	c #FEBF17",
"=!.	c #FBBA14",
"-!.	c #FAC11F",
";!.	c #FEDF3A",
">!.	c #FCD937",
",!.	c #F09E0B",
"'!.	c #F29A01",
")!.	c #FEBE13",
"!!.	c #FDB810",
"~!.	c #FDB70F",
"{!.	c #FCB30D",
"]!.	c #FAB00C",
"^!.	c #F3A405",
"/!.	c #905D01",
"(!.	c #441000",
"_!.	c #3E0D00",
":!.	c #793C00",
"<!.	c #D47900",
"[!.	c #873900",
"}!.	c #A1771D",
"|!.	c #FCE648",
"1!.	c #FFE949",
"2!.	c #E2D24A",
"3!.	c #5F2C08",
"4!.	c #5B1B00",
"5!.	c #5B2002",
"6!.	c #C6AA2A",
"7!.	c #FED22F",
"8!.	c #F1BB19",
"9!.	c #743A01",
"0!.	c #742A00",
"a!.	c #763201",
"b!.	c #FDD42F",
"c!.	c #FED933",
"d!.	c #DCC12A",
"e!.	c #6E3201",
"f!.	c #5C1D00",
"g!.	c #551A00",
"h!.	c #C56A00",
"i!.	c #CA7401",
"j!.	c #F7A90B",
"k!.	c #F8AA09",
"l!.	c #F29F03",
"m!.	c #DF8500",
"n!.	c #DA7E00",
"o!.	c #804701",
"p!.	c #3A0D01",
"q!.	c #AB6101",
"r!.	c #9C5D01",
"s!.	c #7A3502",
"t!.	c #1C0705",
"u!.	c #8B4101",
"v!.	c #380F02",
"w!.	c #381002",
"x!.	c #9C5001",
"y!.	c #995000",
"z!.	c #582101",
"A!.	c #EDA802",
"B!.	c #EE9D01",
"C!.	c #EE9703",
"D!.	c #ED9503",
"E!.	c #AB5F01",
"F!.	c #753101",
"G!.	c #703201",
"H!.	c #BF991B",
"I!.	c #FBD22B",
"J!.	c #FCD129",
"K!.	c #E6BE20",
"L!.	c #9A5002",
"M!.	c #CE7401",
"N!.	c #C59830",
"O!.	c #FBDA40",
"P!.	c #FCD53A",
"Q!.	c #FAD02F",
"R!.	c #9D7112",
"S!.	c #A56002",
"T!.	c #EEA90A",
"U!.	c #EB9604",
"V!.	c #E49104",
"W!.	c #864501",
"X!.	c #9E8716",
"Y!.	c #F4C019",
"Z!.	c #F7BE16",
"`!.	c #F3C115",
" ~.	c #A55802",
".~.	c #C86F00",
"+~.	c #C16A00",
"@~.	c #B46800",
"#~.	c #623001",
"$~.	c #E6B818",
"%~.	c #F8C81E",
"&~.	c #F9C722",
"*~.	c #FACE2D",
"=~.	c #FCDC39",
"-~.	c #FAD838",
";~.	c #EEA10D",
">~.	c #EF9D01",
",~.	c #F2B60F",
"'~.	c #FBC214",
")~.	c #FAC112",
"!~.	c #F9BD0F",
"~~.	c #F6BB0D",
"{~.	c #F5B80C",
"]~.	c #F2B506",
"^~.	c #906902",
"/~.	c #7A3D01",
"(~.	c #A28123",
"_~.	c #FCE94C",
":~.	c #FEE74B",
"<~.	c #E2D151",
"[~.	c #622F0B",
"}~.	c #5C2303",
"|~.	c #C7AD3E",
"1~.	c #FEC21F",
"2~.	c #F3B313",
"3~.	c #7B3D01",
"4~.	c #CEAC28",
"5~.	c #FAD731",
"6~.	c #FBD831",
"7~.	c #DBB928",
"8~.	c #713A03",
"9~.	c #6F3201",
"0~.	c #6E3101",
"a~.	c #B36600",
"b~.	c #CD7A01",
"c~.	c #F4AF08",
"d~.	c #F2A804",
"e~.	c #F09D02",
"f~.	c #DF8D01",
"g~.	c #E09001",
"h~.	c #E29001",
"i~.	c #DD8800",
"j~.	c #844701",
"k~.	c #441800",
"l~.	c #431A01",
"m~.	c #AE6001",
"n~.	c #C16D00",
"o~.	c #9D5F01",
"p~.	c #320A03",
"q~.	c #461602",
"r~.	c #1A0605",
"s~.	c #5E2802",
"t~.	c #6B2E01",
"u~.	c #692B01",
"v~.	c #6F3702",
"w~.	c #693503",
"x~.	c #502802",
"y~.	c #2F1202",
"z~.	c #321002",
"A~.	c #4D2601",
"B~.	c #A96D02",
"C~.	c #A36701",
"D~.	c #AA6A04",
"E~.	c #EABA2C",
"F~.	c #F3C230",
"G~.	c #F2B826",
"H~.	c #E6B424",
"I~.	c #DDAF1E",
"J~.	c #DCAD1D",
"K~.	c #CD9D1A",
"L~.	c #AF7C12",
"M~.	c #B57D11",
"N~.	c #BD7E0D",
"O~.	c #BA6501",
"P~.	c #AD5B00",
"Q~.	c #5B2402",
"R~.	c #BF6901",
"S~.	c #CB9B35",
"T~.	c #FCDF49",
"U~.	c #FCE24B",
"V~.	c #FAE448",
"W~.	c #9F7B23",
"X~.	c #9D5F09",
"Y~.	c #F2BF23",
"Z~.	c #F6BD24",
"`~.	c #F4BB22",
" {.	c #C57D0B",
".{.	c #B46C07",
"+{.	c #986C0B",
"@{.	c #986E08",
"#{.	c #9D7507",
"${.	c #E3A107",
"%{.	c #E39C03",
"&{.	c #E29B03",
"*{.	c #E39203",
"={.	c #E69102",
"-{.	c #E38E01",
";{.	c #CD8D01",
">{.	c #9C6E0A",
",{.	c #A47911",
"'{.	c #AA7A16",
"){.	c #B27E1C",
"!{.	c #B9841F",
"~{.	c #B8831D",
"{{.	c #B9831C",
"]{.	c #9A5F04",
"^{.	c #945C01",
"/{.	c #935E01",
"({.	c #A66E04",
"_{.	c #B67A07",
":{.	c #B57C06",
"<{.	c #B67B05",
"[{.	c #8D6E04",
"}{.	c #866A03",
"|{.	c #886702",
"1{.	c #643D01",
"2{.	c #652C01",
"3{.	c #A05501",
"4{.	c #9A761B",
"5{.	c #FDCA2F",
"6{.	c #DFBD3B",
"7{.	c #5C2A07",
"8{.	c #5D2405",
"9{.	c #C6B248",
"0{.	c #FDD63E",
"a{.	c #FDD43C",
"b{.	c #F8D63F",
"c{.	c #B86F0E",
"d{.	c #BB6A00",
"e{.	c #B86300",
"f{.	c #AB6E11",
"g{.	c #A37C17",
"h{.	c #A17A15",
"i{.	c #B7911D",
"j{.	c #E4BF22",
"k{.	c #E3BA1E",
"l{.	c #E2B616",
"m{.	c #C48507",
"n{.	c #B76800",
"o{.	c #B56600",
"p{.	c #9A5300",
"q{.	c #864500",
"r{.	c #874900",
"s{.	c #966602",
"t{.	c #936302",
"u{.	c #916001",
"v{.	c #BF7101",
"w{.	c #C57000",
"x{.	c #A55E01",
"y{.	c #8A5000",
"z{.	c #895700",
"A{.	c #885901",
"B{.	c #8B5801",
"C{.	c #885101",
"D{.	c #925301",
"E{.	c #C77B01",
"F{.	c #C77C00",
"G{.	c #C67E00",
"H{.	c #884E01",
"I{.	c #7E4401",
"J{.	c #673702",
"K{.	c #784101",
"L{.	c #BF7400",
"M{.	c #BF7100",
"N{.	c #AE5F00",
"O{.	c #190605",
"P{.	c #030104",
"Q{.	c #4A1B03",
"R{.	c #5A2200",
"S{.	c #542302",
"T{.	c #190903",
"U{.	c #0F0C02",
"V{.	c #0C0E01",
"W{.	c #0E0B01",
"X{.	c #301601",
"Y{.	c #833D00",
"Z{.	c #803A00",
"`{.	c #8C4E05",
" ].	c #F3CF31",
".].	c #FECB2C",
"+].	c #FECC2C",
"@].	c #FED12F",
"#].	c #FDCF2B",
"$].	c #D0AC24",
"%].	c #8A4000",
"&].	c #944700",
"*].	c #793500",
"=].	c #C66F01",
"-].	c #CFA03A",
";].	c #FEE952",
">].	c #FFEC52",
",].	c #FCEC50",
"'].	c #A17F28",
")].	c #975F0F",
"!].	c #F5C82C",
"~].	c #FCC527",
"{].	c #D98D0E",
"]].	c #BD6D00",
"^].	c #F0A506",
"/].	c #F49F02",
"(].	c #EF9902",
"_].	c #EE9601",
":].	c #D29801",
"<].	c #552701",
"[].	c #511D00",
"}].	c #6A2D00",
"|].	c #7C3100",
"1].	c #9A7818",
"2].	c #FCD631",
"3].	c #FFD331",
"4].	c #E3C839",
"5].	c #632F06",
"6].	c #622705",
"7].	c #C7B348",
"8].	c #FEE147",
"9].	c #FFE247",
"0].	c #FBE34E",
"a].	c #C97811",
"b].	c #C86E00",
"c].	c #9C4F00",
"d].	c #742B00",
"e].	c #AB8112",
"f].	c #FEC71F",
"g].	c #D99309",
"h].	c #934B00",
"i].	c #B15F00",
"j].	c #884501",
"k].	c #6C3701",
"l].	c #E08901",
"m].	c #754A01",
"n].	c #380D03",
"o].	c #834602",
"p].	c #CD7300",
"q].	c #491A03",
"r].	c #5B2804",
"s].	c #160805",
"t].	c #120A03",
"u].	c #081001",
"v].	c #051400",
"w].	c #051300",
"x].	c #241B00",
"y].	c #6F3B00",
"z].	c #763D00",
"A].	c #804B04",
"B].	c #EEC827",
"C].	c #FCCF2C",
"D].	c #FDC728",
"E].	c #FCCC2D",
"F].	c #CEAB24",
"G].	c #823C00",
"H].	c #9D5100",
"I].	c #904B01",
"J].	c #BD6A00",
"K].	c #C56E01",
"L].	c #D0A03A",
"M].	c #FDE853",
"N].	c #FCED53",
"O].	c #9F7F26",
"P].	c #915D10",
"Q].	c #F4CA2E",
"R].	c #FEC629",
"S].	c #FCC327",
"T].	c #DB8E0F",
"U].	c #BB6D01",
"V].	c #6C3600",
"W].	c #EC9D03",
"X].	c #F29A02",
"Y].	c #F09802",
"Z].	c #CD9B03",
"`].	c #542900",
" ^.	c #501B00",
".^.	c #4D1B00",
"+^.	c #511A01",
"@^.	c #733201",
"#^.	c #964400",
"$^.	c #9D7A13",
"%^.	c #FADB34",
"&^.	c #FCDB3A",
"*^.	c #E4CD45",
"=^.	c #653209",
"-^.	c #672904",
";^.	c #C9B142",
">^.	c #FDD83E",
",^.	c #FFDC43",
"'^.	c #FADB46",
")^.	c #CB760C",
"!^.	c #9F5300",
"~^.	c #A77D0F",
"{^.	c #FAC01B",
"]^.	c #FBBD18",
"^^.	c #FBB912",
"/^.	c #DA8D04",
"(^.	c #954E00",
"_^.	c #5A2100",
":^.	c #AE5E00",
"<^.	c #AE5B00",
"[^.	c #854301",
"}^.	c #724001",
"|^.	c #DE8A00",
"1^.	c #774F01",
"2^.	c #431202",
"3^.	c #804302",
"4^.	c #C87000",
"5^.	c #773400",
"6^.	c #672901",
"7^.	c #170406",
"8^.	c #0C0207",
"9^.	c #0A0106",
"0^.	c #3B1404",
"a^.	c #481901",
"b^.	c #4F1C00",
"c^.	c #5D2A03",
"d^.	c #0E0F03",
"e^.	c #081202",
"f^.	c #043A02",
"g^.	c #035E04",
"h^.	c #026703",
"i^.	c #106602",
"j^.	c #3C4A01",
"k^.	c #384400",
"l^.	c #413F02",
"m^.	c #BA7609",
"n^.	c #CF870D",
"o^.	c #C9800C",
"p^.	c #E9AB1B",
"q^.	c #FBCD31",
"r^.	c #D1A827",
"s^.	c #DC8F03",
"t^.	c #DD8B01",
"u^.	c #9E5B01",
"v^.	c #A26400",
"w^.	c #A45D01",
"x^.	c #A25501",
"y^.	c #A15401",
"z^.	c #9A4E01",
"A^.	c #B86400",
"B^.	c #B96401",
"C^.	c #CC9F32",
"D^.	c #FEDD43",
"E^.	c #FEDF44",
"F^.	c #FCE246",
"G^.	c #A87D20",
"H^.	c #924100",
"I^.	c #985E0D",
"J^.	c #F4C529",
"K^.	c #FDC425",
"L^.	c #FCC123",
"M^.	c #DE8F0C",
"N^.	c #914800",
"O^.	c #B77E02",
"P^.	c #BA8402",
"Q^.	c #B78301",
"R^.	c #AF7901",
"S^.	c #AF7E01",
"T^.	c #AC7D01",
"U^.	c #9F7C03",
"V^.	c #8F4901",
"W^.	c #9B5101",
"X^.	c #733300",
"Y^.	c #763401",
"Z^.	c #823E00",
"`^.	c #8E4701",
" /.	c #491900",
"./.	c #441300",
"+/.	c #CD7700",
"@/.	c #CD7800",
"#/.	c #CD7C00",
"$/.	c #C47500",
"%/.	c #BC6C00",
"&/.	c #B66400",
"*/.	c #BD780B",
"=/.	c #B3A12E",
"-/.	c #AEA234",
";/.	c #AA9535",
">/.	c #AA6406",
",/.	c #A45903",
"'/.	c #D5AE31",
")/.	c #FCCA2E",
"!/.	c #FECB31",
"~/.	c #FBCC35",
"{/.	c #DB8507",
"]/.	c #C06F00",
"^/.	c #B06100",
"//.	c #BA7405",
"(/.	c #C5930D",
"_/.	c #C4960F",
":/.	c #BF950E",
"</.	c #CC8104",
"[/.	c #C87B00",
"}/.	c #C07800",
"|/.	c #C17900",
"1/.	c #C37F00",
"2/.	c #C17A00",
"3/.	c #C17D01",
"4/.	c #C28102",
"5/.	c #D28B02",
"6/.	c #D08301",
"7/.	c #A96201",
"8/.	c #8D4400",
"9/.	c #904D01",
"0/.	c #AE7B00",
"a/.	c #AE7A01",
"b/.	c #AD7300",
"c/.	c #925201",
"d/.	c #904601",
"e/.	c #904600",
"f/.	c #7F4401",
"g/.	c #6A2A02",
"h/.	c #180506",
"i/.	c #0F0307",
"j/.	c #270A05",
"k/.	c #300E04",
"l/.	c #5A2702",
"m/.	c #081801",
"n/.	c #031C00",
"o/.	c #014C01",
"p/.	c #017F05",
"q/.	c #018F04",
"r/.	c #019205",
"s/.	c #007201",
"t/.	c #2B5601",
"u/.	c #A65A00",
"v/.	c #E2A616",
"w/.	c #FED231",
"x/.	c #FED433",
"y/.	c #CFB02F",
"z/.	c #8F4401",
"A/.	c #A16C02",
"B/.	c #EEA004",
"C/.	c #F09C05",
"D/.	c #F09C04",
"E/.	c #BD7201",
"F/.	c #813900",
"G/.	c #AD6200",
"H/.	c #C99A37",
"I/.	c #FDDD44",
"J/.	c #FEDC40",
"K/.	c #BA831F",
"L/.	c #A2630A",
"M/.	c #F5C423",
"N/.	c #FEC525",
"O/.	c #FCC524",
"P/.	c #DD930F",
"Q/.	c #7F3D00",
"R/.	c #582600",
"S/.	c #4D1801",
"T/.	c #2F0903",
"U/.	c #350B02",
"V/.	c #4C1701",
"W/.	c #421200",
"X/.	c #A35500",
"Y/.	c #E38900",
"Z/.	c #E48900",
"`/.	c #D07900",
" (.	c #AF5B02",
".(.	c #DAB138",
"+(.	c #FED438",
"@(.	c #FFDA3E",
"#(.	c #FDDA41",
"$(.	c #E7910C",
"%(.	c #CA7600",
"&(.	c #C36B00",
"*(.	c #9A4700",
"=(.	c #CE7F00",
"-(.	c #E58D00",
";(.	c #DF8600",
">(.	c #B05900",
",(.	c #A34F00",
"'(.	c #964E01",
")(.	c #814701",
"!(.	c #723100",
"~(.	c #702F00",
"{(.	c #190606",
"](.	c #0C0307",
"^(.	c #090406",
"/(.	c #210805",
"((.	c #2C0D04",
"_(.	c #411502",
":(.	c #0A1901",
"<(.	c #0D4C0B",
"[(.	c #218621",
"}(.	c #229A22",
"|(.	c #229B22",
"1(.	c #237F23",
"2(.	c #227523",
"3(.	c #356221",
"4(.	c #9B5903",
"5(.	c #A55800",
"6(.	c #E0AB16",
"7(.	c #CAAD32",
"8(.	c #884504",
"9(.	c #9F7407",
"0(.	c #EBA306",
"a(.	c #EF9E05",
"b(.	c #EF9D04",
"c(.	c #B97301",
"d(.	c #7E3D01",
"e(.	c #7D3B01",
"f(.	c #451401",
"g(.	c #AD6300",
"h(.	c #994C01",
"i(.	c #A95702",
"j(.	c #AB5902",
"k(.	c #C79A36",
"l(.	c #F9D941",
"m(.	c #FBD73B",
"n(.	c #FAD93B",
"o(.	c #BC811A",
"p(.	c #A36509",
"q(.	c #F3C321",
"r(.	c #FBC728",
"s(.	c #F9C729",
"t(.	c #DC9412",
"u(.	c #C67100",
"v(.	c #863900",
"w(.	c #813E00",
"x(.	c #C46F00",
"y(.	c #5B2E01",
"z(.	c #461E01",
"A(.	c #4B2001",
"B(.	c #4F1E01",
"C(.	c #3C0F01",
"D(.	c #380F01",
"E(.	c #350D01",
"F(.	c #492200",
"G(.	c #4A2300",
"H(.	c #522401",
"I(.	c #A35400",
"J(.	c #B5630B",
"K(.	c #B4610D",
"L(.	c #AE5C12",
"M(.	c #D8B03B",
"N(.	c #FCD539",
"O(.	c #FDDC41",
"P(.	c #FBDB43",
"Q(.	c #E58F0C",
"R(.	c #C57505",
"S(.	c #BD6808",
"T(.	c #C06B06",
"U(.	c #9C4E03",
"V(.	c #9A4C03",
"W(.	c #924702",
"X(.	c #CF8500",
"Y(.	c #E28700",
"Z(.	c #E59000",
"`(.	c #E38E00",
" _.	c #E28B00",
"._.	c #E18A00",
"+_.	c #C16E01",
"@_.	c #804802",
"#_.	c #CA7400",
"$_.	c #BF6A00",
"%_.	c #6D2D01",
"&_.	c #6E2D02",
"*_.	c #180605",
"=_.	c #080306",
"-_.	c #0D0708",
";_.	c #2E0D03",
">_.	c #642901",
",_.	c #462301",
"'_.	c #0A2C01",
")_.	c #022A00",
"!_.	c #677660",
"~_.	c #C4D4BC",
"{_.	c #C8DABC",
"]_.	c #C7DBBD",
"^_.	c #D2D7CC",
"/_.	c #D3D6CE",
"(_.	c #C9CEC4",
"__.	c #40632E",
":_.	c #2F4601",
"<_.	c #323801",
"[_.	c #857815",
"}_.	c #A6952C",
"|_.	c #AB972F",
"1_.	c #AF9D30",
"2_.	c #D5BE36",
"3_.	c #D8BF34",
"4_.	c #C0AF2B",
"5_.	c #9D880C",
"6_.	c #9E7F05",
"7_.	c #9E7803",
"8_.	c #C7A00F",
"9_.	c #D5B519",
"0_.	c #D5AF16",
"a_.	c #B49006",
"b_.	c #895101",
"c_.	c #A05C00",
"d_.	c #9E5900",
"e_.	c #AB5B01",
"f_.	c #A95B01",
"g_.	c #C88E19",
"h_.	c #E0B027",
"i_.	c #E1AE25",
"j_.	c #CCA92B",
"k_.	c #A19736",
"l_.	c #9F9129",
"m_.	c #9D9227",
"n_.	c #87570D",
"o_.	c #774407",
"p_.	c #A78C1C",
"q_.	c #A6962A",
"r_.	c #A5982D",
"s_.	c #D09014",
"t_.	c #E69304",
"u_.	c #DE8B02",
"v_.	c #D88A01",
"w_.	c #D98C01",
"x_.	c #874600",
"y_.	c #6B2C00",
"z_.	c #682A00",
"A_.	c #5C2201",
"B_.	c #541C01",
"C_.	c #602A01",
"D_.	c #925501",
"E_.	c #965B01",
"F_.	c #905B01",
"G_.	c #BC8601",
"H_.	c #C78A01",
"I_.	c #A16C01",
"J_.	c #753201",
"K_.	c #CB9902",
"L_.	c #CC9A01",
"M_.	c #CC9102",
"N_.	c #C17200",
"O_.	c #9A6F01",
"P_.	c #9B7401",
"Q_.	c #9C7201",
"R_.	c #9B6A01",
"S_.	c #9C6B00",
"T_.	c #9E6C00",
"U_.	c #9D6700",
"V_.	c #985B21",
"W_.	c #DFCC5E",
"X_.	c #E7D663",
"Y_.	c #E4D570",
"Z_.	c #CFB559",
"`_.	c #C19D38",
" :.	c #C19F3E",
".:.	c #BD9A36",
"+:.	c #AC6708",
"@:.	c #AE6701",
"#:.	c #B06D04",
"$:.	c #D1AE3F",
"%:.	c #E8CC49",
"&:.	c #E8CD4C",
"*:.	c #E7C640",
"=:.	c #DFBE30",
"-:.	c #E0BD2D",
";:.	c #DCBC26",
">:.	c #B68A0C",
",:.	c #AB6F00",
"':.	c #AC7000",
"):.	c #A57601",
"!:.	c #A18101",
"~:.	c #A08102",
"{:.	c #A37502",
"]:.	c #AD7401",
"^:.	c #AA7301",
"/:.	c #A97301",
"(:.	c #A17602",
"_:.	c #A07901",
"::.	c #9F7301",
"<:.	c #8D5201",
"[:.	c #874300",
"}:.	c #8A4600",
"|:.	c #884200",
"1:.	c #7C3900",
"2:.	c #7C3800",
"3:.	c #C07200",
"4:.	c #C06E00",
"5:.	c #9F5C01",
"6:.	c #572C02",
"7:.	c #935300",
"8:.	c #995A00",
"9:.	c #461D03",
"0:.	c #240904",
"a:.	c #120406",
"b:.	c #3C1F01",
"c:.	c #0C3101",
"d:.	c #022F00",
"e:.	c #768B6F",
"f:.	c #E4FADA",
"g:.	c #EAFED8",
"h:.	c #F8FEE9",
"i:.	c #FBFFEC",
"j:.	c #EDF3E7",
"k:.	c #396C38",
"l:.	c #005200",
"m:.	c #383300",
"n:.	c #612F00",
"o:.	c #6C3200",
"p:.	c #A69024",
"q:.	c #FCD738",
"r:.	c #FED836",
"s:.	c #D3BA2A",
"t:.	c #4D2603",
"u:.	c #4A1C00",
"v:.	c #DCA514",
"w:.	c #FEC11B",
"x:.	c #FCBA17",
"y:.	c #CCA008",
"z:.	c #421C01",
"A:.	c #6A2A01",
"B:.	c #DB9B19",
"C:.	c #FBC329",
"D:.	c #FCC225",
"E:.	c #D6B61A",
"F:.	c #472602",
"G:.	c #421001",
"H:.	c #3E0E01",
"I:.	c #D08D03",
"J:.	c #F4A207",
"K:.	c #F4A107",
"L:.	c #EC9703",
"M:.	c #ED9A01",
"N:.	c #864901",
"O:.	c #4C1601",
"P:.	c #441201",
"Q:.	c #3A0C01",
"R:.	c #D98901",
"S:.	c #BB7801",
"T:.	c #8C4400",
"U:.	c #EB9200",
"V:.	c #DD8000",
"W:.	c #C97500",
"X:.	c #B06D2B",
"Y:.	c #F8EF6C",
"Z:.	c #FFFA6C",
"`:.	c #FEFA70",
" <.	c #D1B652",
".<.	c #AC5702",
"+<.	c #AB5300",
"@<.	c #873800",
"#<.	c #8C4203",
"$<.	c #D6BE43",
"%<.	c #FEE446",
"&<.	c #FEE447",
"*<.	c #FEDB3D",
"=<.	c #FFD132",
"-<.	c #FFD02E",
";<.	c #FDD226",
"><.	c #AA8710",
",<.	c #793000",
"'<.	c #BD6A01",
")<.	c #D57A00",
"!<.	c #D67A00",
"~<.	c #A26001",
"{<.	c #370F02",
"]<.	c #531C01",
"^<.	c #1E0506",
"/<.	c #0F0306",
"(<.	c #130306",
"_<.	c #402101",
":<.	c #122E00",
"<<.	c #062B01",
"[<.	c #7F8C7D",
"}<.	c #EDFAE2",
"|<.	c #F1FEE1",
"1<.	c #EEFEDD",
"2<.	c #F6FFE6",
"3<.	c #F9FFE9",
"4<.	c #EDF4E6",
"5<.	c #3A7139",
"6<.	c #005A00",
"7<.	c #014A01",
"8<.	c #323F01",
"9<.	c #573200",
"0<.	c #9F891A",
"a<.	c #F9CA2C",
"b<.	c #FBCC2C",
"c<.	c #D2B226",
"d<.	c #532802",
"e<.	c #D0950E",
"f<.	c #FCBB18",
"g<.	c #FBB715",
"h<.	c #441E02",
"i<.	c #D79714",
"j<.	c #F9BF22",
"k<.	c #FABD1F",
"l<.	c #D6AE16",
"m<.	c #581E01",
"n<.	c #C88B03",
"o<.	c #F1A606",
"p<.	c #F2A505",
"q<.	c #EB9B03",
"r<.	c #ED9901",
"s<.	c #8A4D00",
"t<.	c #4D1601",
"u<.	c #451301",
"v<.	c #D18101",
"w<.	c #BA7C01",
"x<.	c #823B00",
"y<.	c #8B4100",
"z<.	c #8D4600",
"A<.	c #E69300",
"B<.	c #E89000",
"C<.	c #D27B00",
"D<.	c #471201",
"E<.	c #531B01",
"F<.	c #652A01",
"G<.	c #AC6C2C",
"H<.	c #F5EA6C",
"I<.	c #FDF46C",
"J<.	c #D9B74D",
"K<.	c #B35E02",
"L<.	c #AA5501",
"M<.	c #8E4408",
"N<.	c #8E4306",
"O<.	c #934707",
"P<.	c #D7BA3C",
"Q<.	c #FEDA3D",
"R<.	c #FED537",
"S<.	c #FDC828",
"T<.	c #FEC926",
"U<.	c #FCD222",
"V<.	c #AB880E",
"W<.	c #783601",
"X<.	c #5B2300",
"Y<.	c #C26800",
"Z<.	c #9E5D01",
"`<.	c #451703",
" [.	c #210506",
".[.	c #632801",
"+[.	c #652C00",
"@[.	c #898E87",
"#[.	c #F0FAE5",
"$[.	c #F1FEDE",
"%[.	c #ECFDD8",
"&[.	c #ECFFDB",
"*[.	c #F1FFE1",
"=[.	c #EAF6E2",
"-[.	c #399439",
";[.	c #008703",
">[.	c #018004",
",[.	c #065701",
"'[.	c #1A3C00",
")[.	c #1E3B00",
"![.	c #998817",
"~[.	c #F7BA1D",
"{[.	c #FAB61A",
"][.	c #DBA316",
"^[.	c #7E3C01",
"/[.	c #D4A623",
"([.	c #F9C228",
"_[.	c #F9BE22",
":[.	c #C8A419",
"<[.	c #351B03",
"[[.	c #D07A01",
"}[.	c #E99103",
"|[.	c #EC9403",
"1[.	c #D3A007",
"2[.	c #592B01",
"3[.	c #7D3701",
"4[.	c #843B00",
"5[.	c #9C5100",
"6[.	c #9D5001",
"7[.	c #9D6A02",
"8[.	c #9C7D04",
"9[.	c #9C7A03",
"0[.	c #B88403",
"a[.	c #EC9701",
"b[.	c #995A01",
"c[.	c #8C4200",
"d[.	c #873E01",
"e[.	c #C36F00",
"f[.	c #CF8001",
"g[.	c #C17300",
"h[.	c #C17400",
"i[.	c #C27600",
"j[.	c #BE6F00",
"k[.	c #AF6200",
"l[.	c #C28D0B",
"m[.	c #D6A10C",
"n[.	c #D6A209",
"o[.	c #D49905",
"p[.	c #EFA602",
"q[.	c #A45F01",
"r[.	c #A05801",
"s[.	c #B36200",
"t[.	c #AA5A01",
"u[.	c #934B17",
"v[.	c #B58F47",
"w[.	c #BA9847",
"x[.	c #C7AA47",
"y[.	c #D7A42F",
"z[.	c #DD8D03",
"A[.	c #DC8A02",
"B[.	c #D38316",
"C[.	c #DAC45C",
"D[.	c #DAC54F",
"E[.	c #DABF42",
"F[.	c #EFD345",
"G[.	c #FEDE47",
"H[.	c #FEE14F",
"I[.	c #F8D041",
"J[.	c #E5970F",
"K[.	c #E4950B",
"L[.	c #E29C0A",
"M[.	c #C57903",
"N[.	c #BC6800",
"O[.	c #CD8801",
"P[.	c #D08F00",
"Q[.	c #CE8E01",
"R[.	c #D3A611",
"S[.	c #D2A311",
"T[.	c #D0A10D",
"U[.	c #9F5702",
"V[.	c #9D5000",
"W[.	c #BF7200",
"X[.	c #C07C00",
"Y[.	c #C58901",
"Z[.	c #C48B00",
"`[.	c #C68701",
" }.	c #D58101",
".}.	c #D47B00",
"+}.	c #5D2401",
"@}.	c #381102",
"#}.	c #0A0407",
"$}.	c #070107",
"%}.	c #5D2501",
"&}.	c #6C2D00",
"*}.	c #6C2F00",
"=}.	c #3F2901",
"-}.	c #878E83",
";}.	c #EEFBDF",
">}.	c #F0FEDB",
",}.	c #E9FCD5",
"'}.	c #E6FFD4",
")}.	c #EAFFDA",
"!}.	c #E6F5DE",
"~}.	c #39A23A",
"{}.	c #009907",
"]}.	c #019104",
"^}.	c #015E01",
"/}.	c #073C00",
"(}.	c #9A8E19",
"_}.	c #FCC722",
":}.	c #FDC21F",
"<}.	c #DEA516",
"[}.	c #7B3901",
"}}.	c #E3B929",
"|}.	c #FDCA2A",
"1}.	c #FCC726",
"2}.	c #CBAF21",
"3}.	c #201804",
"4}.	c #642902",
"5}.	c #874000",
"6}.	c #D3A005",
"7}.	c #642E02",
"8}.	c #996402",
"9}.	c #ED9802",
"0}.	c #A06101",
"a}.	c #D37B00",
"b}.	c #E08700",
"c}.	c #C56E00",
"d}.	c #DEA411",
"e}.	c #FAB50F",
"f}.	c #FBB40B",
"g}.	c #F9AD07",
"h}.	c #F5A403",
"i}.	c #F5A102",
"j}.	c #F3AC02",
"k}.	c #904F01",
"l}.	c #BE6800",
"m}.	c #914000",
"n}.	c #8F3D00",
"o}.	c #914101",
"p}.	c #D1960A",
"q}.	c #EE9A04",
"r}.	c #E8991C",
"s}.	c #FDEF6A",
"t}.	c #FFF05F",
"u}.	c #FEEC50",
"v}.	c #FFE64A",
"w}.	c #FFE852",
"x}.	c #FEEC57",
"y}.	c #F4CE47",
"z}.	c #D98109",
"A}.	c #D87D00",
"B}.	c #D07300",
"C}.	c #F6A401",
"D}.	c #F6A302",
"E}.	c #F2A609",
"F}.	c #FDC016",
"G}.	c #FBB914",
"H}.	c #F4B713",
"I}.	c #B36202",
"J}.	c #F19A00",
"K}.	c #D77C00",
"L}.	c #A96B00",
"M}.	c #702E01",
"N}.	c #340E02",
"O}.	c #140E0D",
"P}.	c #080406",
"Q}.	c #070305",
"R}.	c #220F06",
"S}.	c #522305",
"T}.	c #682E01",
"U}.	c #5B2A00",
"V}.	c #3C2502",
"W}.	c #80867A",
"X}.	c #E1EAD6",
"Y}.	c #E2F0D5",
"Z}.	c #E2F3D6",
"`}.	c #E0F8D9",
" |.	c #E0F9D9",
".|.	c #DAF2D6",
"+|.	c #35A336",
"@|.	c #009305",
"#|.	c #005C02",
"$|.	c #013600",
"%|.	c #063900",
"&|.	c #9A8E17",
"*|.	c #FCC920",
"=|.	c #FEC321",
"-|.	c #E1AD1F",
";|.	c #DDB521",
">|.	c #F3CA23",
",|.	c #F2C51E",
"'|.	c #C5AB1C",
")|.	c #221904",
"!|.	c #652902",
"~|.	c #D68001",
"{|.	c #E59401",
"]|.	c #E69502",
"^|.	c #CF9D04",
"/|.	c #5A2A02",
"(|.	c #894802",
"_|.	c #663902",
":|.	c #613602",
"<|.	c #9D7607",
"[|.	c #E79B04",
"}|.	c #E99904",
"||.	c #EA9E04",
"1|.	c #A46701",
"2|.	c #6F3200",
"3|.	c #713600",
"4|.	c #AA5D01",
"5|.	c #9D5004",
"6|.	c #9E590E",
"7|.	c #9A5A10",
"8|.	c #975A10",
"9|.	c #C67B11",
"0|.	c #D17F13",
"a|.	c #D38113",
"b|.	c #D78315",
"c|.	c #DC8A19",
"d|.	c #E08E18",
"e|.	c #E08D17",
"f|.	c #D7840A",
"g|.	c #D37F07",
"h|.	c #C9780B",
"i|.	c #E1A41F",
"j|.	c #F9B725",
"k|.	c #F8B225",
"l|.	c #F7B025",
"m|.	c #F7AB1D",
"n|.	c #F6A81C",
"o|.	c #EFA618",
"p|.	c #9E6619",
"q|.	c #85591D",
"r|.	c #866120",
"s|.	c #856021",
"t|.	c #8B4B04",
"u|.	c #8D4A02",
"v|.	c #864804",
"w|.	c #BE7916",
"x|.	c #CE8520",
"y|.	c #BC7C27",
"z|.	c #B07428",
"A|.	c #946B29",
"B|.	c #906B2A",
"C|.	c #926729",
"D|.	c #924E08",
"E|.	c #944A01",
"F|.	c #D28F04",
"G|.	c #EF9D06",
"H|.	c #F09D07",
"I|.	c #F1A01E",
"J|.	c #FCEC6F",
"K|.	c #FEEE64",
"L|.	c #FEEA5A",
"M|.	c #FEE854",
"N|.	c #FFE956",
"O|.	c #FEE955",
"P|.	c #F7D24A",
"Q|.	c #DB8B21",
"R|.	c #D5841E",
"S|.	c #CD7F21",
"T|.	c #CD8124",
"U|.	c #CB8329",
"V|.	c #CC832C",
"W|.	c #E9A32E",
"X|.	c #F0AA2C",
"Y|.	c #F1AA2C",
"Z|.	c #F3AE29",
"`|.	c #FCBF2E",
" 1.	c #F9BB2D",
".1.	c #F2B72C",
"+1.	c #B7741E",
"@1.	c #B0731F",
"#1.	c #B3731D",
"$1.	c #D48209",
"%1.	c #E79002",
"&1.	c #F2A002",
"*1.	c #F09B01",
"=1.	c #DF8400",
"-1.	c #A76A01",
";1.	c #391202",
">1.	c #190604",
",1.	c #250C04",
"'1.	c #5D2A02",
")1.	c #464F17",
"!1.	c #337F31",
"~1.	c #338F32",
"{1.	c #35AD35",
"]1.	c #3CCF43",
"^1.	c #3ED148",
"/1.	c #4ED155",
"(1.	c #0F9E14",
"_1.	c #009707",
":1.	c #009105",
"<1.	c #005A01",
"[1.	c #063800",
"}1.	c #9A9529",
"|1.	c #FBD839",
"11.	c #FED93D",
"21.	c #E5C339",
"31.	c #A45704",
"41.	c #934F03",
"51.	c #884B03",
"61.	c #814A03",
"71.	c #6A4306",
"81.	c #3A1003",
"91.	c #2E0A04",
"01.	c #7C3D01",
"a1.	c #763E01",
"b1.	c #733D01",
"c1.	c #6A3E01",
"d1.	c #471602",
"e1.	c #954900",
"f1.	c #964B01",
"g1.	c #D7AF14",
"h1.	c #EEC018",
"i1.	c #ECBD17",
"j1.	c #D1B018",
"k1.	c #7A4502",
"l1.	c #7C4001",
"m1.	c #864E01",
"n1.	c #DF8E02",
"o1.	c #E29101",
"p1.	c #E39702",
"q1.	c #966702",
"r1.	c #9F8729",
"s1.	c #F2DB49",
"t1.	c #F5DC4A",
"u1.	c #F3D94A",
"v1.	c #F9DD4B",
"w1.	c #FAE351",
"x1.	c #FAE356",
"y1.	c #FBE45C",
"z1.	c #FBEA63",
"A1.	c #FBEB5F",
"B1.	c #FCE858",
"C1.	c #FBD63D",
"D1.	c #FAD234",
"E1.	c #F9D138",
"F1.	c #FADE5A",
"G1.	c #FEF46B",
"H1.	c #FEF26B",
"I1.	c #FEF06A",
"J1.	c #FEEF63",
"K1.	c #FDEE62",
"L1.	c #FDEB5F",
"M1.	c #F6E75E",
"N1.	c #F6E861",
"O1.	c #F7EB64",
"P1.	c #F4DF65",
"Q1.	c #F1B118",
"R1.	c #F2B312",
"S1.	c #F0B91D",
"T1.	c #F7DD58",
"U1.	c #FBEE6C",
"V1.	c #FAF273",
"W1.	c #F8F277",
"X1.	c #F9F478",
"Y1.	c #F8F578",
"Z1.	c #F6EC77",
"`1.	c #E8A429",
" 2.	c #E09105",
".2.	c #CB7500",
"+2.	c #D98601",
"@2.	c #DE8702",
"#2.	c #E08702",
"$2.	c #ED9407",
"%2.	c #F6B02A",
"&2.	c #F7AF21",
"*2.	c #F9AF1C",
"=2.	c #F9B11C",
"-2.	c #FAB420",
";2.	c #FBB621",
">2.	c #FBCE3F",
",2.	c #FCEC63",
"'2.	c #FCEE66",
")2.	c #FBEE6B",
"!2.	c #FAEF6E",
"~2.	c #FAF27A",
"{2.	c #FBF581",
"]2.	c #FDF784",
"^2.	c #FEF883",
"/2.	c #FDF783",
"(2.	c #FDF67D",
"_2.	c #FDF77A",
":2.	c #FDF476",
"<2.	c #F9EA65",
"[2.	c #FAEF67",
"}2.	c #F9EC67",
"|2.	c #DCA436",
"12.	c #D27901",
"22.	c #C87300",
"32.	c #975400",
"42.	c #985200",
"52.	c #904800",
"62.	c #8F4800",
"72.	c #944A00",
"82.	c #5E2E02",
"92.	c #6E3301",
"02.	c #8C4202",
"a2.	c #622D03",
"b2.	c #834100",
"c2.	c #544C01",
"d2.	c #046F02",
"e2.	c #04A20C",
"f2.	c #0BC91E",
"g2.	c #0CCA23",
"h2.	c #19D12F",
"i2.	c #03970B",
"j2.	c #009006",
"k2.	c #008A06",
"l2.	c #043201",
"m2.	c #9A9630",
"n2.	c #FCDB3E",
"o2.	c #FFDB3E",
"p2.	c #E7C33B",
"q2.	c #AB5C05",
"r2.	c #300B04",
"s2.	c #3C0E02",
"t2.	c #4E1E01",
"u2.	c #4A1501",
"v2.	c #491501",
"w2.	c #9A4F01",
"x2.	c #E2B415",
"y2.	c #FCC11C",
"z2.	c #D9B71B",
"A2.	c #673302",
"B2.	c #703400",
"C2.	c #E18D02",
"D2.	c #E69002",
"E2.	c #EA9803",
"F2.	c #965F02",
"G2.	c #A28E2B",
"H2.	c #FCE647",
"I2.	c #FFE647",
"J2.	c #FEE144",
"K2.	c #FEE247",
"L2.	c #FFEA51",
"M2.	c #FFF15A",
"N2.	c #FFF059",
"O2.	c #FFDC3D",
"P2.	c #FFD736",
"Q2.	c #FDE35E",
"R2.	c #FFF96C",
"S2.	c #FFF968",
"T2.	c #FFF764",
"U2.	c #FFF35C",
"V2.	c #FFEF57",
"W2.	c #FFED52",
"X2.	c #FFF562",
"Y2.	c #FBE666",
"Z2.	c #F9B117",
"`2.	c #F9B20E",
" 3.	c #FBB918",
".3.	c #FDE357",
"+3.	c #FFF567",
"@3.	c #FFFB6F",
"#3.	c #FFFC71",
"$3.	c #FFFE77",
"%3.	c #FFFF79",
"&3.	c #FDF779",
"*3.	c #F0A828",
"=3.	c #E49103",
"-3.	c #CD7600",
";3.	c #D17C01",
">3.	c #FCB812",
",3.	c #FDB914",
"'3.	c #FCB914",
")3.	c #FCCC38",
"!3.	c #FFF461",
"~3.	c #FFF765",
"{3.	c #FFF96B",
"]3.	c #FFFB6E",
"^3.	c #FFFD75",
"/3.	c #FFFD78",
"(3.	c #FFFD7D",
"_3.	c #FFFE7D",
":3.	c #FFFD7A",
"<3.	c #FFFD77",
"[3.	c #FFFA73",
"}3.	c #FEF260",
"|3.	c #FFF763",
"13.	c #FEF363",
"23.	c #E0AB3A",
"33.	c #C77100",
"43.	c #290702",
"53.	c #2A0D05",
"63.	c #201710",
"73.	c #5E2B03",
"83.	c #5D4B02",
"93.	c #056C02",
"03.	c #03A30B",
"a3.	c #05CC1A",
"b3.	c #06CB1E",
"c3.	c #07CD1F",
"d3.	c #009208",
"e3.	c #008B06",
"f3.	c #008305",
"g3.	c #004E01",
"h3.	c #002600",
"i3.	c #052A00",
"j3.	c #9A9428",
"k3.	c #FBDC39",
"l3.	c #FCDB38",
"m3.	c #E9C738",
"n3.	c #AC5E05",
"o3.	c #5E2101",
"p3.	c #561C01",
"q3.	c #4E1801",
"r3.	c #9A5001",
"s3.	c #E0BB1C",
"t3.	c #F9CC21",
"u3.	c #D8BC1E",
"v3.	c #663202",
"w3.	c #713300",
"x3.	c #E28E02",
"y3.	c #935C04",
"z3.	c #5F2904",
"A3.	c #652B04",
"B3.	c #A18B26",
"C3.	c #F9E748",
"D3.	c #FDE94B",
"E3.	c #FCE547",
"F3.	c #FCE548",
"G3.	c #FDEA4C",
"H3.	c #FDE74D",
"I3.	c #FCE84F",
"J3.	c #FEF15B",
"K3.	c #FEF461",
"L3.	c #FEF15E",
"M3.	c #FFDD40",
"N3.	c #FCE15B",
"O3.	c #FEF76A",
"P3.	c #FFF868",
"Q3.	c #FEF766",
"R3.	c #FFF25A",
"S3.	c #FEEF57",
"T3.	c #FFEC55",
"U3.	c #FEEA4E",
"V3.	c #FEEE55",
"W3.	c #FEF462",
"X3.	c #FBE668",
"Y3.	c #FAB41D",
"Z3.	c #FBB517",
"`3.	c #FCB91B",
" 4.	c #FDE156",
".4.	c #FFF262",
"+4.	c #FFF86E",
"@4.	c #FFFE7F",
"#4.	c #FDF67E",
"$4.	c #EFA52B",
"%4.	c #E08C12",
"&4.	c #CA7311",
"*4.	c #CA7411",
"=4.	c #D17C11",
"-4.	c #D37C10",
";4.	c #DE8710",
">4.	c #FAB91B",
",4.	c #FBB71A",
"'4.	c #FCBA1A",
")4.	c #FDBC1B",
"!4.	c #FDCF38",
"~4.	c #FFF361",
"{4.	c #FFF767",
"]4.	c #FFFB70",
"^4.	c #FFFC75",
"/4.	c #FEFC76",
"(4.	c #FEFD7A",
"_4.	c #FEFD7B",
":4.	c #FFFC78",
"<4.	c #FFFB77",
"[4.	c #FFFA74",
"}4.	c #FEF262",
"|4.	c #FEF664",
"14.	c #FDF262",
"24.	c #E1AE3C",
"34.	c #300C03",
"44.	c #280902",
"54.	c #944702",
"64.	c #290D05",
"74.	c #070106",
"84.	c #693703",
"94.	c #B15A00",
"04.	c #8E4F01",
"a4.	c #0C4000",
"b4.	c #018007",
"c4.	c #028309",
"d4.	c #01890A",
"e4.	c #008F08",
"f4.	c #008D07",
"g4.	c #008805",
"h4.	c #005101",
"i4.	c #032B00",
"j4.	c #825C0B",
"k4.	c #C78115",
"l4.	c #C58014",
"m4.	c #B6730F",
"n4.	c #B35D01",
"o4.	c #944C00",
"p4.	c #552301",
"q4.	c #713200",
"r4.	c #833C00",
"s4.	c #BE6B00",
"t4.	c #B0840C",
"u4.	c #A57E0E",
"v4.	c #A67F0E",
"w4.	c #97750F",
"x4.	c #CE7902",
"y4.	c #D4A82B",
"z4.	c #D5BC38",
"A4.	c #D6BD41",
"B4.	c #CFB347",
"C4.	c #BA962C",
"D4.	c #B99F30",
"E4.	c #B89D2E",
"F4.	c #B79D31",
"G4.	c #BAA232",
"H4.	c #BDA032",
"I4.	c #C6A133",
"J4.	c #DCAF3E",
"K4.	c #E3B13C",
"L4.	c #E4AF3B",
"M4.	c #E9AC2A",
"N4.	c #EAAB24",
"O4.	c #E9A61E",
"P4.	c #EAAF3D",
"Q4.	c #F0BD4C",
"R4.	c #F0BC48",
"S4.	c #EEB947",
"T4.	c #DFAE3C",
"U4.	c #DCAB39",
"V4.	c #DFAB3B",
"W4.	c #D9A938",
"X4.	c #D9AA3E",
"Y4.	c #D8AD49",
"Z4.	c #E2BC55",
"`4.	c #FCE46B",
" 5.	c #FEE66C",
".5.	c #FEE771",
"+5.	c #FEF278",
"@5.	c #FFF774",
"#5.	c #FFF571",
"$5.	c #FDDD59",
"%5.	c #FED855",
"&5.	c #FDDB58",
"*5.	c #F9E07F",
"=5.	c #F4DE87",
"-5.	c #ECD685",
";5.	c #EDD687",
">5.	c #EFD884",
",5.	c #F0D883",
"'5.	c #F3D87F",
")5.	c #FBE887",
"!5.	c #FCE785",
"~5.	c #FCE781",
"{5.	c #FDE679",
"]5.	c #FDE96F",
"^5.	c #FFEA69",
"/5.	c #FBCD43",
"(5.	c #FCCD49",
"_5.	c #FBD04A",
":5.	c #FAD14E",
"<5.	c #FBD453",
"[5.	c #FBD553",
"}5.	c #FCD758",
"|5.	c #FCD85C",
"15.	c #FCD55B",
"25.	c #FACF5B",
"35.	c #F8CB56",
"45.	c #F8C954",
"55.	c #F7C754",
"65.	c #E3B347",
"75.	c #DEB046",
"85.	c #DAAC41",
"95.	c #B47726",
"05.	c #A55600",
"a5.	c #A15200",
"b5.	c #9B4D00",
"c5.	c #793501",
"d5.	c #6A2C02",
"e5.	c #471B04",
"f5.	c #491D03",
"g5.	c #471D04",
"h5.	c #6D3B03",
"i5.	c #B76300",
"j5.	c #925600",
"k5.	c #0E3800",
"l5.	c #006300",
"m5.	c #006D00",
"n5.	c #007403",
"o5.	c #009509",
"p5.	c #008905",
"q5.	c #002B00",
"r5.	c #032800",
"s5.	c #793E00",
"t5.	c #B05600",
"u5.	c #481602",
"v5.	c #461502",
"w5.	c #401101",
"x5.	c #9B5801",
"y5.	c #C46A02",
"z5.	c #ECBB31",
"A5.	c #FDDA3C",
"B5.	c #FEDD3D",
"C5.	c #E4CA49",
"D5.	c #924A0B",
"E5.	c #CB6F00",
"F5.	c #D47800",
"G5.	c #D97E00",
"H5.	c #EA8F00",
"I5.	c #EB8F00",
"J5.	c #E68A00",
"K5.	c #C06500",
"L5.	c #BB6000",
"M5.	c #C56800",
"N5.	c #BC6100",
"O5.	c #BE6300",
"P5.	c #BE6200",
"Q5.	c #CD9B3E",
"R5.	c #FDF569",
"S5.	c #FFFA6D",
"T5.	c #FFFE79",
"U5.	c #FFF673",
"V5.	c #FDC72C",
"W5.	c #FDC221",
"X5.	c #FECA2F",
"Y5.	c #FEF77E",
"Z5.	c #FFFF88",
"`5.	c #FFFF8A",
" 6.	c #FFFF87",
".6.	c #FFFF86",
"+6.	c #FEFD82",
"@6.	c #FFF973",
"#6.	c #FFF86C",
"$6.	c #FFF769",
"%6.	c #FDE85C",
"&6.	c #FBB30F",
"*6.	c #FCB713",
"=6.	c #FCB614",
"-6.	c #FBB514",
";6.	c #FDBC19",
">6.	c #FDB917",
",6.	c #F6A607",
"'6.	c #F5A608",
")6.	c #CD7501",
"!6.	c #C86D00",
"~6.	c #783000",
"{6.	c #682C03",
"]6.	c #B76200",
"^6.	c #975601",
"/6.	c #203600",
"(6.	c #163000",
"_6.	c #113D01",
":6.	c #016701",
"<6.	c #007101",
"[6.	c #007A04",
"}6.	c #019809",
"|6.	c #018C05",
"16.	c #042A00",
"26.	c #7C4101",
"36.	c #B65B00",
"46.	c #4A1701",
"56.	c #4B1800",
"66.	c #471600",
"76.	c #461501",
"86.	c #AA5500",
"96.	c #7B3A00",
"06.	c #C67001",
"a6.	c #C26A01",
"b6.	c #EBC031",
"c6.	c #FCE343",
"d6.	c #FCE443",
"e6.	c #E5CC4D",
"f6.	c #9C4F0C",
"g6.	c #A04B00",
"h6.	c #974400",
"i6.	c #D98300",
"j6.	c #DF8E00",
"k6.	c #E08E00",
"l6.	c #E29100",
"m6.	c #E79500",
"n6.	c #EC9B00",
"o6.	c #EE9D00",
"p6.	c #E89200",
"q6.	c #CD7100",
"r6.	c #CA7001",
"s6.	c #D29F40",
"t6.	c #FBF468",
"u6.	c #FCF668",
"v6.	c #FCF874",
"w6.	c #FEFB79",
"x6.	c #FEFB7A",
"y6.	c #FEFC80",
"z6.	c #FEF474",
"A6.	c #FECA33",
"B6.	c #FEC52C",
"C6.	c #FEF67F",
"D6.	c #FEFE8B",
"E6.	c #FFFE8C",
"F6.	c #FEFE88",
"G6.	c #FFFE87",
"H6.	c #FFFD88",
"I6.	c #FFFF89",
"J6.	c #FFFE86",
"K6.	c #FFFA77",
"L6.	c #FFF566",
"M6.	c #FCE75B",
"N6.	c #FAB214",
"O6.	c #FBB30E",
"P6.	c #FCB513",
"Q6.	c #FCB613",
"R6.	c #FCB716",
"S6.	c #FBB716",
"T6.	c #FDBA18",
"U6.	c #FAB111",
"V6.	c #F5A606",
"W6.	c #F3A607",
"X6.	c #CD7701",
"Y6.	c #CE7200",
"Z6.	c #924900",
"`6.	c #642903",
" 7.	c #020102",
".7.	c #210C05",
"+7.	c #482003",
"@7.	c #5F3002",
"#7.	c #7B3C01",
"$7.	c #893F01",
"%7.	c #124503",
"&7.	c #004702",
"*7.	c #015402",
"=7.	c #015C03",
"-7.	c #025303",
";7.	c #025503",
">7.	c #013E01",
",7.	c #013400",
"'7.	c #4F2D00",
")7.	c #914D00",
"!7.	c #3D1103",
"~7.	c #843E01",
"{7.	c #8B4701",
"]7.	c #884A02",
"^7.	c #8C5002",
"/7.	c #8A4601",
"(7.	c #A17B07",
"_7.	c #DBA208",
":7.	c #DB9504",
"<7.	c #DD9304",
"[7.	c #EFA50B",
"}7.	c #F0A911",
"|7.	c #EDA90F",
"17.	c #B89815",
"27.	c #9D901F",
"37.	c #9D9630",
"47.	c #91872D",
"57.	c #5E2D06",
"67.	c #5D2904",
"77.	c #5B2704",
"87.	c #542104",
"97.	c #512003",
"07.	c #542403",
"a7.	c #5A2703",
"b7.	c #6A3302",
"c7.	c #763C02",
"d7.	c #824B02",
"e7.	c #844C03",
"f7.	c #895403",
"g7.	c #8E5B04",
"h7.	c #905F04",
"i7.	c #8C5704",
"j7.	c #874D04",
"k7.	c #864202",
"l7.	c #844002",
"m7.	c #7D3E02",
"n7.	c #763802",
"o7.	c #7F4004",
"p7.	c #7F5E20",
"q7.	c #9B9850",
"r7.	c #9D9B4E",
"s7.	c #9E9B5A",
"t7.	c #CBB062",
"u7.	c #E6B35C",
"v7.	c #E7B251",
"w7.	c #EEBD51",
"x7.	c #FDEB7A",
"y7.	c #FDEC7E",
"z7.	c #FDE674",
"A7.	c #FCCF4C",
"B7.	c #FCD155",
"C7.	c #FCCF5E",
"D7.	c #FBCB5C",
"E7.	c #F7C366",
"F7.	c #F6C16A",
"G7.	c #F6C263",
"H7.	c #FEFA90",
"I7.	c #FFFE85",
"J7.	c #FFFD81",
"K7.	c #FFF66D",
"L7.	c #FDE966",
"M7.	c #F8AD13",
"N7.	c #F8AC08",
"O7.	c #FAB00F",
"P7.	c #FBB616",
"Q7.	c #FDBD1E",
"R7.	c #FEC021",
"S7.	c #FCB819",
"T7.	c #FBB515",
"U7.	c #FBB415",
"V7.	c #EBA90F",
"W7.	c #C17703",
"X7.	c #C47502",
"Y7.	c #904901",
"Z7.	c #864200",
"`7.	c #C56F00",
" 8.	c #BB6700",
".8.	c #BC6C01",
"+8.	c #622602",
"@8.	c #300D04",
"#8.	c #010002",
"$8.	c #060106",
"%8.	c #6A3001",
"&8.	c #142701",
"*8.	c #002500",
"=8.	c #002000",
"-8.	c #002400",
";8.	c #013700",
">8.	c #332800",
",8.	c #C46A00",
"'8.	c #240604",
")8.	c #2D0A03",
"!8.	c #380F04",
"~8.	c #360C02",
"{8.	c #B45E01",
"]8.	c #572501",
"^8.	c #AF8906",
"/8.	c #F6AB06",
"(8.	c #F4A204",
"_8.	c #F7A709",
":8.	c #F9AE11",
"<8.	c #F7B10F",
"[8.	c #907907",
"}8.	c #210303",
"|8.	c #1F0303",
"18.	c #1E0403",
"28.	c #1C0303",
"38.	c #200503",
"48.	c #2F0803",
"58.	c #1C0302",
"68.	c #190203",
"78.	c #330903",
"88.	c #AF7307",
"98.	c #DC8203",
"08.	c #E08904",
"a8.	c #E8A635",
"b8.	c #FEF872",
"c8.	c #FEF076",
"d8.	c #FDB911",
"e8.	c #FBB20B",
"f8.	c #F7A606",
"g8.	c #F6A504",
"h8.	c #F2A524",
"i8.	c #FDF887",
"j8.	c #FFFD80",
"k8.	c #FFFD7E",
"l8.	c #FFFA75",
"m8.	c #FCE96A",
"n8.	c #F7AA14",
"o8.	c #F8A906",
"p8.	c #FCBD1E",
"q8.	c #FDBF21",
"r8.	c #FBB212",
"s8.	c #FAB011",
"t8.	c #E39F0C",
"u8.	c #9B4F00",
"v8.	c #C77001",
"w8.	c #602401",
"x8.	c #4A1802",
"y8.	c #662C01",
"z8.	c #202801",
"A8.	c #152800",
"B8.	c #132300",
"C8.	c #052500",
"D8.	c #032300",
"E8.	c #041F00",
"F8.	c #022C00",
"G8.	c #013501",
"H8.	c #033500",
"I8.	c #322700",
"J8.	c #4E2400",
"K8.	c #4D2100",
"L8.	c #BF6600",
"M8.	c #914B01",
"N8.	c #2E0C03",
"O8.	c #3D1204",
"P8.	c #461801",
"Q8.	c #B96201",
"R8.	c #3F1901",
"S8.	c #924800",
"T8.	c #B58706",
"U8.	c #F4B507",
"V8.	c #F4AD05",
"W8.	c #F3A904",
"X8.	c #F2A907",
"Y8.	c #F4B20D",
"Z8.	c #F2B50E",
"`8.	c #907D0A",
" 9.	c #250705",
".9.	c #1F0404",
"+9.	c #200604",
"@9.	c #231302",
"#9.	c #312702",
"$9.	c #332904",
"%9.	c #332704",
"&9.	c #311702",
"*9.	c #301402",
"=9.	c #2C1203",
"-9.	c #2F1F03",
";9.	c #342803",
">9.	c #342904",
",9.	c #332504",
"'9.	c #2B1303",
")9.	c #2D1203",
"!9.	c #331303",
"~9.	c #290B02",
"{9.	c #280C02",
"]9.	c #390D03",
"^9.	c #360C03",
"/9.	c #B17B07",
"(9.	c #DD8802",
"_9.	c #E38F04",
":9.	c #E8A834",
"<9.	c #FAF36F",
"[9.	c #FBF56F",
"}9.	c #FAEB75",
"|9.	c #FCC026",
"19.	c #FCBB1E",
"29.	c #FBB51E",
"39.	c #F8AE16",
"49.	c #F8A813",
"59.	c #F9A813",
"69.	c #F3A826",
"79.	c #FAEC78",
"89.	c #FBF373",
"99.	c #FCF573",
"09.	c #FBF476",
"a9.	c #FBF67B",
"b9.	c #FBF577",
"c9.	c #F8E670",
"d9.	c #F6AA16",
"e9.	c #F8A807",
"f9.	c #F8B611",
"g9.	c #FABB15",
"h9.	c #FABC17",
"i9.	c #F9B712",
"j9.	c #F9B40E",
"k9.	c #F7B00C",
"l9.	c #E19D08",
"m9.	c #B65E00",
"n9.	c #985000",
"o9.	c #C96E00",
"p9.	c #C56F01",
"q9.	c #592202",
"r9.	c #2D0C05",
"s9.	c #552302",
"t9.	c #6D3000",
"u9.	c #351D00",
"v9.	c #281800",
"w9.	c #250F00",
"x9.	c #141500",
"y9.	c #051501",
"z9.	c #081701",
"A9.	c #835C01",
"B9.	c #C67B01",
"C9.	c #C27300",
"D9.	c #AA5C00",
"E9.	c #844102",
"F9.	c #552502",
"G9.	c #622A01",
"H9.	c #944401",
"I9.	c #8D4201",
"J9.	c #883D01",
"K9.	c #954B01",
"L9.	c #582301",
"M9.	c #602701",
"N9.	c #B26800",
"O9.	c #CC9606",
"P9.	c #DFA907",
"Q9.	c #E0A708",
"R9.	c #D49F07",
"S9.	c #9E6802",
"T9.	c #985F01",
"U9.	c #965D01",
"V9.	c #7D4D04",
"W9.	c #815B05",
"X9.	c #846507",
"Y9.	c #4E4207",
"Z9.	c #6E2E02",
"`9.	c #752F01",
" 0.	c #916A02",
".0.	c #D6AA08",
"+0.	c #DAAE0C",
"@0.	c #D7AA0C",
"#0.	c #B97001",
"$0.	c #B56601",
"%0.	c #C09405",
"&0.	c #D9AF0E",
"*0.	c #DBB414",
"=0.	c #D3A910",
"-0.	c #AC6102",
";0.	c #8A4101",
">0.	c #3F1302",
",0.	c #3C1002",
"'0.	c #694203",
")0.	c #7B4302",
"!0.	c #733F02",
"~0.	c #7C4D12",
"{0.	c #8C7C39",
"]0.	c #8F823E",
"^0.	c #B6A953",
"/0.	c #FAE56D",
"(0.	c #FCE970",
"_0.	c #FBE87A",
":0.	c #FAD465",
"<0.	c #FDD754",
"[0.	c #FDDC59",
"}0.	c #F6D551",
"|0.	c #BF8C35",
"10.	c #BD8831",
"20.	c #B88A3B",
"30.	c #AF863F",
"40.	c #AD8C47",
"50.	c #AE8D48",
"60.	c #B69147",
"70.	c #F5AF0E",
"80.	c #F9AB07",
"90.	c #F5A805",
"00.	c #BB7F04",
"a0.	c #AA6502",
"b0.	c #AE6602",
"c0.	c #B06902",
"d0.	c #B27202",
"e0.	c #B37203",
"f0.	c #AA6702",
"g0.	c #894000",
"h0.	c #B76701",
"i0.	c #BE6C00",
"j0.	c #C87700",
"k0.	c #CA8001",
"l0.	c #CA7C01",
"m0.	c #1A0406",
"n0.	c #502003",
"o0.	c #3D1801",
"p0.	c #321401",
"q0.	c #2A0E01",
"r0.	c #170B01",
"s0.	c #090A01",
"t0.	c #0C0C01",
"u0.	c #824002",
"v0.	c #360D02",
"w0.	c #3D0F01",
"x0.	c #4D1D01",
"y0.	c #974901",
"z0.	c #3E0F02",
"A0.	c #5A2E01",
"B0.	c #BB6800",
"C0.	c #DB9506",
"D0.	c #F4A708",
"E0.	c #DCA50D",
"F0.	c #763901",
"G0.	c #1B0304",
"H0.	c #9F6B02",
"I0.	c #F4A405",
"J0.	c #F1A205",
"K0.	c #D69807",
"L0.	c #F8AD0A",
"M0.	c #FBB20C",
"N0.	c #F1AB0C",
"O0.	c #B05C01",
"P0.	c #380C01",
"Q0.	c #3D0E02",
"R0.	c #461001",
"S0.	c #460F01",
"T0.	c #978937",
"U0.	c #FCF467",
"V0.	c #FFF96D",
"W0.	c #FEF976",
"X0.	c #FDE15E",
"Y0.	c #FFE550",
"Z0.	c #FAE24D",
"`0.	c #B1640D",
" a.	c #8E3E00",
".a.	c #9D5C03",
"+a.	c #F5B40B",
"@a.	c #FBB00A",
"#a.	c #F8AD06",
"$a.	c #A86E02",
"%a.	c #8F4000",
"&a.	c #803900",
"*a.	c #320C04",
"=a.	c #0F0207",
"-a.	c #0E0207",
";a.	c #0C0606",
">a.	c #0B0407",
",a.	c #080206",
"'a.	c #431C06",
")a.	c #5F2703",
"!a.	c #572201",
"~a.	c #5F2501",
"{a.	c #441701",
"]a.	c #3A1301",
"^a.	c #2E1001",
"/a.	c #1E0D03",
"(a.	c #1A0B02",
"_a.	c #1D0D02",
":a.	c #8A4B01",
"<a.	c #864002",
"[a.	c #310B03",
"}a.	c #390D02",
"|a.	c #441500",
"1a.	c #451500",
"2a.	c #5E3001",
"3a.	c #D99606",
"4a.	c #F3AE09",
"5a.	c #D9AB10",
"6a.	c #230705",
"7a.	c #2A0903",
"8a.	c #9F6704",
"9a.	c #ED9D07",
"0a.	c #EE9704",
"aa.	c #E79204",
"ba.	c #D8930E",
"ca.	c #F4A80F",
"da.	c #F6A911",
"ea.	c #EEA310",
"fa.	c #B15C01",
"ga.	c #3E1000",
"ha.	c #3F1000",
"ia.	c #91802F",
"ja.	c #F6EC61",
"ka.	c #FAF364",
"la.	c #FAF266",
"ma.	c #FAE04F",
"na.	c #FEE04A",
"oa.	c #FDE24B",
"pa.	c #F7DE4D",
"qa.	c #B5691D",
"ra.	c #B36213",
"sa.	c #AB5D12",
"ta.	c #9B4A04",
"ua.	c #945402",
"va.	c #EFB00A",
"wa.	c #F5AD09",
"xa.	c #F1A404",
"ya.	c #A26601",
"za.	c #7D3800",
"Aa.	c #2F0B05",
"Ba.	c #120307",
"Ca.	c #100307",
"Da.	c #1C1610",
"Ea.	c #1E0F09",
"Fa.	c #340F02",
"Ga.	c #692E01",
"Ha.	c #904B00",
"Ia.	c #411302",
"Ja.	c #572301",
"Ka.	c #7E3901",
"La.	c #642C01",
"Ma.	c #9E5301",
"Na.	c #AA5A00",
"Oa.	c #AB5D01",
"Pa.	c #C46D00",
"Qa.	c #806808",
"Ra.	c #806A07",
"Sa.	c #755F05",
"Ta.	c #421C04",
"Ua.	c #451904",
"Va.	c #481A04",
"Wa.	c #300C04",
"Xa.	c #371002",
"Ya.	c #541F02",
"Za.	c #682B01",
"`a.	c #C07000",
" b.	c #C58D15",
".b.	c #F7CC28",
"+b.	c #F8C325",
"@b.	c #F4BB21",
"#b.	c #E29104",
"$b.	c #E49102",
"%b.	c #E18E06",
"&b.	c #E8BE46",
"*b.	c #FADF52",
"=b.	c #FADF4F",
"-b.	c #F4CF47",
";b.	c #E69C0A",
">b.	c #E89C04",
",b.	c #E39C02",
"'b.	c #9D5200",
")b.	c #8A4001",
"!b.	c #6B2D01",
"~b.	c #523B16",
"{b.	c #767438",
"]b.	c #777735",
"^b.	c #7D7735",
"/b.	c #BE8B24",
"(b.	c #DE8F17",
"_b.	c #E19118",
":b.	c #E8A82B",
"<b.	c #EEE376",
"[b.	c #EEE46F",
"}b.	c #EADE6C",
"|b.	c #B48230",
"1b.	c #926302",
"2b.	c #956102",
"3b.	c #965F01",
"4b.	c #C87600",
"5b.	c #DB8600",
"6b.	c #DC8800",
"7b.	c #CD7E00",
"8b.	c #7F3C00",
"9b.	c #7B3B00",
"0b.	c #803F00",
"ab.	c #C88201",
"bb.	c #E58F01",
"cb.	c #290904",
"db.	c #561F00",
"eb.	c #8D4602",
"fb.	c #270603",
"gb.	c #541F03",
"hb.	c #C26B01",
"ib.	c #260705",
"jb.	c #1C0406",
"kb.	c #350D03",
"lb.	c #D07B00",
"mb.	c #D69618",
"nb.	c #FECA28",
"ob.	c #EB9503",
"pb.	c #E89206",
"qb.	c #EEC956",
"rb.	c #FFEF59",
"sb.	c #FBDD50",
"tb.	c #F6A60E",
"ub.	c #F7A607",
"vb.	c #F3A703",
"wb.	c #4E1901",
"xb.	c #240502",
"yb.	c #AE7302",
"zb.	c #CE7300",
"Ab.	c #D27500",
"Bb.	c #D68B24",
"Cb.	c #FCF77D",
"Db.	c #FEFC75",
"Eb.	c #FCF572",
"Fb.	c #BF8A30",
"Gb.	c #D98500",
"Hb.	c #562000",
"Ib.	c #C48601",
"Jb.	c #E68C00",
"Kb.	c #DB7E00",
"Lb.	c #521C00",
"Mb.	c #6F2F01",
"Nb.	c #A45001",
"Ob.	c #AB5400",
"Pb.	c #914803",
"Qb.	c #320C03",
"Rb.	c #5F2801",
"Sb.	c #B65C00",
"Tb.	c #A34E00",
"Ub.	c #250603",
"Vb.	c #531F03",
"Wb.	c #BE6701",
"Xb.	c #C26F01",
"Yb.	c #8D5404",
"Zb.	c #CE7800",
"`b.	c #D59617",
" c.	c #FAD22B",
".c.	c #FACE28",
"+c.	c #F8C826",
"@c.	c #EDC659",
"#c.	c #FEED5C",
"$c.	c #FBDC4D",
"%c.	c #F6A70F",
"&c.	c #F4A703",
"*c.	c #A35900",
"=c.	c #9A4B01",
"-c.	c #260401",
";c.	c #270502",
">c.	c #AF7E03",
",c.	c #D47C01",
"'c.	c #D57901",
")c.	c #D38628",
"!c.	c #F6F08A",
"~c.	c #F8F67B",
"{c.	c #F7F070",
"]c.	c #BE8B30",
"^c.	c #AA5A12",
"/c.	c #AE5D11",
"(c.	c #A85A0E",
"_c.	c #702B01",
":c.	c #712A00",
"<c.	c #D78300",
"[c.	c #EC9800",
"}c.	c #EB9600",
"|c.	c #D58200",
"1c.	c #522701",
"2c.	c #C38801",
"3c.	c #DC8301",
"4c.	c #DA7E01",
"5c.	c #804201",
"6c.	c #2A0A03",
"7c.	c #2F0C03",
"8c.	c #280A05",
"9c.	c #1D120D",
"0c.	c #4B1B01",
"ac.	c #1C0503",
"bc.	c #854501",
"cc.	c #A95801",
"dc.	c #481C03",
"ec.	c #4A1F04",
"fc.	c #4C2004",
"gc.	c #3A1804",
"hc.	c #3B1103",
"ic.	c #532602",
"jc.	c #4E1F02",
"kc.	c #4C1D02",
"lc.	c #743602",
"mc.	c #AD5600",
"nc.	c #401C04",
"oc.	c #431E04",
"pc.	c #321405",
"qc.	c #1D0406",
"rc.	c #A36101",
"sc.	c #B96D00",
"tc.	c #BB6C00",
"uc.	c #B96900",
"vc.	c #B56500",
"wc.	c #B16100",
"xc.	c #A25603",
"yc.	c #B06909",
"zc.	c #A86307",
"Ac.	c #A96206",
"Bc.	c #B66001",
"Cc.	c #C06501",
"Dc.	c #DB8E1F",
"Ec.	c #ECA323",
"Fc.	c #EDA41F",
"Gc.	c #ED9F19",
"Hc.	c #F6A305",
"Ic.	c #F4A502",
"Jc.	c #C77300",
"Kc.	c #CC7800",
"Lc.	c #CF8A0C",
"Mc.	c #DCB122",
"Nc.	c #DCAF20",
"Oc.	c #A4700C",
"Pc.	c #4F2C01",
"Qc.	c #5F3101",
"Rc.	c #613000",
"Sc.	c #633509",
"Tc.	c #876133",
"Uc.	c #86622F",
"Vc.	c #8B632A",
"Wc.	c #D3BD58",
"Xc.	c #F5E863",
"Yc.	c #F6E860",
"Zc.	c #E9D651",
"`c.	c #8C4C0B",
" d.	c #814100",
".d.	c #804000",
"+d.	c #D7A708",
"@d.	c #E5B209",
"#d.	c #E6B10A",
"$d.	c #D58F03",
"%d.	c #693101",
"&d.	c #401504",
"*d.	c #170F0C",
"=d.	c #4A1B02",
"-d.	c #864502",
";d.	c #A65602",
">d.	c #130305",
",d.	c #1A0404",
"'d.	c #441601",
")d.	c #B96C00",
"!d.	c #B55B00",
"~d.	c #B95D00",
"{d.	c #EB9300",
"]d.	c #F4A001",
"^d.	c #F5A001",
"/d.	c #E2950B",
"(d.	c #FEC41E",
"_d.	c #FFC21D",
":d.	c #B3820E",
"<d.	c #3C0F00",
"[d.	c #823F07",
"}d.	c #D5C45A",
"|d.	c #FFF662",
"1d.	c #FEF55F",
"2d.	c #F0DF4F",
"3d.	c #8E4E09",
"4d.	c #742D00",
"5d.	c #EBAB07",
"6d.	c #FAAD06",
"7d.	c #F9AC07",
"8d.	c #E39303",
"9d.	c #D77E00",
"0d.	c #B16200",
"ad.	c #5C2300",
"bd.	c #3E1403",
"cd.	c #0A0107",
"dd.	c #120B0B",
"ed.	c #110303",
"fd.	c #652900",
"gd.	c #371103",
"hd.	c #924A02",
"id.	c #2E0E04",
"jd.	c #552001",
"kd.	c #743302",
"ld.	c #965401",
"md.	c #944C01",
"nd.	c #964C01",
"od.	c #924801",
"pd.	c #974B01",
"qd.	c #9A4D00",
"rd.	c #6C3001",
"sd.	c #A17501",
"td.	c #A28101",
"ud.	c #A18002",
"vd.	c #B07202",
"wd.	c #B96A00",
"xd.	c #B76700",
"yd.	c #B76600",
"zd.	c #B66301",
"Ad.	c #BD8E21",
"Bd.	c #C19724",
"Cd.	c #BB911F",
"Dd.	c #B5912A",
"Ed.	c #BC9E46",
"Fd.	c #BE9E4A",
"Gd.	c #C09F4D",
"Hd.	c #C7A149",
"Id.	c #C8A24A",
"Jd.	c #CBA34D",
"Kd.	c #DDB05B",
"Ld.	c #ECB860",
"Md.	c #EEB967",
"Nd.	c #EFBA66",
"Od.	c #F5C06F",
"Pd.	c #F6C074",
"Qd.	c #F5C167",
"Rd.	c #DFAF66",
"Sd.	c #DFAF64",
"Td.	c #DEAE65",
"Ud.	c #E5B95E",
"Vd.	c #FDD248",
"Wd.	c #FFD245",
"Xd.	c #FDD543",
"Yd.	c #CCB040",
"Zd.	c #B39C48",
"`d.	c #B49C54",
" e.	c #B59C4D",
".e.	c #BB9D46",
"+e.	c #BB9D4B",
"@e.	c #B59439",
"#e.	c #9D7F09",
"$e.	c #9D7E07",
"%e.	c #9C7502",
"&e.	c #765201",
"*e.	c #753607",
"=e.	c #B2A559",
"-e.	c #D5D26B",
";e.	c #D5D268",
">e.	c #D1C251",
",e.	c #AF9C4E",
"'e.	c #B09C4D",
")e.	c #B39D57",
"!e.	c #AD9749",
"~e.	c #A8994F",
"{e.	c #A69A56",
"]e.	c #AC963B",
"^e.	c #AB921E",
"/e.	c #AC8E1A",
"(e.	c #B98B16",
"_e.	c #D09819",
":e.	c #CA9212",
"<e.	c #C88D0E",
"[e.	c #EDA507",
"}e.	c #F8A605",
"|e.	c #D28C03",
"1e.	c #BD7100",
"2e.	c #BC7000",
"3e.	c #A25D01",
"4e.	c #511E01",
"5e.	c #080403",
"6e.	c #120304",
"7e.	c #4D1B02",
"8e.	c #3B1302",
"9e.	c #300E02",
"0e.	c #B46101",
"ae.	c #240A04",
"be.	c #210A04",
"ce.	c #200904",
"de.	c #1E0804",
"ee.	c #2D0A02",
"fe.	c #703402",
"ge.	c #E28D01",
"he.	c #EC9702",
"ie.	c #A17002",
"je.	c #E8BC28",
"ke.	c #FDCB2C",
"le.	c #FCC828",
"me.	c #FCCE35",
"ne.	c #FDE952",
"oe.	c #FDE54E",
"pe.	c #FEE650",
"qe.	c #FDE650",
"re.	c #FEE54F",
"se.	c #FDE44F",
"te.	c #FEF064",
"ue.	c #FEF870",
"ve.	c #FEFA76",
"we.	c #FFFA7D",
"xe.	c #FEFA7F",
"ye.	c #FEF877",
"ze.	c #FEFB7E",
"Ae.	c #FEFB7F",
"Be.	c #FEFB7D",
"Ce.	c #FEF878",
"De.	c #FFE655",
"Ee.	c #FFE653",
"Fe.	c #FFE856",
"Ge.	c #FCE652",
"He.	c #FCE854",
"Ie.	c #FDE044",
"Je.	c #FDDE44",
"Ke.	c #F7D03B",
"Le.	c #E69306",
"Me.	c #E59104",
"Ne.	c #A96601",
"Oe.	c #56260B",
"Pe.	c #542A11",
"Qe.	c #522910",
"Re.	c #8B7429",
"Se.	c #F5EA5C",
"Te.	c #FCEE57",
"Ue.	c #FDF15F",
"Ve.	c #FDDD48",
"We.	c #FCE04B",
"Xe.	c #FCE556",
"Ye.	c #FCD43E",
"Ze.	c #FBBF1D",
"`e.	c #FBBA19",
" f.	c #F9B719",
".f.	c #FBB311",
"+f.	c #F9A908",
"@f.	c #F7A404",
"#f.	c #A86F02",
"$f.	c #501E03",
"%f.	c #080207",
"&f.	c #070403",
"*f.	c #300B03",
"=f.	c #381003",
"-f.	c #3A1302",
";f.	c #B66201",
">f.	c #2F0B02",
",f.	c #743702",
"'f.	c #A16602",
")f.	c #E8BA23",
"!f.	c #FFC928",
"~f.	c #FECD33",
"{f.	c #FEE94F",
"]f.	c #FFE74D",
"^f.	c #FFE64D",
"/f.	c #FFF163",
"(f.	c #FFFA6E",
"_f.	c #FFFB72",
":f.	c #FFFB76",
"<f.	c #FFFB78",
"[f.	c #FEF973",
"}f.	c #FFFC7C",
"|f.	c #FFE552",
"1f.	c #FFE751",
"2f.	c #FFE54D",
"3f.	c #FFED53",
"4f.	c #FFEB50",
"5f.	c #FFE143",
"6f.	c #FFDF41",
"7f.	c #F8CF39",
"8f.	c #E69005",
"9f.	c #E58F02",
"0f.	c #AA6400",
"af.	c #8C7829",
"bf.	c #F9EE57",
"cf.	c #FFF154",
"df.	c #FEF25C",
"ef.	c #FFDD44",
"ff.	c #FFE44B",
"gf.	c #FED43B",
"hf.	c #FDBF1C",
"if.	c #FDB715",
"jf.	c #FCB310",
"kf.	c #F5A103",
"lf.	c #A76A02",
"mf.	c #16100E",
"nf.	c #571F02",
"of.	c #340E03",
"pf.	c #3C1402",
"qf.	c #542002",
"rf.	c #532102",
"sf.	c #B15E01",
"tf.	c #BF6701",
"uf.	c #BD6501",
"vf.	c #AA5D02",
"wf.	c #3C1703",
"xf.	c #260903",
"yf.	c #290A03",
"zf.	c #5E3403",
"Af.	c #743D01",
"Bf.	c #6E3901",
"Cf.	c #864401",
"Df.	c #DC8601",
"Ef.	c #E18B01",
"Ff.	c #E38F01",
"Gf.	c #A46501",
"Hf.	c #9E5F01",
"If.	c #A85D00",
"Jf.	c #E6B31C",
"Kf.	c #FBC322",
"Lf.	c #FAC42B",
"Mf.	c #FCE249",
"Nf.	c #FBE34C",
"Of.	c #FCE44E",
"Pf.	c #FBE655",
"Qf.	c #FCE756",
"Rf.	c #FBE753",
"Sf.	c #FCEB5B",
"Tf.	c #FCEF6A",
"Uf.	c #FBF072",
"Vf.	c #FBF277",
"Wf.	c #FBF278",
"Xf.	c #FCF176",
"Yf.	c #FEF778",
"Zf.	c #FEF677",
"`f.	c #FEF57A",
" g.	c #FEF275",
".g.	c #FFE04A",
"+g.	c #FEE14A",
"@g.	c #FEE651",
"#g.	c #F7E150",
"$g.	c #F9E751",
"%g.	c #F8E750",
"&g.	c #F9E24D",
"*g.	c #FDDC40",
"=g.	c #F7D03D",
"-g.	c #E4971D",
";g.	c #DF911D",
">g.	c #DC8E21",
",g.	c #B07219",
"'g.	c #7A5508",
")g.	c #795607",
"!g.	c #774E04",
"~g.	c #6B3900",
"{g.	c #6C3800",
"]g.	c #6A3400",
"^g.	c #542201",
"/g.	c #88762E",
"(g.	c #EEE75E",
"_g.	c #F3EB56",
":g.	c #F2E955",
"<g.	c #F2E145",
"[g.	c #F4E040",
"}g.	c #F4DE3E",
"|g.	c #F9D331",
"1g.	c #FBC11A",
"2g.	c #FBB210",
"3g.	c #EF9B03",
"4g.	c #9E6402",
"5g.	c #5F2601",
"6g.	c #4C1E04",
"7g.	c #060306",
"8g.	c #080405",
"9g.	c #150304",
"0g.	c #481702",
"ag.	c #471803",
"bg.	c #3F1303",
"cg.	c #370F03",
"dg.	c #6B3203",
"eg.	c #2F1303",
"fg.	c #2C1103",
"gg.	c #250E04",
"hg.	c #1D0506",
"ig.	c #AF7201",
"jg.	c #CF7B01",
"kg.	c #BC7801",
"lg.	c #F2AC03",
"mg.	c #EF9E01",
"ng.	c #ED9900",
"og.	c #E89003",
"pg.	c #EC9405",
"qg.	c #EB9205",
"rg.	c #E88C05",
"sg.	c #E3880C",
"tg.	c #E4880F",
"ug.	c #E48810",
"vg.	c #E28613",
"wg.	c #E38613",
"xg.	c #E38811",
"yg.	c #E68D12",
"zg.	c #E78E18",
"Ag.	c #E78D1B",
"Bg.	c #E3891D",
"Cg.	c #E2871D",
"Dg.	c #EB9922",
"Eg.	c #FDD53D",
"Fg.	c #FED139",
"Gg.	c #FED138",
"Hg.	c #FED036",
"Ig.	c #FECD31",
"Jg.	c #FECE32",
"Kg.	c #FBC92E",
"Lg.	c #C37F19",
"Mg.	c #BC650F",
"Ng.	c #C0680F",
"Og.	c #C7730E",
"Pg.	c #F4A20C",
"Qg.	c #F5A30D",
"Rg.	c #F3A921",
"Sg.	c #FDE450",
"Tg.	c #FDE753",
"Ug.	c #FDE957",
"Vg.	c #F2C841",
"Wg.	c #F3BC18",
"Xg.	c #F4BD16",
"Yg.	c #F0B30E",
"Zg.	c #D28101",
"`g.	c #D27F00",
" h.	c #975200",
".h.	c #713105",
"+h.	c #4F3B16",
"@h.	c #4D3C13",
"#h.	c #503C12",
"$h.	c #5C3D0E",
"%h.	c #633E0B",
"&h.	c #633F0A",
"*h.	c #CB810A",
"=h.	c #F19C02",
"-h.	c #F19C03",
";h.	c #EE9802",
">h.	c #814303",
",h.	c #401403",
"'h.	c #401602",
")h.	c #6B3403",
"!h.	c #C27201",
"~h.	c #F29D01",
"{h.	c #F09901",
"]h.	c #EC9402",
"^h.	c #F19B03",
"/h.	c #F09A03",
"(h.	c #E58B00",
"_h.	c #EF9700",
":h.	c #E99B17",
"<h.	c #FEE547",
"[h.	c #FFE344",
"}h.	c #FFDC3B",
"|h.	c #FFD536",
"1h.	c #FDD436",
"2h.	c #C98618",
"3h.	c #BF6400",
"4h.	c #C57101",
"5h.	c #F6A808",
"6h.	c #F3AC1E",
"7h.	c #FEE24D",
"8h.	c #FFE64C",
"9h.	c #FFE950",
"0h.	c #F8C739",
"ah.	c #F8AD10",
"bh.	c #F9AD0F",
"ch.	c #F6A90B",
"dh.	c #934C00",
"eh.	c #400E00",
"fh.	c #3E0C00",
"gh.	c #3F0C01",
"hh.	c #D28803",
"ih.	c #F09A01",
"jh.	c #C76D00",
"kh.	c #220402",
"lh.	c #1D0303",
"mh.	c #2E0904",
"nh.	c #0B0607",
"oh.	c #461703",
"ph.	c #3D1304",
"qh.	c #360F04",
"rh.	c #7E3601",
"sh.	c #833A01",
"th.	c #884001",
"uh.	c #B05901",
"vh.	c #A95501",
"wh.	c #AB5601",
"xh.	c #693203",
"yh.	c #381A02",
"zh.	c #784401",
"Ah.	c #794101",
"Bh.	c #794301",
"Ch.	c #AE6702",
"Dh.	c #A26401",
"Eh.	c #9F6701",
"Fh.	c #A16601",
"Gh.	c #B67202",
"Hh.	c #C47A02",
"Ih.	c #C97D02",
"Jh.	c #E19E02",
"Kh.	c #E3AE04",
"Lh.	c #E1AB04",
"Mh.	c #E2A906",
"Nh.	c #E5AD08",
"Oh.	c #E4A806",
"Ph.	c #DFA104",
"Qh.	c #DC9A03",
"Rh.	c #D99401",
"Sh.	c #D99101",
"Th.	c #D99001",
"Uh.	c #DB9401",
"Vh.	c #DFA003",
"Wh.	c #E1A303",
"Xh.	c #E2A603",
"Yh.	c #E3A703",
"Zh.	c #E2A204",
"`h.	c #E0A104",
" i.	c #DC9F1B",
".i.	c #EBDC55",
"+i.	c #EBDB59",
"@i.	c #E9D752",
"#i.	c #E9D548",
"$i.	c #EAD343",
"%i.	c #E9D141",
"&i.	c #ECD242",
"*i.	c #D09C3A",
"=i.	c #C88933",
"-i.	c #C28635",
";i.	c #CB8F37",
">i.	c #F3B137",
",i.	c #F5B33A",
"'i.	c #F0B641",
")i.	c #F1D846",
"!i.	c #F0DA47",
"~i.	c #EFDE50",
"{i.	c #F2C939",
"]i.	c #F9B621",
"^i.	c #FAB620",
"/i.	c #F6B11D",
"(i.	c #D98F1E",
"_i.	c #D68E20",
":i.	c #D18C1E",
"<i.	c #A16509",
"[i.	c #8A5300",
"}i.	c #8B5600",
"|i.	c #4F1D01",
"1i.	c #602301",
"2i.	c #C88905",
"3i.	c #E59F05",
"4i.	c #E49F04",
"5i.	c #E29F04",
"6i.	c #E29E03",
"7i.	c #DF9B02",
"8i.	c #CB7D02",
"9i.	c #935402",
"0i.	c #704C02",
"ai.	c #6E5602",
"bi.	c #634F03",
"ci.	c #321104",
"di.	c #471802",
"ei.	c #451702",
"fi.	c #431A03",
"gi.	c #6E2E01",
"hi.	c #1E0603",
"ii.	c #220904",
"ji.	c #220A04",
"ki.	c #2C1004",
"li.	c #2D1104",
"mi.	c #441501",
"ni.	c #683D01",
"oi.	c #9E5800",
"pi.	c #5B2600",
"qi.	c #763600",
"ri.	c #F1AF04",
"si.	c #F6AF04",
"ti.	c #F6B004",
"ui.	c #F8B209",
"vi.	c #F9B60A",
"wi.	c #F7AF09",
"xi.	c #D4A80A",
"yi.	c #473502",
"zi.	c #3C3103",
"Ai.	c #3C3002",
"Bi.	c #3A2E03",
"Ci.	c #392D03",
"Di.	c #392B02",
"Ei.	c #392901",
"Fi.	c #3A2601",
"Gi.	c #3B2601",
"Hi.	c #3F2601",
"Ii.	c #402701",
"Ji.	c #412A01",
"Ki.	c #412B01",
"Li.	c #412D01",
"Mi.	c #422D01",
"Ni.	c #432E01",
"Oi.	c #432C02",
"Pi.	c #412C01",
"Qi.	c #3E2905",
"Ri.	c #3C3514",
"Si.	c #3C3516",
"Ti.	c #3B3514",
"Ui.	c #3F3510",
"Vi.	c #4F380E",
"Wi.	c #51380D",
"Xi.	c #846E30",
"Yi.	c #F4EA68",
"Zi.	c #FDF264",
"`i.	c #FDF36A",
" j.	c #FCF268",
".j.	c #FEF56A",
"+j.	c #FEF56C",
"@j.	c #F4E76E",
"#j.	c #AD6A1F",
"$j.	c #9B4E0B",
"%j.	c #904A11",
"&j.	c #D1B847",
"*j.	c #FDDE43",
"=j.	c #FED93B",
"-j.	c #FDE246",
";j.	c #FDDE3F",
">j.	c #EAA81F",
",j.	c #E89500",
"'j.	c #EA9800",
")j.	c #D68C00",
"!j.	c #552002",
"~j.	c #330A01",
"{j.	c #392002",
"]j.	c #3A2702",
"^j.	c #392802",
"/j.	c #392702",
"(j.	c #361F02",
"_j.	c #361902",
":j.	c #3F1F02",
"<j.	c #C48101",
"[j.	c #E69000",
"}j.	c #E18F01",
"|j.	c #361A04",
"1j.	c #2F0C04",
"2j.	c #421603",
"3j.	c #431903",
"4j.	c #1D0304",
"5j.	c #674301",
"6j.	c #D38B01",
"7j.	c #9F5800",
"8j.	c #763400",
"9j.	c #924B00",
"0j.	c #F2A905",
"aj.	c #F7AB09",
"bj.	c #F9AF0A",
"cj.	c #F8A909",
"dj.	c #D4A90F",
"ej.	c #3A2503",
"fj.	c #140103",
"gj.	c #160203",
"hj.	c #170202",
"ij.	c #1A0202",
"jj.	c #210302",
"kj.	c #2F0800",
"lj.	c #310901",
"mj.	c #330900",
"nj.	c #360A00",
"oj.	c #380A00",
"pj.	c #390A00",
"qj.	c #3D0D00",
"rj.	c #350A00",
"sj.	c #250502",
"tj.	c #250602",
"uj.	c #976A2B",
"vj.	c #F6E95C",
"wj.	c #FFF464",
"xj.	c #FFF86F",
"yj.	c #FDF567",
"zj.	c #FFF663",
"Aj.	c #FFF661",
"Bj.	c #F4E759",
"Cj.	c #A26012",
"Dj.	c #954503",
"Ej.	c #D0B540",
"Fj.	c #FEDD41",
"Gj.	c #FFDC40",
"Hj.	c #FFE246",
"Ij.	c #FFDB3D",
"Jj.	c #F0A91F",
"Kj.	c #E68F00",
"Lj.	c #320902",
"Mj.	c #200402",
"Nj.	c #1D0302",
"Oj.	c #160103",
"Pj.	c #150103",
"Qj.	c #1B0302",
"Rj.	c #2E1302",
"Sj.	c #C38001",
"Tj.	c #C57D01",
"Uj.	c #160104",
"Vj.	c #2D0C04",
"Wj.	c #441703",
"Xj.	c #471804",
"Yj.	c #3E1703",
"Zj.	c #863B01",
"`j.	c #6F2D02",
" k.	c #230803",
".k.	c #321004",
"+k.	c #311003",
"@k.	c #451A02",
"#k.	c #491C02",
"$k.	c #642B00",
"%k.	c #652B01",
"&k.	c #764701",
"*k.	c #CA8401",
"=k.	c #CE7900",
"-k.	c #A15900",
";k.	c #7A3D00",
">k.	c #8E5302",
",k.	c #AE6E02",
"'k.	c #A86A02",
")k.	c #AA7105",
"!k.	c #E7A405",
"~k.	c #E6A404",
"{k.	c #DFA809",
"]k.	c #DFA90A",
"^k.	c #DCA509",
"/k.	c #BA9F10",
"(k.	c #322004",
"_k.	c #280702",
":k.	c #200403",
"<k.	c #1F0403",
"[k.	c #1D0403",
"}k.	c #290902",
"|k.	c #310D01",
"1k.	c #4A2702",
"2k.	c #623501",
"3k.	c #623301",
"4k.	c #603101",
"5k.	c #633401",
"6k.	c #6B3C02",
"7k.	c #703E02",
"8k.	c #723E01",
"9k.	c #6E3A01",
"0k.	c #6D3B01",
"ak.	c #754301",
"bk.	c #482201",
"ck.	c #350E01",
"dk.	c #8C6230",
"ek.	c #D9D163",
"fk.	c #E1D86A",
"gk.	c #E1DA75",
"hk.	c #E7DB71",
"ik.	c #F7E569",
"jk.	c #F7E466",
"kk.	c #EDD95F",
"lk.	c #B28A35",
"mk.	c #AA8339",
"nk.	c #A7803C",
"ok.	c #D5B74A",
"pk.	c #F4D140",
"qk.	c #F5D240",
"rk.	c #F5D148",
"sk.	c #F4D44A",
"tk.	c #F4D444",
"uk.	c #F4CF3D",
"vk.	c #EDAD24",
"wk.	c #E79F1D",
"xk.	c #E7A120",
"yk.	c #D8971C",
"zk.	c #986413",
"Ak.	c #9B6410",
"Bk.	c #9D5E0C",
"Ck.	c #6E3E06",
"Dk.	c #532301",
"Ek.	c #512201",
"Fk.	c #582B02",
"Gk.	c #5A2C02",
"Hk.	c #502702",
"Ik.	c #391602",
"Jk.	c #371302",
"Kk.	c #321202",
"Lk.	c #431D01",
"Mk.	c #482302",
"Nk.	c #B17701",
"Ok.	c #D18000",
"Pk.	c #B67201",
"Qk.	c #502402",
"Rk.	c #421C02",
"Sk.	c #401B02",
"Tk.	c #441D03",
"Uk.	c #4B2003",
"Vk.	c #522102",
"Wk.	c #300F04",
"Xk.	c #180604",
"Yk.	c #0C0506",
"Zk.	c #2B0B04",
"`k.	c #1F0704",
" l.	c #1C0605",
".l.	c #A75601",
"+l.	c #B26200",
"@l.	c #E19C0B",
"#l.	c #F9C015",
"$l.	c #FABA13",
"%l.	c #F8C21B",
"&l.	c #C36F03",
"*l.	c #6C3902",
"=l.	c #372603",
"-l.	c #342504",
";l.	c #2B2204",
">l.	c #A57702",
",l.	c #D89401",
"'l.	c #D68E00",
")l.	c #D78C01",
"!l.	c #E19E06",
"~l.	c #ECAC0A",
"{l.	c #EDAD08",
"]l.	c #EDAB07",
"^l.	c #E9A501",
"/l.	c #E8A501",
"(l.	c #EBA902",
"_l.	c #936301",
":l.	c #2B1107",
"<l.	c #3A2D16",
"[l.	c #382E18",
"}l.	c #3D2F1B",
"|l.	c #774819",
"1l.	c #CD7715",
"2l.	c #CD7514",
"3l.	c #CE8328",
"4l.	c #F8EB67",
"5l.	c #FCF56B",
"6l.	c #FAF572",
"7l.	c #DFBB5A",
"8l.	c #C6700B",
"9l.	c #C36E09",
"0l.	c #C06B0D",
"al.	c #AF5E0D",
"bl.	c #B25F0B",
"cl.	c #B6630C",
"dl.	c #E2C33D",
"el.	c #FDE64C",
"fl.	c #FDE54C",
"gl.	c #FBE34B",
"hl.	c #F7E451",
"il.	c #F8E048",
"jl.	c #CB9521",
"kl.	c #BF6A01",
"ll.	c #B96600",
"ml.	c #CE7E00",
"nl.	c #D58300",
"ol.	c #C97B02",
"pl.	c #954B00",
"ql.	c #C77C01",
"rl.	c #975700",
"sl.	c #5F2700",
"tl.	c #5E2700",
"ul.	c #7B3B01",
"vl.	c #BA6001",
"wl.	c #542003",
"xl.	c #501C03",
"yl.	c #3F1402",
"zl.	c #3B1203",
"Al.	c #E39B0C",
"Bl.	c #FCBF18",
"Cl.	c #FEBD19",
"Dl.	c #FCC51E",
"El.	c #C46F03",
"Fl.	c #672E02",
"Gl.	c #200304",
"Hl.	c #3A0E00",
"Il.	c #A47101",
"Jl.	c #E59504",
"Kl.	c #F3A205",
"Ll.	c #F4A205",
"Ml.	c #F39E04",
"Nl.	c #EE9700",
"Ol.	c #EF9F00",
"Pl.	c #976301",
"Ql.	c #4D1900",
"Rl.	c #260503",
"Sl.	c #210403",
"Tl.	c #240503",
"Ul.	c #D17401",
"Vl.	c #CF7200",
"Wl.	c #CD7F25",
"Xl.	c #FFF869",
"Yl.	c #FEF971",
"Zl.	c #E1BD58",
"`l.	c #CC7303",
" m.	c #AE5500",
".m.	c #B25B03",
"+m.	c #DEC23E",
"@m.	c #FFE348",
"#m.	c #FEE145",
"$m.	c #FFE042",
"%m.	c #FEDE39",
"&m.	c #CD931B",
"*m.	c #9E5600",
"=m.	c #B05800",
"-m.	c #562203",
";m.	c #090408",
">m.	c #491903",
",m.	c #481802",
"'m.	c #431702",
")m.	c #321003",
"!m.	c #833B00",
"~m.	c #A35200",
"{m.	c #D27A02",
"]m.	c #D57C01",
"^m.	c #E1A111",
"/m.	c #F7CF1B",
"(m.	c #F8CD19",
"_m.	c #F5CA17",
":m.	c #C77703",
"<m.	c #743B02",
"[m.	c #1E0303",
"}m.	c #451C01",
"|m.	c #461D01",
"1m.	c #633301",
"2m.	c #733901",
"3m.	c #A16B09",
"4m.	c #DC8814",
"5m.	c #DC8415",
"6m.	c #D98613",
"7m.	c #E6960F",
"8m.	c #EE9D0E",
"9m.	c #EF9C0D",
"0m.	c #ED960C",
"am.	c #E68E0A",
"bm.	c #EA9B09",
"cm.	c #996C05",
"dm.	c #632900",
"em.	c #622A00",
"fm.	c #5D2801",
"gm.	c #391501",
"hm.	c #371402",
"im.	c #371503",
"jm.	c #BE6601",
"km.	c #BF7624",
"lm.	c #E9DC62",
"mm.	c #EFE464",
"nm.	c #EFE56A",
"om.	c #E0B750",
"pm.	c #D68316",
"qm.	c #D58013",
"rm.	c #CA7612",
"sm.	c #B4651F",
"tm.	c #B0601F",
"um.	c #B1621F",
"vm.	c #DABA3C",
"wm.	c #F6D93F",
"xm.	c #F7D83B",
"ym.	c #F7DA3B",
"zm.	c #FBE040",
"Am.	c #F9D72E",
"Bm.	c #CC9018",
"Cm.	c #C57104",
"Dm.	c #D07A05",
"Em.	c #D57D03",
"Fm.	c #883F00",
"Gm.	c #CD8401",
"Hm.	c #AB6501",
"Im.	c #6A3B01",
"Jm.	c #854801",
"Km.	c #C06701",
"Lm.	c #BC6200",
"Mm.	c #B15B01",
"Nm.	c #803B01",
"Om.	c #0C0507",
"Pm.	c #401402",
"Qm.	c #662802",
"Rm.	c #441702",
"Sm.	c #491A01",
"Tm.	c #4B1B00",
"Um.	c #CB7B00",
"Vm.	c #AE5D00",
"Wm.	c #B76500",
"Xm.	c #DCA60B",
"Ym.	c #F9BC11",
"Zm.	c #FABA10",
"`m.	c #DAAA0A",
" n.	c #7B5104",
".n.	c #724803",
"+n.	c #714503",
"@n.	c #3F2003",
"#n.	c #381803",
"$n.	c #2D0F03",
"%n.	c #BE6500",
"&n.	c #DA9502",
"*n.	c #EDA905",
"=n.	c #ECBA32",
"-n.	c #FCEA58",
";n.	c #FCE859",
">n.	c #FBE955",
",n.	c #FDDD41",
"'n.	c #FDDB3C",
")n.	c #FCD837",
"!n.	c #FDDD3A",
"~n.	c #FCDE3B",
"{n.	c #CF9B1C",
"]n.	c #663003",
"^n.	c #170104",
"/n.	c #301003",
"(n.	c #351A05",
"_n.	c #443711",
":n.	c #473A14",
"<n.	c #4D3D15",
"[n.	c #BFAD41",
"}n.	c #FDE751",
"|n.	c #FADF4A",
"1n.	c #FAF172",
"2n.	c #F9F072",
"3n.	c #F7EA6C",
"4n.	c #B59132",
"5n.	c #894906",
"6n.	c #894B06",
"7n.	c #9F5A07",
"8n.	c #C67109",
"9n.	c #C26E07",
"0n.	c #D17B01",
"an.	c #ECBC1F",
"bn.	c #FACB23",
"cn.	c #FAC41C",
"dn.	c #DCB20B",
"en.	c #602C01",
"fn.	c #D89A02",
"gn.	c #E8A503",
"hn.	c #EEB508",
"in.	c #E6A504",
"jn.	c #613301",
"kn.	c #3E1903",
"ln.	c #361402",
"mn.	c #321304",
"nn.	c #0E0608",
"on.	c #340F04",
"pn.	c #763500",
"qn.	c #CE7C00",
"rn.	c #D59C0A",
"sn.	c #F9B20F",
"tn.	c #F9B30F",
"un.	c #DBAC09",
"vn.	c #541F00",
"wn.	c #D98701",
"xn.	c #E99202",
"yn.	c #EDB02D",
"zn.	c #FFE851",
"An.	c #FFE850",
"Bn.	c #FFDA3B",
"Cn.	c #FFD534",
"Dn.	c #FED431",
"En.	c #FFD934",
"Fn.	c #FDDB34",
"Gn.	c #D19C20",
"Hn.	c #602B02",
"In.	c #1B0204",
"Jn.	c #2A1309",
"Kn.	c #BDAE4C",
"Ln.	c #FDE852",
"Mn.	c #FFE951",
"Nn.	c #FFF668",
"On.	c #FDF25E",
"Pn.	c #B38E2F",
"Qn.	c #853700",
"Rn.	c #D37D00",
"Sn.	c #EEB515",
"Tn.	c #FDBD17",
"Un.	c #FCBA13",
"Vn.	c #DFAE0B",
"Wn.	c #5F1F00",
"Xn.	c #D79902",
"Yn.	c #E99602",
"Zn.	c #F2A003",
"`n.	c #E79703",
" o.	c #5B2A01",
".o.	c #2E0C02",
"+o.	c #0F0708",
"@o.	c #361106",
"#o.	c #3C1403",
"$o.	c #3E1404",
"%o.	c #300E05",
"&o.	c #602802",
"*o.	c #652B00",
"=o.	c #592801",
"-o.	c #723A00",
";o.	c #743A00",
">o.	c #773B00",
",o.	c #BA7601",
"'o.	c #C88502",
")o.	c #C77A02",
"!o.	c #B17204",
"~o.	c #B47404",
"{o.	c #BD7F04",
"]o.	c #C5990F",
"^o.	c #CBAA14",
"/o.	c #CCAB14",
"(o.	c #B8A10B",
"_o.	c #350F02",
":o.	c #431603",
"<o.	c #632B01",
"[o.	c #682E00",
"}o.	c #6E3502",
"|o.	c #B07009",
"1o.	c #B87408",
"2o.	c #BC7207",
"3o.	c #DB910F",
"4o.	c #ECA118",
"5o.	c #E79E19",
"6o.	c #EFB52E",
"7o.	c #FEE753",
"8o.	c #FFE651",
"9o.	c #FFE44C",
"0o.	c #FED849",
"ao.	c #FED956",
"bo.	c #FDDB5B",
"co.	c #FEDC5C",
"do.	c #FEE057",
"eo.	c #FDDF59",
"fo.	c #FCDF4F",
"go.	c #D69E2E",
"ho.	c #C87302",
"io.	c #CB7700",
"jo.	c #C47300",
"ko.	c #5E2801",
"lo.	c #381202",
"mo.	c #603001",
"no.	c #633201",
"oo.	c #5A3102",
"po.	c #220603",
"qo.	c #290F0B",
"ro.	c #9D9656",
"so.	c #CFC751",
"to.	c #D2C950",
"uo.	c #D7C956",
"vo.	c #F8E35C",
"wo.	c #FAE45A",
"xo.	c #FAE563",
"yo.	c #C3A243",
"zo.	c #A57A2A",
"Ao.	c #A57B2D",
"Bo.	c #B17821",
"Co.	c #C06C01",
"Do.	c #E1A00C",
"Eo.	c #EDAF0F",
"Fo.	c #EBAD10",
"Go.	c #DBAD12",
"Ho.	c #A87704",
"Io.	c #AA7903",
"Jo.	c #CE8E02",
"Ko.	c #D38A02",
"Lo.	c #D08701",
"Mo.	c #D48E03",
"No.	c #DD9703",
"Oo.	c #D99403",
"Po.	c #D29002",
"Qo.	c #5E2C00",
"Ro.	c #5E3102",
"So.	c #673A01",
"To.	c #623703",
"Uo.	c #421D02",
"Vo.	c #3D1603",
"Wo.	c #401902",
"Xo.	c #341303",
"Yo.	c #0B0307",
"Zo.	c #240705",
"`o.	c #985700",
" p.	c #825604",
".p.	c #EEBD10",
"+p.	c #F7B60C",
"@p.	c #F7B60E",
"#p.	c #A8800A",
"$p.	c #452001",
"%p.	c #3F1F01",
"&p.	c #331903",
"*p.	c #B66403",
"=p.	c #EFC21D",
"-p.	c #FBC91F",
";p.	c #FBC928",
">p.	c #FED435",
",p.	c #FED437",
"'p.	c #FED436",
")p.	c #FFDF45",
"!p.	c #FFDE46",
"~p.	c #FFDC45",
"{p.	c #FDEB8A",
"]p.	c #FEFE9B",
"^p.	c #FFFE9B",
"/p.	c #FEFE93",
"(p.	c #FFFE91",
"_p.	c #FEFA80",
":p.	c #EAB53F",
"<p.	c #EC9D04",
"[p.	c #F09C01",
"}p.	c #E09401",
"|p.	c #A85600",
"1p.	c #6A3101",
"2p.	c #BD7601",
"3p.	c #291503",
"4p.	c #1F0306",
"5p.	c #28140B",
"6p.	c #2C1E0B",
"7p.	c #2E1E0B",
"8p.	c #59471B",
"9p.	c #F5E355",
"0p.	c #FEE348",
"ap.	c #FEDA3E",
"bp.	c #FCDF4A",
"cp.	c #FBE85B",
"dp.	c #FBEA5E",
"ep.	c #E6D44D",
"fp.	c #874406",
"gp.	c #B56300",
"hp.	c #BE6400",
"ip.	c #D18C03",
"jp.	c #F7BB09",
"kp.	c #F8B607",
"lp.	c #F7B904",
"mp.	c #A56E02",
"np.	c #8F4600",
"op.	c #DE8900",
"pp.	c #DA8500",
"qp.	c #984F00",
"rp.	c #733403",
"sp.	c #130D0A",
"tp.	c #461500",
"up.	c #551C01",
"vp.	c #965600",
"wp.	c #825504",
"xp.	c #EFB610",
"yp.	c #F8B00C",
"zp.	c #F5B40E",
"Ap.	c #A4820B",
"Bp.	c #A05102",
"Cp.	c #EFBA1C",
"Dp.	c #FFC420",
"Ep.	c #FDC420",
"Fp.	c #FDC625",
"Gp.	c #FFCB2C",
"Hp.	c #FFCC2D",
"Ip.	c #FFDD41",
"Jp.	c #FEF07E",
"Kp.	c #FFFF95",
"Lp.	c #FFFF97",
"Mp.	c #FFFF96",
"Np.	c #FFFF85",
"Op.	c #FFFF83",
"Pp.	c #FEFB80",
"Qp.	c #EEB43D",
"Rp.	c #EC9901",
"Sp.	c #DD8E01",
"Tp.	c #672F01",
"Up.	c #250F03",
"Vp.	c #4A4021",
"Wp.	c #F4E970",
"Xp.	c #FEEE58",
"Yp.	c #FDE34C",
"Zp.	c #FFEA4D",
"`p.	c #E7CE46",
" q.	c #8B4006",
".q.	c #823500",
"+q.	c #772F00",
"@q.	c #CF8503",
"#q.	c #9F6101",
"$q.	c #BF6F00",
"%q.	c #783503",
"&q.	c #371204",
"*q.	c #3E1402",
"=q.	c #6D3D02",
"-q.	c #7F4700",
";q.	c #743900",
">q.	c #A26301",
",q.	c #956002",
"'q.	c #925F02",
")q.	c #9D6B07",
"!q.	c #C4A318",
"~q.	c #C7A20D",
"{q.	c #C5A510",
"]q.	c #89710E",
"^q.	c #4F2003",
"/q.	c #4F1F02",
"(q.	c #835803",
"_q.	c #936904",
":q.	c #905D02",
"<q.	c #E0B119",
"[q.	c #EFBF1D",
"}q.	c #F0BD1D",
"|q.	c #F6C522",
"1q.	c #FCC529",
"2q.	c #FCCB38",
"3q.	c #FEDF50",
"4q.	c #FFE04F",
"5q.	c #FFE34D",
"6q.	c #FFF37D",
"7q.	c #FFFF94",
"8q.	c #FEF97E",
"9q.	c #FFF97A",
"0q.	c #FEF67A",
"aq.	c #F4BF3C",
"bq.	c #F1AA1E",
"cq.	c #EFA316",
"dq.	c #DA9712",
"eq.	c #9D4E01",
"fq.	c #733701",
"gq.	c #341302",
"hq.	c #361103",
"iq.	c #2C0A04",
"jq.	c #3C311D",
"kq.	c #C4BC6D",
"lq.	c #CDC361",
"mq.	c #CEC059",
"nq.	c #D8C34F",
"oq.	c #E6D04A",
"pq.	c #E8D348",
"qq.	c #D8BF47",
"rq.	c #A3772D",
"sq.	c #A37629",
"tq.	c #9E7526",
"uq.	c #BF7112",
"vq.	c #C37B02",
"wq.	c #E89B03",
"xq.	c #E79D03",
"yq.	c #B08007",
"zq.	c #996E07",
"Aq.	c #966B06",
"Bq.	c #935101",
"Cq.	c #985403",
"Dq.	c #B37E10",
"Eq.	c #AE7409",
"Fq.	c #AC7307",
"Gq.	c #733202",
"Hq.	c #D89103",
"Iq.	c #F2A807",
"Jq.	c #DD9E04",
"Kq.	c #542D03",
"Lq.	c #331702",
"Mq.	c #311803",
"Nq.	c #240D04",
"Oq.	c #D69D09",
"Pq.	c #F5B80D",
"Qq.	c #F2AE07",
"Rq.	c #D8A704",
"Sq.	c #9C5102",
"Tq.	c #A45502",
"Uq.	c #D28E07",
"Vq.	c #F39D05",
"Wq.	c #F39D07",
"Xq.	c #F5BF51",
"Yq.	c #FFFA79",
"Zq.	c #FFF771",
"`q.	c #FEFB83",
" r.	c #FFFF8D",
".r.	c #FFFF90",
"+r.	c #FFFE8F",
"@r.	c #FFE855",
"#r.	c #FDD93C",
"$r.	c #FDD833",
"%r.	c #DFC72E",
"&r.	c #884503",
"*r.	c #994D00",
"=r.	c #C57701",
"-r.	c #24180E",
";r.	c #251B0D",
">r.	c #2D1C0C",
",r.	c #723709",
"'r.	c #7D3C06",
")r.	c #7C3D06",
"!r.	c #A7852B",
"~r.	c #F9E651",
"{r.	c #FAE449",
"]r.	c #EAAC2A",
"^r.	c #E99302",
"/r.	c #BA6900",
"(r.	c #E8BA13",
"_r.	c #F9C417",
":r.	c #F7C315",
"<r.	c #C38607",
"[r.	c #B97708",
"}r.	c #F8CC20",
"|r.	c #FABE18",
"1r.	c #F9BD14",
"2r.	c #DB9204",
"3r.	c #6E3003",
"4r.	c #2E0C05",
"5r.	c #562100",
"6r.	c #B26700",
"7r.	c #CE7F02",
"8r.	c #F3A207",
"9r.	c #F3A107",
"0r.	c #DC9F04",
"ar.	c #512603",
"br.	c #843D01",
"cr.	c #D98F06",
"dr.	c #F6A80A",
"er.	c #F29F05",
"fr.	c #DA9D03",
"gr.	c #864100",
"hr.	c #D18D03",
"ir.	c #F29D04",
"jr.	c #F49F05",
"kr.	c #F7C250",
"lr.	c #FFFB7B",
"mr.	c #FFF871",
"nr.	c #FFFF8B",
"or.	c #FFFD8C",
"pr.	c #FFEA57",
"qr.	c #FFE54E",
"rr.	c #FFE44A",
"sr.	c #FDD83B",
"tr.	c #DFC42E",
"ur.	c #804003",
"vr.	c #C37602",
"wr.	c #461901",
"xr.	c #180204",
"yr.	c #A78123",
"zr.	c #FBE44B",
"Ar.	c #FDE547",
"Br.	c #FDE344",
"Cr.	c #F3B225",
"Dr.	c #EE9902",
"Er.	c #BA6C00",
"Fr.	c #EBB211",
"Gr.	c #FCBA16",
"Hr.	c #FBBA16",
"Ir.	c #C88508",
"Jr.	c #BC7305",
"Kr.	c #FBC81C",
"Lr.	c #FDBC18",
"Mr.	c #FBBC16",
"Nr.	c #DA9206",
"Or.	c #6E3004",
"Pr.	c #160C0B",
"Qr.	c #140A09",
"Rr.	c #350F04",
"Sr.	c #502A02",
"Tr.	c #AA6301",
"Ur.	c #A75E00",
"Vr.	c #B06601",
"Wr.	c #B46700",
"Xr.	c #A75900",
"Yr.	c #B48105",
"Zr.	c #C59509",
"`r.	c #C79209",
" s.	c #B78304",
".s.	c #A26D02",
"+s.	c #BA9C07",
"@s.	c #BA9808",
"#s.	c #AA8C06",
"$s.	c #421E04",
"%s.	c #431503",
"&s.	c #4E2C03",
"*s.	c #C0940D",
"=s.	c #C99712",
"-s.	c #C89912",
";s.	c #BB9008",
">s.	c #BD9705",
",s.	c #BB8E04",
"'s.	c #BE9005",
")s.	c #C4930A",
"!s.	c #C6950A",
"~s.	c #BE910B",
"{s.	c #D07C02",
"]s.	c #D07F03",
"^s.	c #E1B552",
"/s.	c #FFFC80",
"(s.	c #FFE147",
"_s.	c #FDE247",
":s.	c #E6BF31",
"<s.	c #DBB32C",
"[s.	c #D6B12B",
"}s.	c #C39F26",
"|s.	c #9E5302",
"1s.	c #B16000",
"2s.	c #AA5900",
"3s.	c #C58103",
"4s.	c #4A1C01",
"5s.	c #824401",
"6s.	c #864201",
"7s.	c #5E2D02",
"8s.	c #773801",
"9s.	c #866521",
"0s.	c #BBB150",
"as.	c #BCB248",
"bs.	c #BCAE3B",
"cs.	c #E1A01E",
"ds.	c #D29715",
"es.	c #C5A829",
"fs.	c #C4A428",
"gs.	c #C5961E",
"hs.	c #BD6601",
"is.	c #B66404",
"js.	c #ECBC2D",
"ks.	c #FCC933",
"ls.	c #FBC931",
"ms.	c #DFB327",
"ns.	c #D2A320",
"os.	c #D3A01F",
"ps.	c #D69815",
"qs.	c #EBAA12",
"rs.	c #EEAE16",
"ss.	c #ECB013",
"ts.	c #C18C05",
"us.	c #AB7001",
"vs.	c #AB6901",
"ws.	c #7B4102",
"xs.	c #6B2F01",
"ys.	c #582504",
"zs.	c #0A0306",
"As.	c #653702",
"Bs.	c #DDA00A",
"Cs.	c #F9B10D",
"Ds.	c #F9B00D",
"Es.	c #DEAB0C",
"Fs.	c #954C00",
"Gs.	c #622F02",
"Hs.	c #221404",
"Is.	c #211204",
"Js.	c #200F04",
"Ks.	c #643C03",
"Ls.	c #F2C21B",
"Ms.	c #FDC020",
"Ns.	c #FBC31F",
"Os.	c #9A7C0B",
"Ps.	c #5C2500",
"Qs.	c #5F2600",
"Rs.	c #9F820A",
"Ss.	c #E9B819",
"Ts.	c #904D02",
"Us.	c #994600",
"Vs.	c #9B4600",
"Ws.	c #BB9C52",
"Xs.	c #FDFD8B",
"Ys.	c #FFFC82",
"Zs.	c #FFFB84",
"`s.	c #FEDD42",
" t.	c #FFDD3E",
".t.	c #FDE13F",
"+t.	c #C78E16",
"@t.	c #AE5801",
"#t.	c #A75201",
"$t.	c #A45101",
"%t.	c #EA9500",
"&t.	c #ED9701",
"*t.	c #D59B02",
"=t.	c #502300",
"-t.	c #421401",
";t.	c #9E5601",
">t.	c #1B0503",
",t.	c #1B0804",
"'t.	c #1E1407",
")t.	c #231506",
"!t.	c #342406",
"~t.	c #D49103",
"{t.	c #EDB01D",
"]t.	c #FED332",
"^t.	c #F2BF24",
"/t.	c #D27E0B",
"(t.	c #F1D44A",
"_t.	c #FFE54C",
":t.	c #FED839",
"<t.	c #FED02F",
"[t.	c #F3B419",
"}t.	c #D17901",
"|t.	c #D67D01",
"1t.	c #D67F01",
"2t.	c #885202",
"3t.	c #230C04",
"4t.	c #110203",
"5t.	c #663802",
"6t.	c #A45600",
"7t.	c #DD9C09",
"8t.	c #F8AB0C",
"9t.	c #F9AB0C",
"0t.	c #DDAC0B",
"at.	c #602D02",
"bt.	c #653B02",
"ct.	c #F3C31C",
"dt.	c #FEC122",
"et.	c #FCC31F",
"ft.	c #997A09",
"gt.	c #9F8009",
"ht.	c #FBC216",
"it.	c #FEC019",
"jt.	c #EAB91A",
"kt.	c #8B4902",
"lt.	c #BA9B4F",
"mt.	c #FDFD8A",
"nt.	c #FFFB7C",
"ot.	c #FFFB80",
"pt.	c #FEF882",
"qt.	c #FEDB3E",
"rt.	c #FED939",
"st.	c #FDDF38",
"tt.	c #C98E13",
"ut.	c #C87200",
"vt.	c #D69A03",
"wt.	c #512300",
"xt.	c #411501",
"yt.	c #180203",
"zt.	c #2C1D02",
"At.	c #D39302",
"Bt.	c #EBAE1A",
"Ct.	c #FFCE2A",
"Dt.	c #F2BA20",
"Et.	c #D77D01",
"Ft.	c #D68009",
"Gt.	c #F2D345",
"Ht.	c #FFE548",
"It.	c #FECD2B",
"Jt.	c #FCC424",
"Kt.	c #F2B015",
"Lt.	c #D17A01",
"Mt.	c #854B02",
"Nt.	c #4B1C02",
"Ot.	c #865B01",
"Pt.	c #976701",
"Qt.	c #976501",
"Rt.	c #A27102",
"St.	c #C57C01",
"Tt.	c #BF6F01",
"Ut.	c #8C4500",
"Vt.	c #A97802",
"Wt.	c #A67301",
"Xt.	c #A77200",
"Yt.	c #CF9504",
"Zt.	c #D39406",
"`t.	c #D39607",
" u.	c #BFA00E",
".u.	c #894602",
"+u.	c #9F5001",
"@u.	c #390F04",
"#u.	c #4F1D03",
"$u.	c #4A1903",
"%u.	c #4B1B03",
"&u.	c #824202",
"*u.	c #8E4900",
"=u.	c #854100",
"-u.	c #663B04",
";u.	c #F4C322",
">u.	c #FDC223",
",u.	c #FAC01E",
"'u.	c #9F7A09",
")u.	c #9D7207",
"!u.	c #D6B813",
"~u.	c #D8B916",
"{u.	c #CDAC12",
"]u.	c #AB7F03",
"^u.	c #AD8402",
"/u.	c #B38305",
"(u.	c #B98B0D",
"_u.	c #BB8F11",
":u.	c #B98A0D",
"<u.	c #CBA837",
"[u.	c #E0D872",
"}u.	c #E1D96D",
"|u.	c #E1D76C",
"1u.	c #F0E068",
"2u.	c #FCE96D",
"3u.	c #FCE776",
"4u.	c #FCE06B",
"5u.	c #FFD432",
"6u.	c #FDD530",
"7u.	c #CD8A11",
"8u.	c #CB8703",
"9u.	c #D28502",
"0u.	c #C27801",
"au.	c #BF7000",
"bu.	c #BB6D00",
"cu.	c #B86E02",
"du.	c #EEA309",
"eu.	c #EFA40A",
"fu.	c #D7A207",
"gu.	c #542401",
"hu.	c #AE7D17",
"iu.	c #C5992A",
"ju.	c #C49A2F",
"ku.	c #BC8B1F",
"lu.	c #793C02",
"mu.	c #713501",
"nu.	c #6A3202",
"ou.	c #291604",
"pu.	c #B47802",
"qu.	c #C27802",
"ru.	c #BB6D02",
"su.	c #C69B13",
"tu.	c #D7C022",
"uu.	c #D8C024",
"vu.	c #E6BB2B",
"wu.	c #E9B13E",
"xu.	c #E8B03D",
"yu.	c #E9B03D",
"zu.	c #F8CD3A",
"Au.	c #FDD538",
"Bu.	c #E0C336",
"Cu.	c #D8B222",
"Du.	c #D4AD16",
"Eu.	c #CD9509",
"Fu.	c #BB6C02",
"Gu.	c #BB6A01",
"Hu.	c #B76902",
"Iu.	c #754703",
"Ju.	c #3D1404",
"Ku.	c #3C1304",
"Lu.	c #522204",
"Mu.	c #703203",
"Nu.	c #4E1E05",
"Ou.	c #5B2501",
"Pu.	c #D58301",
"Qu.	c #AF6D02",
"Ru.	c #4F2302",
"Su.	c #502601",
"Tu.	c #471500",
"Uu.	c #603C05",
"Vu.	c #F4CE29",
"Wu.	c #FFD02D",
"Xu.	c #FCCD29",
"Yu.	c #A4810E",
"Zu.	c #512701",
"`u.	c #502801",
" v.	c #784D02",
".v.	c #EA9B02",
"+v.	c #F29F02",
"@v.	c #F4A605",
"#v.	c #F8B311",
"$v.	c #F6A90C",
"%v.	c #EAA10B",
"&v.	c #AD5C10",
"*v.	c #B5600E",
"=v.	c #BA6410",
"-v.	c #DEA41A",
";v.	c #FEC31F",
">v.	c #FEC423",
",v.	c #FECB28",
"'v.	c #FDCE26",
")v.	c #D58A08",
"!v.	c #D58901",
"~v.	c #F7AC05",
"{v.	c #F5A504",
"]v.	c #EE9C03",
"^v.	c #996401",
"/v.	c #895902",
"(v.	c #FCB511",
"_v.	c #DFB00D",
":v.	c #632C00",
"<v.	c #CCA91C",
"[v.	c #FBD032",
"}v.	c #F2C92B",
"|v.	c #9C5103",
"1v.	c #2D1303",
"2v.	c #301303",
"3v.	c #2E1003",
"4v.	c #3D1D03",
"5v.	c #492703",
"6v.	c #4F2B04",
"7v.	c #D3B52E",
"8v.	c #FFE64B",
"9v.	c #FABF1E",
"0v.	c #A4841A",
"av.	c #381402",
"bv.	c #381403",
"cv.	c #391403",
"dv.	c #340D03",
"ev.	c #501C00",
"fv.	c #451600",
"gv.	c #030004",
"hv.	c #451802",
"iv.	c #C47901",
"jv.	c #D68201",
"kv.	c #9F5501",
"lv.	c #B35E01",
"mv.	c #B36201",
"nv.	c #EA9804",
"ov.	c #E69001",
"pv.	c #AF6E02",
"qv.	c #491702",
"rv.	c #401302",
"sv.	c #411202",
"tv.	c #A25600",
"uv.	c #A05201",
"vv.	c #491901",
"wv.	c #623E05",
"xv.	c #F4CE28",
"yv.	c #FCCF2A",
"zv.	c #A68510",
"Av.	c #774B01",
"Bv.	c #F39E03",
"Cv.	c #FAAF0C",
"Dv.	c #FBB00E",
"Ev.	c #FAAB0C",
"Fv.	c #EDA209",
"Gv.	c #DFA20F",
"Hv.	c #FEBF14",
"Iv.	c #FDBE18",
"Jv.	c #FDC21A",
"Kv.	c #FEC825",
"Lv.	c #FECD2A",
"Mv.	c #FDCC27",
"Nv.	c #DA8D09",
"Ov.	c #F7A804",
"Pv.	c #F5A304",
"Qv.	c #995C01",
"Rv.	c #8A5A02",
"Sv.	c #F6AD0A",
"Tv.	c #FAAD0A",
"Uv.	c #E0A208",
"Vv.	c #CDAE23",
"Wv.	c #FDD230",
"Xv.	c #FED432",
"Yv.	c #EFC72D",
"Zv.	c #954B04",
"`v.	c #401802",
" w.	c #D4B22A",
".w.	c #FCE341",
"+w.	c #FDE542",
"@w.	c #FDE645",
"#w.	c #FBC524",
"$w.	c #FBBF16",
"%w.	c #F7BD15",
"&w.	c #9F7F0F",
"*w.	c #320E02",
"=w.	c #793602",
"-w.	c #080304",
";w.	c #A76701",
">w.	c #BA6D00",
",w.	c #975102",
"'w.	c #924C02",
")w.	c #8D5302",
"!w.	c #A37904",
"~w.	c #9F7603",
"{w.	c #7A5803",
"]w.	c #381104",
"^w.	c #2E0B04",
"/w.	c #380E02",
"(w.	c #B27405",
"_w.	c #C58407",
":w.	c #C58406",
"<w.	c #B48305",
"[w.	c #4C2101",
"}w.	c #5D3803",
"|w.	c #F0BD20",
"1w.	c #FBBF23",
"2w.	c #F8C221",
"3w.	c #A08009",
"4w.	c #8A4C01",
"5w.	c #C98201",
"6w.	c #CE8901",
"7w.	c #E4A80E",
"8w.	c #F9AF11",
"9w.	c #FAB217",
"0w.	c #F1AC17",
"aw.	c #CA8002",
"bw.	c #CC7F01",
"cw.	c #D27D00",
"dw.	c #D18706",
"ew.	c #D29009",
"fw.	c #D4910C",
"gw.	c #D79811",
"hw.	c #E09B12",
"iw.	c #E49F13",
"jw.	c #E0A11B",
"kw.	c #E39E0B",
"lw.	c #E09706",
"mw.	c #DA9205",
"nw.	c #D48B02",
"ow.	c #D18701",
"pw.	c #CC7B01",
"qw.	c #9A4F00",
"rw.	c #A5730D",
"sw.	c #F7C32C",
"tw.	c #FBC12C",
"uw.	c #E7B628",
"vw.	c #B17705",
"ww.	c #AD6C01",
"xw.	c #C8901A",
"yw.	c #DAA220",
"zw.	c #DCA421",
"Aw.	c #E0AD2D",
"Bw.	c #BE9E38",
"Cw.	c #BD9634",
"Dw.	c #BD8D31",
"Ew.	c #966428",
"Fw.	c #873F01",
"Gw.	c #8B4301",
"Hw.	c #2D1004",
"Iw.	c #8C7B29",
"Jw.	c #A59C34",
"Kw.	c #A69D31",
"Lw.	c #A89D33",
"Mw.	c #A8931B",
"Nw.	c #A9930B",
"Ow.	c #A68E0C",
"Pw.	c #705305",
"Qw.	c #5C2601",
"Rw.	c #9B4F01",
"Sw.	c #964A01",
"Tw.	c #924A01",
"Uw.	c #431A04",
"Vw.	c #371804",
"Ww.	c #1C0904",
"Xw.	c #1A0804",
"Yw.	c #190804",
"Zw.	c #150505",
"`w.	c #160306",
" x.	c #D89B0A",
".x.	c #F8B210",
"+x.	c #D5AB07",
"@x.	c #4D2802",
"#x.	c #572D01",
"$x.	c #E9A106",
"%x.	c #F5A507",
"&x.	c #996F03",
"*x.	c #783500",
"=x.	c #C8A413",
"-x.	c #FEC020",
";x.	c #F7B920",
">x.	c #E59002",
",x.	c #CC7701",
"'x.	c #9F4900",
")x.	c #A64F00",
"!x.	c #F2AF09",
"~x.	c #FBB10A",
"{x.	c #FAAE0A",
"]x.	c #DEA609",
"^x.	c #733601",
"/x.	c #B18215",
"(x.	c #FCE13D",
"_x.	c #F8D63D",
":x.	c #E79307",
"<x.	c #DB8201",
"[x.	c #C16901",
"}x.	c #D39E2E",
"|x.	c #FCF56A",
"1x.	c #FEF667",
"2x.	c #F9EF5F",
"3x.	c #969240",
"4x.	c #3B0E02",
"5x.	c #6F3401",
"6x.	c #622901",
"7x.	c #6B2D00",
"8x.	c #4A2104",
"9x.	c #1D0603",
"0x.	c #884401",
"ax.	c #3C1203",
"bx.	c #D49812",
"cx.	c #D7A909",
"dx.	c #4A2802",
"ex.	c #562C02",
"fx.	c #E99C04",
"gx.	c #F29E03",
"hx.	c #EF9F02",
"ix.	c #996E02",
"jx.	c #C7AB11",
"kx.	c #FEC120",
"lx.	c #F7B91E",
"mx.	c #E38D01",
"nx.	c #C77500",
"ox.	c #EDA305",
"px.	c #F8AA07",
"qx.	c #F9AC0A",
"rx.	c #DCA909",
"sx.	c #B38112",
"tx.	c #FCDB39",
"ux.	c #F8D441",
"vx.	c #E39008",
"wx.	c #E08A01",
"xx.	c #D98201",
"yx.	c #C87201",
"zx.	c #D29C30",
"Ax.	c #FDF56A",
"Bx.	c #FFF768",
"Cx.	c #FCF35D",
"Dx.	c #999337",
"Ex.	c #470F00",
"Fx.	c #460F00",
"Gx.	c #431102",
"Hx.	c #653001",
"Ix.	c #CC7700",
"Jx.	c #713801",
"Kx.	c #431501",
"Lx.	c #562001",
"Mx.	c #662E03",
"Nx.	c #210903",
"Ox.	c #682C00",
"Px.	c #7C3902",
"Qx.	c #863F01",
"Rx.	c #6C3303",
"Sx.	c #2D0E04",
"Tx.	c #441B04",
"Ux.	c #471A03",
"Vx.	c #D09512",
"Wx.	c #F8B017",
"Xx.	c #F7AB11",
"Yx.	c #D6A608",
"Zx.	c #572F02",
"`x.	c #E9A60C",
" y.	c #F3A60D",
".y.	c #F1A80B",
"+y.	c #A17403",
"@y.	c #7B3900",
"#y.	c #B7950B",
"$y.	c #D3A510",
"%y.	c #D1A817",
"&y.	c #D9AA17",
"*y.	c #E19104",
"=y.	c #CD7F01",
"-y.	c #B06B02",
";y.	c #AD6A02",
">y.	c #AF6D03",
",y.	c #AE6601",
"'y.	c #AE6301",
")y.	c #AF6301",
"!y.	c #D38C02",
"~y.	c #DC9403",
"{y.	c #DD9705",
"]y.	c #CD9405",
"^y.	c #925601",
"/y.	c #905101",
"(y.	c #A35E00",
"_y.	c #B17A0C",
":y.	c #FACE2F",
"<y.	c #FCCF37",
"[y.	c #F3C437",
"}y.	c #DA8706",
"|y.	c #D78101",
"1y.	c #C06901",
"2y.	c #C98C2C",
"3y.	c #F1D868",
"4y.	c #F4DB64",
"5y.	c #F7DA52",
"6y.	c #B19A33",
"7y.	c #896B1C",
"8y.	c #8B6B1A",
"9y.	c #906A1C",
"0y.	c #944900",
"ay.	c #713201",
"by.	c #693000",
"cy.	c #754001",
"dy.	c #7C4801",
"ey.	c #7A4901",
"fy.	c #874F01",
"gy.	c #CC7B00",
"hy.	c #713701",
"iy.	c #6F3203",
"jy.	c #934601",
"ky.	c #471801",
"ly.	c #3B1303",
"my.	c #270905",
"ny.	c #652A03",
"oy.	c #CA8405",
"py.	c #F5A209",
"qy.	c #F5A207",
"ry.	c #D6A305",
"sy.	c #502701",
"ty.	c #F4C71E",
"uy.	c #FCCD25",
"vy.	c #BE8C0E",
"wy.	c #A77704",
"xy.	c #F8B50B",
"yy.	c #F7A906",
"zy.	c #F3A90C",
"Ay.	c #F9B40F",
"By.	c #F9B50E",
"Cy.	c #F3A704",
"Dy.	c #F1A102",
"Ey.	c #EC9E02",
"Fy.	c #8F4B00",
"Gy.	c #A86901",
"Hy.	c #EE9F01",
"Iy.	c #EF9C01",
"Jy.	c #C87601",
"Ky.	c #F3A306",
"Ly.	c #F49F06",
"My.	c #EC9B07",
"Ny.	c #AA5602",
"Oy.	c #E4960A",
"Py.	c #E28B09",
"Qy.	c #E18607",
"Ry.	c #EFBF2F",
"Sy.	c #FCDA39",
"Ty.	c #FBD936",
"Uy.	c #F4CF37",
"Vy.	c #D37E08",
"Wy.	c #CC7401",
"Xy.	c #2C0803",
"Yy.	c #361203",
"Zy.	c #E39201",
"`y.	c #763801",
" z.	c #6B3202",
".z.	c #6C3402",
"+z.	c #5D2601",
"@z.	c #7F3C02",
"#z.	c #341402",
"$z.	c #290A05",
"%z.	c #642A03",
"&z.	c #C88003",
"*z.	c #F39F05",
"=z.	c #D5A505",
"-z.	c #4F2800",
";z.	c #643B03",
">z.	c #F4C821",
",z.	c #FCCC27",
"'z.	c #B8870E",
")z.	c #A57703",
"!z.	c #F7B109",
"~z.	c #F09902",
"{z.	c #F3A710",
"]z.	c #FAB113",
"^z.	c #FBB113",
"/z.	c #FCB011",
"(z.	c #ED9C01",
"_z.	c #914B00",
":z.	c #A86D01",
"<z.	c #C97601",
"[z.	c #A85D01",
"}z.	c #F09D01",
"|z.	c #F19B01",
"1z.	c #AE5B01",
"2z.	c #AB5701",
"3z.	c #A35101",
"4z.	c #E89701",
"5z.	c #DE8401",
"6z.	c #EFB82E",
"7z.	c #FFCF2D",
"8z.	c #F6C32B",
"9z.	c #D07804",
"0z.	c #3E1201",
"az.	c #321102",
"bz.	c #E28B01",
"cz.	c #D98801",
"dz.	c #290805",
"ez.	c #6A2C01",
"fz.	c #7B3902",
"gz.	c #050005",
"hz.	c #311303",
"iz.	c #3F1602",
"jz.	c #B77001",
"kz.	c #DC8C02",
"lz.	c #C89202",
"mz.	c #502500",
"nz.	c #623702",
"oz.	c #F1BC1B",
"pz.	c #F9C120",
"qz.	c #AE800D",
"rz.	c #7F3900",
"sz.	c #BA6A00",
"tz.	c #AF5F00",
"uz.	c #976A03",
"vz.	c #D98903",
"wz.	c #E0980D",
"xz.	c #E69F10",
"yz.	c #E8A014",
"zz.	c #ECA111",
"Az.	c #E59203",
"Bz.	c #E18F02",
"Cz.	c #DE9503",
"Dz.	c #9E5801",
"Ez.	c #9B6002",
"Fz.	c #D38702",
"Gz.	c #D07E01",
"Hz.	c #D58201",
"Iz.	c #BE6E01",
"Jz.	c #994F00",
"Kz.	c #C48501",
"Lz.	c #CF8D18",
"Mz.	c #CCAA43",
"Nz.	c #CCB046",
"Oz.	c #CEB245",
"Pz.	c #B98C37",
"Qz.	c #B25E02",
"Rz.	c #B25C01",
"Sz.	c #B46305",
"Tz.	c #EEB120",
"Uz.	c #EDA718",
"Vz.	c #EB9F12",
"Wz.	c #F3B729",
"Xz.	c #FCC126",
"Yz.	c #F3BC23",
"Zz.	c #C06E04",
"`z.	c #A55B01",
" A.	c #984E00",
".A.	c #471B01",
"+A.	c #2A0702",
"@A.	c #280602",
"#A.	c #361D03",
"$A.	c #B58C14",
"%A.	c #C9961A",
"&A.	c #CC9519",
"*A.	c #DF8905",
"=A.	c #E28904",
"-A.	c #DF8403",
";A.	c #D48204",
">A.	c #7A3A01",
",A.	c #7C3B02",
"'A.	c #321404",
")A.	c #2A1404",
"!A.	c #321303",
"~A.	c #9D4B01",
"{A.	c #9B4901",
"]A.	c #240B04",
"^A.	c #E18901",
"/A.	c #DF8701",
"(A.	c #CE8301",
"_A.	c #834A03",
":A.	c #F6CF27",
"<A.	c #FED32E",
"[A.	c #FBD32D",
"}A.	c #A78815",
"|A.	c #B06300",
"1A.	c #C37900",
"2A.	c #A85800",
"3A.	c #DB9C02",
"4A.	c #E79A03",
"5A.	c #E59702",
"6A.	c #D09603",
"7A.	c #8C6327",
"8A.	c #F3E65F",
"9A.	c #FDEF5C",
"0A.	c #DABA48",
"aA.	c #CC7704",
"bA.	c #CC7402",
"cA.	c #CA7A0F",
"dA.	c #FBD83F",
"eA.	c #FED134",
"fA.	c #FDC628",
"gA.	c #FCC82C",
"hA.	c #FDCD30",
"iA.	c #FDCC2E",
"jA.	c #F4CA27",
"kA.	c #865105",
"lA.	c #DC8100",
"mA.	c #BC6601",
"nA.	c #B86B01",
"oA.	c #471901",
"pA.	c #472C04",
"qA.	c #FDC928",
"rA.	c #FCC626",
"sA.	c #FAC429",
"tA.	c #F9CC2F",
"uA.	c #F7C92C",
"vA.	c #DEBB2B",
"wA.	c #532B06",
"xA.	c #501D01",
"yA.	c #723901",
"zA.	c #D88100",
"AA.	c #D17B00",
"BA.	c #9F5F01",
"CA.	c #824502",
"DA.	c #B86101",
"EA.	c #B76101",
"FA.	c #221004",
"GA.	c #341403",
"HA.	c #240C05",
"IA.	c #4D1701",
"JA.	c #5A2701",
"KA.	c #C97501",
"LA.	c #E18801",
"MA.	c #CD8000",
"NA.	c #884C04",
"OA.	c #F5CE27",
"PA.	c #FCD02A",
"QA.	c #A98B15",
"RA.	c #CB7D01",
"SA.	c #E4A003",
"TA.	c #F4A104",
"UA.	c #F5A003",
"VA.	c #855E25",
"WA.	c #F4E459",
"XA.	c #FFED57",
"YA.	c #DBBA44",
"ZA.	c #CF7904",
"`A.	c #CF7702",
" B.	c #CF8011",
".B.	c #FCDC41",
"+B.	c #FFD539",
"@B.	c #FFCF31",
"#B.	c #FFCD2E",
"$B.	c #F4C926",
"%B.	c #471900",
"&B.	c #492D05",
"*B.	c #DDBC28",
"=B.	c #FDC726",
"-B.	c #FDCA2D",
";B.	c #FED233",
">B.	c #E2C531",
",B.	c #542E07",
"'B.	c #A26101",
")B.	c #814602",
"!B.	c #AD5D01",
"~B.	c #240F05",
"{B.	c #010103",
"]B.	c #321402",
"^B.	c #9C4C01",
"/B.	c #A35201",
"(B.	c #260E05",
"_B.	c #371004",
":B.	c #BC6E00",
"<B.	c #6F3B02",
"[B.	c #F0B413",
"}B.	c #F8AF16",
"|B.	c #F7B617",
"1B.	c #A6840F",
"2B.	c #894400",
"3B.	c #B86C02",
"4B.	c #C3780A",
"5B.	c #B89323",
"6B.	c #BB9326",
"7B.	c #C09228",
"8B.	c #DA9C10",
"9B.	c #E19804",
"0B.	c #E39302",
"aB.	c #D48A03",
"bB.	c #B26400",
"cB.	c #C57100",
"dB.	c #865C20",
"eB.	c #F3DC4D",
"fB.	c #FDE148",
"gB.	c #FEE750",
"hB.	c #D1B540",
"iB.	c #B76A03",
"jB.	c #B86901",
"kB.	c #C17912",
"lB.	c #ECCB3D",
"mB.	c #EEC837",
"nB.	c #EEC534",
"oB.	c #F0C12E",
"pB.	c #F2B621",
"qB.	c #F2B01B",
"rB.	c #EBB71B",
"sB.	c #B37703",
"tB.	c #B06E01",
"uB.	c #AD6801",
"vB.	c #D07F01",
"wB.	c #C77D01",
"xB.	c #C97D01",
"yB.	c #7E4001",
"zB.	c #753A00",
"AB.	c #753F02",
"BB.	c #D0B31F",
"CB.	c #E9C326",
"DB.	c #E8C024",
"EB.	c #F2C528",
"FB.	c #FCC729",
"GB.	c #E4B926",
"HB.	c #653404",
"IB.	c #7E4701",
"JB.	c #A15F01",
"KB.	c #7A4002",
"LB.	c #240E04",
"MB.	c #020004",
"NB.	c #010004",
"OB.	c #040005",
"PB.	c #3A1903",
"QB.	c #B25D01",
"RB.	c #2A1104",
"SB.	c #310E05",
"TB.	c #5C2302",
"UB.	c #5A2202",
"VB.	c #6A3901",
"WB.	c #F1B009",
"XB.	c #F4AB0B",
"YB.	c #A27C09",
"ZB.	c #985100",
"`B.	c #D29E20",
" C.	c #FBDC36",
".C.	c #F9E447",
"+C.	c #A2841F",
"@C.	c #A46301",
"#C.	c #996220",
"$C.	c #F6E858",
"%C.	c #FFEE57",
"&C.	c #FDEC56",
"*C.	c #B6A942",
"=C.	c #582502",
"-C.	c #6B2E02",
";C.	c #B46106",
">C.	c #B05E05",
",C.	c #B05D05",
"'C.	c #B66103",
")C.	c #BF6601",
"!C.	c #CA7802",
"~C.	c #F8AB03",
"{C.	c #F7A702",
"]C.	c #EE9A02",
"^C.	c #F6A403",
"/C.	c #F6A303",
"(C.	c #E59600",
"_C.	c #733D03",
":C.	c #583204",
"<C.	c #5C3705",
"[C.	c #D0AB21",
"}C.	c #FEC323",
"|C.	c #EEBB23",
"1C.	c #8B4502",
"2C.	c #A06001",
"3C.	c #2E0803",
"4C.	c #240F04",
"5C.	c #3A1803",
"6C.	c #AD5801",
"7C.	c #562002",
"8C.	c #6F3C01",
"9C.	c #F1B10A",
"0C.	c #F7A808",
"aC.	c #F5AC08",
"bC.	c #A37A03",
"cC.	c #8E4000",
"dC.	c #D2951F",
"eC.	c #FCE241",
"fC.	c #A18820",
"gC.	c #772E00",
"hC.	c #A56001",
"iC.	c #D98600",
"jC.	c #96621E",
"kC.	c #F6E352",
"lC.	c #FDEB54",
"mC.	c #B7A643",
"nC.	c #6A2D01",
"oC.	c #BF6500",
"pC.	c #CA7501",
"qC.	c #EF9B02",
"rC.	c #F7A403",
"sC.	c #522402",
"tC.	c #CBAE27",
"uC.	c #FDCD29",
"vC.	c #FFCE27",
"wC.	c #ECC129",
"xC.	c #974903",
"yC.	c #7E4800",
"zC.	c #240E05",
"AC.	c #2F0F04",
"BC.	c #501D02",
"CC.	c #743D00",
"DC.	c #AD7302",
"EC.	c #B57301",
"FC.	c #B77701",
"GC.	c #B87901",
"HC.	c #B97801",
"IC.	c #A97102",
"JC.	c #5E2600",
"KC.	c #DAA20B",
"LC.	c #DE9E08",
"MC.	c #DBA007",
"NC.	c #A57503",
"OC.	c #985001",
"PC.	c #AC5D00",
"QC.	c #8D5E0F",
"RC.	c #AF9E2F",
"SC.	c #AF9F2E",
"TC.	c #AF9C32",
"UC.	c #C4A332",
"VC.	c #D0A227",
"WC.	c #D29D1A",
"XC.	c #DEAC23",
"YC.	c #FDDA3F",
"ZC.	c #FFD93F",
"`C.	c #FCE03D",
" D.	c #B28E1E",
".D.	c #AD6100",
"+D.	c #E09102",
"@D.	c #DF9002",
"#D.	c #DF8800",
"$D.	c #B76900",
"%D.	c #B86700",
"&D.	c #B67818",
"*D.	c #F3D249",
"=D.	c #FAD845",
"-D.	c #F9D848",
";D.	c #B89B3A",
">D.	c #753D06",
",D.	c #CF9F26",
"'D.	c #CEA027",
")D.	c #CFA330",
"!D.	c #C8811F",
"~D.	c #CE7801",
"{D.	c #F09E04",
"]D.	c #EA9307",
"^D.	c #ECAC34",
"/D.	c #EFB22C",
"(D.	c #EFB22B",
"_D.	c #ECA317",
":D.	c #D78600",
"<D.	c #662D02",
"[D.	c #B09928",
"}D.	c #CFB830",
"|D.	c #D0BA30",
"1D.	c #CFAF2E",
"2D.	c #C09D26",
"3D.	c #BD9E24",
"4D.	c #B89B20",
"5D.	c #6D530E",
"6D.	c #6F4201",
"7D.	c #C28002",
"8D.	c #BD7600",
"9D.	c #934E00",
"0D.	c #5C2501",
"aD.	c #3F1103",
"bD.	c #7A4102",
"cD.	c #A65501",
"dD.	c #230C05",
"eD.	c #040205",
"fD.	c #A55301",
"gD.	c #320D04",
"hD.	c #5A2001",
"iD.	c #724B01",
"jD.	c #E39F04",
"kD.	c #EC9802",
"lD.	c #D39502",
"mD.	c #5E2A00",
"nD.	c #B59320",
"oD.	c #FCE541",
"pD.	c #FCE347",
"qD.	c #FDDB3D",
"rD.	c #FED737",
"sD.	c #FED638",
"tD.	c #FDDF3D",
"uD.	c #CE9720",
"vD.	c #E48F04",
"wD.	c #F7B015",
"xD.	c #F9B715",
"yD.	c #B68A10",
"zD.	c #875A16",
"AD.	c #F7E44D",
"BD.	c #FDE548",
"CD.	c #FCE64B",
"DD.	c #DBA83A",
"ED.	c #DA8101",
"FD.	c #E58A0C",
"GD.	c #F7D852",
"HD.	c #FFEC53",
"ID.	c #EFBB34",
"JD.	c #E18A01",
"KD.	c #C47600",
"LD.	c #6E3403",
"MD.	c #3D2305",
"ND.	c #3B2106",
"OD.	c #8E731A",
"PD.	c #F9DE3A",
"QD.	c #FED633",
"RD.	c #FADA32",
"SD.	c #897E17",
"TD.	c #421502",
"UD.	c #592300",
"VD.	c #894900",
"WD.	c #A65C00",
"XD.	c #9B4E01",
"YD.	c #3D1A02",
"ZD.	c #350E04",
"`D.	c #734F01",
" E.	c #E3A104",
".E.	c #EA9403",
"+E.	c #D59502",
"@E.	c #5F2A00",
"#E.	c #B99C27",
"$E.	c #FDE140",
"%E.	c #CF991F",
"&E.	c #EA9504",
"*E.	c #FBB817",
"=E.	c #FCB917",
"-E.	c #FABD19",
";E.	c #B79213",
">E.	c #8C611D",
",E.	c #F8E656",
"'E.	c #FDED52",
")E.	c #BC9839",
"!E.	c #AF6001",
"~E.	c #EA8F0E",
"{E.	c #F8DA57",
"]E.	c #FFEC54",
"^E.	c #F4C037",
"/E.	c #350B03",
"(E.	c #795B15",
"_E.	c #F9DF3F",
":E.	c #FFD839",
"<E.	c #FBDF3A",
"[E.	c #8A8018",
"}E.	c #B97201",
"|E.	c #310E03",
"1E.	c #3C1902",
"2E.	c #AC5801",
"3E.	c #331003",
"4E.	c #784E01",
"5E.	c #E4A103",
"6E.	c #E69302",
"7E.	c #E59202",
"8E.	c #E89902",
"9E.	c #EB9D02",
"0E.	c #D69902",
"aE.	c #673100",
"bE.	c #B99821",
"cE.	c #FAE23C",
"dE.	c #FBDF3C",
"eE.	c #FCDF3F",
"fE.	c #FBDC3E",
"gE.	c #FBDC3D",
"hE.	c #FADD3E",
"iE.	c #FAD839",
"jE.	c #FBD837",
"kE.	c #FBD835",
"lE.	c #F9E03C",
"mE.	c #CE981D",
"nE.	c #BF6801",
"oE.	c #CA7506",
"pE.	c #CB7505",
"qE.	c #C77104",
"rE.	c #D88002",
"sE.	c #EC9804",
"tE.	c #F9BB14",
"uE.	c #FABC14",
"vE.	c #F8C218",
"wE.	c #B59113",
"xE.	c #8D5E1C",
"yE.	c #F7E65B",
"zE.	c #FDEA54",
"AE.	c #FAEC59",
"BE.	c #B5973B",
"CE.	c #873F06",
"DE.	c #884006",
"EE.	c #AC6106",
"FE.	c #EB910E",
"GE.	c #F8D958",
"HE.	c #FEEB5A",
"IE.	c #F4BF39",
"JE.	c #E99200",
"KE.	c #814001",
"LE.	c #330C04",
"ME.	c #6E5215",
"NE.	c #FFD737",
"OE.	c #8A8012",
"PE.	c #551F00",
"QE.	c #B97501",
"RE.	c #270D05",
"SE.	c #481902",
"TE.	c #4C1B01",
"UE.	c #773E02",
"VE.	c #622801",
"WE.	c #733301",
"XE.	c #803C01",
"YE.	c #733501",
"ZE.	c #B16600",
"`E.	c #B56C00",
" F.	c #B76E00",
".F.	c #AA7002",
"+F.	c #AA6D02",
"@F.	c #A96E02",
"#F.	c #A57402",
"$F.	c #A27702",
"%F.	c #B98803",
"&F.	c #CD8701",
"*F.	c #D08902",
"=F.	c #D18B01",
"-F.	c #8D4500",
";F.	c #A96901",
">F.	c #CC8E02",
",F.	c #D19503",
"'F.	c #CB8D03",
")F.	c #9D4F00",
"!F.	c #9A4D01",
"~F.	c #A76108",
"{F.	c #AB8618",
"]F.	c #A98314",
"^F.	c #A77A13",
"/F.	c #A5730F",
"(F.	c #A7720E",
"_F.	c #A56F0E",
":F.	c #A56D0B",
"<F.	c #A5740D",
"[F.	c #A7780C",
"}F.	c #AA7E1A",
"|F.	c #B56A0D",
"1F.	c #C78A1C",
"2F.	c #EDCF42",
"3F.	c #EECC3C",
"4F.	c #EDC432",
"5F.	c #F0BE28",
"6F.	c #F2B922",
"7F.	c #F3B720",
"8F.	c #F4B71F",
"9F.	c #F6A80B",
"0F.	c #F6A50A",
"aF.	c #E4A208",
"bF.	c #A48408",
"cF.	c #A38509",
"dF.	c #A3880A",
"eF.	c #AF7F05",
"fF.	c #BB6F01",
"gF.	c #BD710B",
"hF.	c #BD903F",
"iF.	c #BC8F3E",
"jF.	c #BC9046",
"kF.	c #CBB04F",
"lF.	c #DAC950",
"mF.	c #DACA51",
"nF.	c #DFC74E",
"oF.	c #F4BA25",
"pF.	c #F7B81E",
"qF.	c #F8BB25",
"rF.	c #EFB343",
"sF.	c #F0B245",
"tF.	c #F1B447",
"uF.	c #F0A627",
"vF.	c #D08300",
"wF.	c #634707",
"xF.	c #F6CC23",
"yF.	c #FBCC22",
"zF.	c #8A840D",
"AF.	c #3A0E02",
"BF.	c #491800",
"CF.	c #4B1A00",
"DF.	c #AD6E01",
"EF.	c #DC8600",
"FF.	c #7A3602",
"GF.	c #743502",
"HF.	c #1F0C05",
"IF.	c #170C06",
"JF.	c #0E0605",
"KF.	c #562101",
"LF.	c #A27502",
"MF.	c #F4A103",
"NF.	c #773900",
"OF.	c #9D6501",
"PF.	c #E79C03",
"QF.	c #8A3A00",
"RF.	c #CB9827",
"SF.	c #FCE74F",
"TF.	c #FDC92A",
"UF.	c #FBB111",
"VF.	c #FBB010",
"WF.	c #E1AA0E",
"XF.	c #552601",
"YF.	c #B58201",
"ZF.	c #A45308",
"`F.	c #D9C359",
" G.	c #FEF362",
".G.	c #FFF462",
"+G.	c #FEEE5C",
"@G.	c #FECD2D",
"#G.	c #FFCE2C",
"$G.	c #F1A929",
"%G.	c #F29C02",
"&G.	c #D48800",
"*G.	c #310903",
"=G.	c #64490A",
"-G.	c #F9D62E",
";G.	c #FCD82C",
">G.	c #8A850D",
",G.	c #B47702",
"'G.	c #803A01",
")G.	c #190303",
"!G.	c #2F0E03",
"~G.	c #210B04",
"{G.	c #180606",
"]G.	c #2B0905",
"^G.	c #6B2C01",
"/G.	c #220404",
"(G.	c #753301",
"_G.	c #4B1601",
":G.	c #8D4E01",
"<G.	c #A47D03",
"[G.	c #F2A605",
"}G.	c #EFA803",
"|G.	c #9B6401",
"1G.	c #E29201",
"2G.	c #D29C32",
"3G.	c #FDE14A",
"4G.	c #FEDC3E",
"5G.	c #FFDA39",
"6G.	c #FFD634",
"7G.	c #FFD22F",
"8G.	c #FCCF2E",
"9G.	c #FAAE0B",
"0G.	c #FAAB0A",
"aG.	c #E0AD0C",
"bG.	c #451000",
"cG.	c #411600",
"dG.	c #B88402",
"eG.	c #9B4C06",
"fG.	c #D7C152",
"gG.	c #FFF465",
"hG.	c #FEEF61",
"iG.	c #FFCE31",
"jG.	c #F1AE2E",
"kG.	c #F39E02",
"lG.	c #F49E02",
"mG.	c #F39D02",
"nG.	c #60490C",
"oG.	c #F6D52E",
"pG.	c #FFCB24",
"qG.	c #FBCF22",
"rG.	c #887A0A",
"sG.	c #B37002",
"tG.	c #8E4101",
"uG.	c #140507",
"vG.	c #200705",
"wG.	c #2F0C05",
"xG.	c #341005",
"yG.	c #391104",
"zG.	c #622802",
"AG.	c #5B2401",
"BG.	c #5E2900",
"CG.	c #905201",
"DG.	c #D48000",
"EG.	c #904A00",
"FG.	c #874200",
"GG.	c #854200",
"HG.	c #854400",
"IG.	c #854600",
"JG.	c #844600",
"KG.	c #AC7F04",
"LG.	c #E7AA07",
"MG.	c #EAA806",
"NG.	c #E6AD04",
"OG.	c #743B00",
"PG.	c #955B01",
"QG.	c #DB8401",
"RG.	c #CC7801",
"SG.	c #AA6001",
"TG.	c #B26401",
"UG.	c #B16301",
"VG.	c #AF6608",
"WG.	c #9B651F",
"XG.	c #996526",
"YG.	c #996427",
"ZG.	c #9A6529",
"`G.	c #9B6629",
" H.	c #9B6427",
".H.	c #9B652A",
"+H.	c #A46A29",
"@H.	c #A56A29",
"#H.	c #A4682B",
"$H.	c #D28D2D",
"%H.	c #D68D30",
"&H.	c #D1862D",
"*H.	c #D8A03F",
"=H.	c #FAD548",
"-H.	c #FBCF41",
";H.	c #FBD341",
">H.	c #F1CA33",
",H.	c #EEC62C",
"'H.	c #EFCA2F",
")H.	c #EDC72E",
"!H.	c #E3A407",
"~H.	c #6D3A01",
"{H.	c #643200",
"]H.	c #643501",
"^H.	c #B07F03",
"/H.	c #D38601",
"(H.	c #D28104",
"_H.	c #A66613",
":H.	c #A66718",
"<H.	c #A1651B",
"[H.	c #D9C046",
"}H.	c #FEEE5B",
"|H.	c #FFEE5E",
"1H.	c #FCEC64",
"2H.	c #F9D238",
"3H.	c #F9D335",
"4H.	c #F9DB3C",
"5H.	c #EFB43D",
"6H.	c #F1A628",
"7H.	c #F2A623",
"8H.	c #F4A412",
"9H.	c #F5A205",
"0H.	c #5B2901",
"aH.	c #6D4B0B",
"bH.	c #E9CB28",
"cH.	c #F0BF1A",
"dH.	c #ECC219",
"eH.	c #957E0A",
"fH.	c #684F04",
"gH.	c #4D2702",
"hH.	c #AB6801",
"iH.	c #C07001",
"jH.	c #843F01",
"kH.	c #381303",
"lH.	c #783602",
"mH.	c #1E0606",
"nH.	c #2B0C05",
"oH.	c #692B02",
"pH.	c #370E04",
"qH.	c #9E5100",
"rH.	c #D88501",
"sH.	c #E08E01",
"tH.	c #CE9202",
"uH.	c #654002",
"vH.	c #5F3802",
"wH.	c #613E01",
"xH.	c #9E6A01",
"yH.	c #F0A402",
"zH.	c #ED9801",
"AH.	c #E99D02",
"BH.	c #ECA202",
"CH.	c #EDA002",
"DH.	c #EFB51F",
"EH.	c #F7E154",
"FH.	c #F7E258",
"GH.	c #F7E35A",
"HH.	c #F7E55C",
"IH.	c #F7E55B",
"JH.	c #F7E560",
"KH.	c #F7E55F",
"LH.	c #F8E55F",
"MH.	c #F8E460",
"NH.	c #FBF071",
"OH.	c #FBEF6F",
"PH.	c #FCF072",
"QH.	c #FDF573",
"RH.	c #FEF370",
"SH.	c #FBEF72",
"TH.	c #AD9548",
"UH.	c #7B4306",
"VH.	c #804705",
"WH.	c #7F4807",
"XH.	c #723701",
"YH.	c #783F01",
"ZH.	c #BE6D00",
"`H.	c #985702",
" I.	c #522601",
".I.	c #542600",
"+I.	c #9C821F",
"@I.	c #F4DD41",
"#I.	c #F4D641",
"$I.	c #F7DE53",
"%I.	c #FEF66C",
"&I.	c #E0C466",
"*I.	c #BC6E14",
"=I.	c #C16E0E",
"-I.	c #CB761A",
";I.	c #EDD97D",
">I.	c #FDF067",
",I.	c #F8BF34",
"'I.	c #E59D04",
")I.	c #B66200",
"!I.	c #A75501",
"~I.	c #6B4404",
"{I.	c #6C4203",
"]I.	c #6E4905",
"^I.	c #D9AB0F",
"/I.	c #F0B810",
"(I.	c #EDBC12",
"_I.	c #856608",
":I.	c #763601",
"<I.	c #B25E01",
"[I.	c #2D0D03",
"}I.	c #240A05",
"|I.	c #140405",
"1I.	c #1B0506",
"2I.	c #380E04",
"3I.	c #390F03",
"4I.	c #421403",
"5I.	c #CF9601",
"6I.	c #492502",
"7I.	c #401002",
"8I.	c #9D6701",
"9I.	c #ED9600",
"0I.	c #F19E03",
"aI.	c #F09C02",
"bI.	c #EF9A00",
"cI.	c #F19C00",
"dI.	c #F09B00",
"eI.	c #F2AF1F",
"fI.	c #FEDF41",
"gI.	c #FEE045",
"hI.	c #FFEA53",
"iI.	c #FFED56",
"jI.	c #FFED58",
"kI.	c #FFEB56",
"lI.	c #FFE54F",
"mI.	c #FEF466",
"nI.	c #FFF86A",
"oI.	c #FFF568",
"pI.	c #FFF669",
"qI.	c #FFF666",
"rI.	c #FDF366",
"sI.	c #AA9343",
"tI.	c #732D01",
"uI.	c #955300",
"vI.	c #3C0E00",
"wI.	c #9C952E",
"xI.	c #FCE84A",
"yI.	c #FFE648",
"zI.	c #FCDE56",
"AI.	c #FFF86B",
"BI.	c #FFFA71",
"CI.	c #D8BD68",
"DI.	c #B75F05",
"EI.	c #C66919",
"FI.	c #EDDC7A",
"GI.	c #FEF467",
"HI.	c #F9C238",
"II.	c #F6A508",
"JI.	c #F5A407",
"KI.	c #E39803",
"LI.	c #5A3001",
"MI.	c #E2B713",
"NI.	c #FEBE15",
"OI.	c #F8BE16",
"PI.	c #856C0B",
"QI.	c #230905",
"RI.	c #3E1203",
"SI.	c #360E04",
"TI.	c #A25101",
"UI.	c #A04F01",
"VI.	c #CB7201",
"WI.	c #C76F01",
"XI.	c #DA8701",
"YI.	c #E59201",
"ZI.	c #CD9001",
"`I.	c #482301",
" J.	c #9B6301",
".J.	c #EB9B01",
"+J.	c #EC9D02",
"@J.	c #EDA504",
"#J.	c #EFA505",
"$J.	c #ED9C02",
"%J.	c #EFB022",
"&J.	c #F9DE42",
"*J.	c #F9E046",
"=J.	c #F8E453",
"-J.	c #F9E759",
";J.	c #F9E85B",
">J.	c #FAEB5D",
",J.	c #FAEC61",
"'J.	c #FAEB60",
")J.	c #FBE558",
"!J.	c #FBF06B",
"~J.	c #FAF473",
"{J.	c #FAF275",
"]J.	c #F9F170",
"^J.	c #F9EF69",
"/J.	c #FAF064",
"(J.	c #FAF063",
"_J.	c #AA913B",
":J.	c #804104",
"<J.	c #7C4204",
"[J.	c #763D05",
"}J.	c #BA6601",
"|J.	c #925101",
"1J.	c #9A902A",
"2J.	c #FAE649",
"3J.	c #FDE449",
"4J.	c #FDD63C",
"5J.	c #FBDE5B",
"6J.	c #FEF771",
"7J.	c #DDBE67",
"8J.	c #BF6B07",
"9J.	c #C36C03",
"0J.	c #CD7519",
"aJ.	c #EDD977",
"bJ.	c #FDF266",
"cJ.	c #FDF267",
"dJ.	c #F5BE37",
"eJ.	c #F19F05",
"fJ.	c #E08F02",
"gJ.	c #E2B915",
"hJ.	c #F8BF16",
"iJ.	c #836B0A",
"jJ.	c #120105",
"kJ.	c #7E3702",
"lJ.	c #330E04",
"mJ.	c #2C0A05",
"nJ.	c #672E01",
"oJ.	c #C47102",
"pJ.	c #824101",
"qJ.	c #793D01",
"rJ.	c #753A01",
"sJ.	c #9D5301",
"tJ.	c #945101",
"uJ.	c #582802",
"vJ.	c #D38201",
"wJ.	c #D48501",
"xJ.	c #BB6901",
"yJ.	c #814C01",
"zJ.	c #825001",
"AJ.	c #855601",
"BJ.	c #875502",
"CJ.	c #895502",
"DJ.	c #8C5001",
"EJ.	c #915808",
"FJ.	c #936B17",
"GJ.	c #936D19",
"HJ.	c #926D20",
"IJ.	c #937024",
"JJ.	c #957226",
"KJ.	c #977628",
"LJ.	c #97782C",
"MJ.	c #99792B",
"NJ.	c #9A792B",
"OJ.	c #99782A",
"PJ.	c #9B7A2F",
"QJ.	c #9B7A34",
"RJ.	c #9C7933",
"SJ.	c #977530",
"TJ.	c #846E28",
"UJ.	c #867126",
"VJ.	c #88772B",
"WJ.	c #724A14",
"XJ.	c #946F0F",
"YJ.	c #ECCA2A",
"ZJ.	c #EEC72A",
"`J.	c #E9C12A",
" K.	c #EDA90D",
".K.	c #EFAC0B",
"+K.	c #EFB20D",
"@K.	c #AD8508",
"#K.	c #905A0B",
"$K.	c #EBA61B",
"%K.	c #E79E1C",
"&K.	c #E49717",
"*K.	c #EBAD2D",
"=K.	c #F6BE39",
"-K.	c #F8C03A",
";K.	c #F6B92F",
">K.	c #F5B115",
",K.	c #F5B416",
"'K.	c #F6B416",
")K.	c #DC9D34",
"!K.	c #DC9A2D",
"~K.	c #DE9C2C",
"{K.	c #CC7E13",
"]K.	c #CF7801",
"^K.	c #7E3B00",
"/K.	c #E2B918",
"(K.	c #FEBE19",
"_K.	c #F9C215",
":K.	c #7F6B08",
"<K.	c #B77002",
"[K.	c #803701",
"}K.	c #532202",
"|K.	c #924B01",
"1K.	c #884101",
"2K.	c #7B2F00",
"3K.	c #7C3000",
"4K.	c #7D3000",
"5K.	c #803300",
"6K.	c #7A3101",
"7K.	c #6F2800",
"8K.	c #96750F",
"9K.	c #FCD22B",
"0K.	c #FAC828",
"aK.	c #F6AA0C",
"bK.	c #F9AC09",
"cK.	c #F7B20B",
"dK.	c #AE8808",
"eK.	c #8F4B01",
"fK.	c #EC9C01",
"gK.	c #EEAC1B",
"hK.	c #FCC01F",
"iK.	c #FDC121",
"jK.	c #FBBD1F",
"kK.	c #FAB211",
"lK.	c #FAB210",
"mK.	c #F9B414",
"nK.	c #DC8E09",
"oK.	c #B96000",
"pK.	c #824000",
"qK.	c #603201",
"rK.	c #F8C315",
"sK.	c #7B6B06",
"tK.	c #B96D01",
"uK.	c #1E0404",
"vK.	c #1B0303",
"wK.	c #1E0604",
"xK.	c #5C2402",
"yK.	c #713301",
"zK.	c #954F01",
"AK.	c #572A01",
"BK.	c #D18501",
"CK.	c #CA7A01",
"DK.	c #5E2800",
"EK.	c #592701",
"FK.	c #D88401",
"GK.	c #5A2900",
"HK.	c #5D2D00",
"IK.	c #5F2C01",
"JK.	c #6F3808",
"KK.	c #733C0C",
"LK.	c #703C0B",
"MK.	c #6C3909",
"NK.	c #6A3804",
"OK.	c #6B3703",
"PK.	c #6F3503",
"QK.	c #753905",
"RK.	c #773B0E",
"SK.	c #743B15",
"TK.	c #753B15",
"UK.	c #7B3C10",
"VK.	c #7C3C10",
"WK.	c #7A3C12",
"XK.	c #7B3D13",
"YK.	c #7B3D11",
"ZK.	c #7B3E0D",
"`K.	c #733A0A",
" L.	c #5A2F01",
".L.	c #562E01",
"+L.	c #522801",
"@L.	c #5C3104",
"#L.	c #703804",
"$L.	c #977716",
"%L.	c #F9D530",
"&L.	c #FCD12F",
"*L.	c #FACA29",
"=L.	c #F5A90A",
"-L.	c #F6AA08",
";L.	c #F6B207",
">L.	c #B28504",
",L.	c #935200",
"'L.	c #E99B01",
")L.	c #E89B04",
"!L.	c #EFBC20",
"~L.	c #FACC28",
"{L.	c #FACC29",
"]L.	c #F5AC23",
"^L.	c #F4AB23",
"/L.	c #F4AE24",
"(L.	c #D98921",
"_L.	c #D2791E",
":L.	c #D57C1D",
"<L.	c #C6700D",
"[L.	c #D27C02",
"}L.	c #6D3500",
"|L.	c #682B00",
"1L.	c #663301",
"2L.	c #E0B918",
"3L.	c #FAC31C",
"4L.	c #F4C416",
"5L.	c #7D6A06",
"6L.	c #501D00",
"7L.	c #B26701",
"8L.	c #DE8200",
"9L.	c #4B1D03",
"0L.	c #643302",
"aL.	c #864702",
"bL.	c #250605",
"cL.	c #3A1304",
"dL.	c #6B3201",
"eL.	c #662F01",
"fL.	c #6B3301",
"gL.	c #682D00",
"hL.	c #A66701",
"iL.	c #D68800",
"jL.	c #D18902",
"kL.	c #C57901",
"lL.	c #895000",
"mL.	c #7E4A00",
"nL.	c #7D4800",
"oL.	c #885201",
"pL.	c #CF8401",
"qL.	c #D38801",
"rL.	c #D58C01",
"sL.	c #7B4B01",
"tL.	c #7A4F01",
"uL.	c #784901",
"vL.	c #E09F02",
"wL.	c #DC9B08",
"xL.	c #E7CA3A",
"yL.	c #EBD243",
"zL.	c #EBD43F",
"AL.	c #EAD139",
"BL.	c #E9C425",
"CL.	c #E9BF1F",
"DL.	c #E5B31E",
"EL.	c #E8C72F",
"FL.	c #ECD84B",
"GL.	c #ECDB59",
"HL.	c #ECDB5C",
"IL.	c #ECD850",
"JL.	c #EDD64E",
"KL.	c #ECD955",
"LL.	c #EDDA57",
"ML.	c #ECDA51",
"NL.	c #ECD747",
"OL.	c #E9CE3B",
"PL.	c #E5B010",
"QL.	c #E5AC08",
"RL.	c #E1A008",
"SL.	c #E8C326",
"TL.	c #EBCB2C",
"UL.	c #EBC727",
"VL.	c #EAC325",
"WL.	c #D28D15",
"XL.	c #D18713",
"YL.	c #D58810",
"ZL.	c #B66902",
"`L.	c #B06901",
" M.	c #BD6900",
".M.	c #B26201",
"+M.	c #7A5301",
"@M.	c #795401",
"#M.	c #7A5302",
"$M.	c #99670C",
"%M.	c #9E6E13",
"&M.	c #9F6D13",
"*M.	c #BF9B54",
"=M.	c #FAF08E",
"-M.	c #FBF18E",
";M.	c #FBF08B",
">M.	c #F6EB85",
",M.	c #F6EA7D",
"'M.	c #F6E97E",
")M.	c #C4A74C",
"!M.	c #8C4001",
"~M.	c #AF8314",
"{M.	c #F7C01E",
"]M.	c #F4BC18",
"^M.	c #F3BC12",
"/M.	c #E5A907",
"(M.	c #E2AA02",
"_M.	c #E0A302",
":M.	c #A26302",
"<M.	c #723800",
"[M.	c #6F3700",
"}M.	c #451701",
"|M.	c #421B03",
"1M.	c #B1720A",
"2M.	c #BF7B0B",
"3M.	c #BF7906",
"4M.	c #B46301",
"5M.	c #804200",
"6M.	c #814300",
"7M.	c #491A02",
"8M.	c #5D2E01",
"9M.	c #A55A02",
"0M.	c #4B2303",
"aM.	c #270903",
"bM.	c #100304",
"cM.	c #3A1102",
"dM.	c #A05A01",
"eM.	c #815803",
"fM.	c #BA6901",
"gM.	c #703300",
"hM.	c #713F00",
"iM.	c #D68600",
"jM.	c #CC7601",
"kM.	c #D68301",
"lM.	c #E48D03",
"mM.	c #F8C72C",
"nM.	c #FFD532",
"oM.	c #FDD02D",
"pM.	c #FBB919",
"qM.	c #F7AF13",
"rM.	c #FAC529",
"sM.	c #FEDE3E",
"tM.	c #FFE141",
"uM.	c #FFDF3D",
"vM.	c #FFDC38",
"wM.	c #FBCE2F",
"xM.	c #F3A208",
"yM.	c #FACA2C",
"zM.	c #FFCF2C",
"AM.	c #F9C829",
"BM.	c #D17B03",
"CM.	c #913E00",
"DM.	c #913F00",
"EM.	c #B99352",
"FM.	c #FDFB7F",
"GM.	c #FFFE7C",
"HM.	c #FFFB75",
"IM.	c #FFFB71",
"JM.	c #FEFB74",
"KM.	c #C8B04B",
"LM.	c #AE8717",
"MM.	c #FDB916",
"NM.	c #ED9904",
"OM.	c #3A1202",
"PM.	c #AB5801",
"QM.	c #573202",
"RM.	c #C77701",
"SM.	c #552702",
"TM.	c #A76102",
"UM.	c #815C02",
"VM.	c #C36F01",
"WM.	c #682F00",
"XM.	c #D88B01",
"YM.	c #E18A03",
"ZM.	c #F9C328",
"`M.	c #FFCF2F",
" N.	c #FCC92C",
".N.	c #FDBE1E",
"+N.	c #FCBD1D",
"@N.	c #FCC427",
"#N.	c #FFDC41",
"$N.	c #FFD83B",
"%N.	c #FED83B",
"&N.	c #FFDE40",
"*N.	c #FFDC3E",
"=N.	c #FFDB3B",
"-N.	c #FCCE32",
";N.	c #F7A907",
">N.	c #F3A209",
",N.	c #FACD35",
"'N.	c #FFD639",
")N.	c #FFD233",
"!N.	c #F7CE33",
"~N.	c #D17D05",
"{N.	c #521700",
"]N.	c #531801",
"^N.	c #BA934A",
"/N.	c #FDF979",
"(N.	c #FEFC78",
"_N.	c #FFFA76",
":N.	c #FEFC7F",
"<N.	c #C8B055",
"[N.	c #924101",
"}N.	c #B08610",
"|N.	c #FABE17",
"1N.	c #FCB813",
"2N.	c #9E6202",
"3N.	c #581C01",
"4N.	c #370C01",
"5N.	c #563202",
"6N.	c #512302",
"7N.	c #4E1C02",
"8N.	c #D68401",
"9N.	c #816002",
"0N.	c #431804",
"aN.	c #4D1D03",
"bN.	c #431904",
"cN.	c #4D1902",
"dN.	c #3E1002",
"eN.	c #804001",
"fN.	c #8B4A01",
"gN.	c #BF7501",
"hN.	c #C37300",
"iN.	c #BC6E01",
"jN.	c #CB7B01",
"kN.	c #C87801",
"lN.	c #C07101",
"mN.	c #955601",
"nN.	c #955602",
"oN.	c #9C5E02",
"pN.	c #CB7F01",
"qN.	c #874400",
"rN.	c #964F00",
"sN.	c #975000",
"tN.	c #9E5200",
"uN.	c #DC8602",
"vN.	c #EDB31F",
"wN.	c #F1C129",
"xN.	c #F5C028",
"yN.	c #F7C128",
"zN.	c #FEC426",
"AN.	c #FCBF24",
"BN.	c #FDC72B",
"CN.	c #FECF30",
"DN.	c #FFD134",
"EN.	c #FED63B",
"FN.	c #FDDC4A",
"GN.	c #FEDC49",
"HN.	c #FEE14E",
"IN.	c #FED83F",
"JN.	c #FED133",
"KN.	c #F7C52D",
"LN.	c #EE9F06",
"MN.	c #EE9F04",
"NN.	c #EB9906",
"ON.	c #EDBF34",
"PN.	c #EDC738",
"QN.	c #ECC22E",
"RN.	c #E8BA2D",
"SN.	c #CA7604",
"TN.	c #BE890F",
"UN.	c #BD9113",
"VN.	c #BE8A14",
"WN.	c #C4921C",
"XN.	c #C7981D",
"YN.	c #C9951B",
"ZN.	c #BD8E18",
"`N.	c #9F8B1D",
" O.	c #A08A1E",
".O.	c #9D8623",
"+O.	c #AE8820",
"@O.	c #B38F25",
"#O.	c #B5902B",
"$O.	c #C6A63C",
"%O.	c #DFD369",
"&O.	c #DED26A",
"*O.	c #DED47D",
"=O.	c #F7EB6D",
"-O.	c #FEF072",
";O.	c #FDF07F",
">O.	c #D8C257",
",O.	c #B5952E",
"'O.	c #B2912A",
")O.	c #BC9B21",
"!O.	c #DCA30D",
"~O.	c #DFA80F",
"{O.	c #DFA90D",
"]O.	c #D18404",
"^O.	c #D18002",
"/O.	c #B48E13",
"(O.	c #A39117",
"_O.	c #A39016",
":O.	c #917D0F",
"<O.	c #B36B00",
"[O.	c #C37000",
"}O.	c #A95A00",
"|O.	c #8E5501",
"1O.	c #915C02",
"2O.	c #7B4702",
"3O.	c #632D01",
"4O.	c #734201",
"5O.	c #7B3E02",
"6O.	c #793E02",
"7O.	c #844A04",
"8O.	c #6B4406",
"9O.	c #080006",
"0O.	c #511E03",
"aO.	c #340D04",
"bO.	c #B46601",
"cO.	c #826D03",
"dO.	c #DF8501",
"eO.	c #AD5A01",
"fO.	c #E38C02",
"gO.	c #E78F02",
"hO.	c #F0AC23",
"iO.	c #FED130",
"jO.	c #FED235",
"kO.	c #FED02D",
"lO.	c #FDD844",
"mO.	c #FEF569",
"nO.	c #FED448",
"oO.	c #FEC21E",
"pO.	c #FFC11A",
"qO.	c #F4B517",
"rO.	c #DB8104",
"sO.	c #D47B05",
"tO.	c #D17803",
"uO.	c #A95100",
"vO.	c #AA5200",
"wO.	c #B56405",
"xO.	c #F6C827",
"yO.	c #FDCF29",
"zO.	c #FDCB2A",
"AO.	c #FDD030",
"BO.	c #FDD836",
"CO.	c #FDDA38",
"DO.	c #FDD332",
"EO.	c #FDD533",
"FO.	c #FCD736",
"GO.	c #FBDB3D",
"HO.	c #FCD031",
"IO.	c #FDCE2F",
"JO.	c #F1C624",
"KO.	c #8B4D0D",
"LO.	c #85390E",
"MO.	c #873F18",
"NO.	c #E1CA35",
"OO.	c #FED334",
"PO.	c #FEE246",
"QO.	c #FDE84C",
"RO.	c #DFC744",
"SO.	c #8C4401",
"TO.	c #D4B324",
"UO.	c #FDD328",
"VO.	c #DCBA1D",
"WO.	c #D68700",
"XO.	c #EA9D01",
"YO.	c #ED9F01",
"ZO.	c #E49601",
"`O.	c #A66C04",
" P.	c #070006",
".P.	c #DB8D01",
"+P.	c #827103",
"@P.	c #683602",
"#P.	c #924C00",
"$P.	c #864300",
"%P.	c #E99001",
"&P.	c #EFAD23",
"*P.	c #FEDA48",
"=P.	c #FEF46A",
"-P.	c #FFF66B",
";P.	c #FDD244",
">P.	c #FEC118",
",P.	c #F4B415",
"'P.	c #B16307",
")P.	c #F7C827",
"!P.	c #FFCB29",
"~P.	c #FEC728",
"{P.	c #FECC2D",
"]P.	c #FED333",
"^P.	c #FED031",
"/P.	c #FECB2A",
"(P.	c #FFCA29",
"_P.	c #F3C11D",
":P.	c #854502",
"<P.	c #853906",
"[P.	c #E1C933",
"}P.	c #FED02C",
"|P.	c #FFEA52",
"1P.	c #DFC949",
"2P.	c #9A4D02",
"3P.	c #D4B220",
"4P.	c #FECE26",
"5P.	c #FECA22",
"6P.	c #DDB71C",
"7P.	c #D78900",
"8P.	c #D37E00",
"9P.	c #B06101",
"0P.	c #E19301",
"aP.	c #A56903",
"bP.	c #5A2502",
"cP.	c #D58701",
"dP.	c #7B5F04",
"eP.	c #4C1C02",
"fP.	c #461902",
"gP.	c #643101",
"hP.	c #985101",
"iP.	c #CC8200",
"jP.	c #DE9101",
"kP.	c #D68501",
"lP.	c #8D4901",
"mP.	c #8B4600",
"nP.	c #D68101",
"oP.	c #DC8A01",
"pP.	c #E29802",
"qP.	c #E39E04",
"rP.	c #E4AF16",
"sP.	c #EDD329",
"tP.	c #EED32C",
"uP.	c #EED83E",
"vP.	c #EEDB40",
"wP.	c #EED940",
"xP.	c #EDD63E",
"yP.	c #EDDA48",
"zP.	c #EEE96A",
"AP.	c #EFEB67",
"BP.	c #EEEB65",
"CP.	c #EDD442",
"DP.	c #EFCB22",
"EP.	c #EFC81E",
"FP.	c #E9BC1A",
"GP.	c #DB8702",
"HP.	c #DB8301",
"IP.	c #DF8F01",
"JP.	c #D47D00",
"KP.	c #AF6904",
"LP.	c #EDC61A",
"MP.	c #F2CE1F",
"NP.	c #F2CC22",
"OP.	c #F3CF26",
"PP.	c #F3D229",
"QP.	c #F3D52B",
"RP.	c #F2D62F",
"SP.	c #F3D634",
"TP.	c #F3D941",
"UP.	c #F9CC2A",
"VP.	c #F0B518",
"WP.	c #916203",
"XP.	c #875401",
"YP.	c #864E0A",
"ZP.	c #D7C843",
"`P.	c #F0D22E",
" Q.	c #F0D32F",
".Q.	c #F2DF4C",
"+Q.	c #F3E655",
"@Q.	c #F3E65A",
"#Q.	c #DBC959",
"$Q.	c #A25806",
"%Q.	c #A35600",
"&Q.	c #D6AD18",
"*Q.	c #E1B71A",
"=Q.	c #8F5502",
"-Q.	c #D59301",
";Q.	c #E09101",
">Q.	c #764A01",
",Q.	c #744A00",
"'Q.	c #A76401",
")Q.	c #A26104",
"!Q.	c #562401",
"~Q.	c #542501",
"{Q.	c #4C2202",
"]Q.	c #371403",
"^Q.	c #4A1702",
"/Q.	c #471502",
"(Q.	c #4F2401",
"_Q.	c #532B01",
":Q.	c #562A01",
"<Q.	c #622C01",
"[Q.	c #B16501",
"}Q.	c #442503",
"|Q.	c #381C03",
"1Q.	c #391E04",
"2Q.	c #3A1F03",
"3Q.	c #392104",
"4Q.	c #3A2303",
"5Q.	c #392704",
"6Q.	c #392A04",
"7Q.	c #3A3407",
"8Q.	c #3B3408",
"9Q.	c #3B350E",
"0Q.	c #3A360E",
"aQ.	c #3C360F",
"bQ.	c #3C350D",
"cQ.	c #3E350E",
"dQ.	c #3E3719",
"eQ.	c #3F3717",
"fQ.	c #413715",
"gQ.	c #3E340D",
"hQ.	c #3B3207",
"iQ.	c #3B3205",
"jQ.	c #392D05",
"kQ.	c #371F03",
"lQ.	c #381D02",
"mQ.	c #392403",
"nQ.	c #391D03",
"oQ.	c #371B03",
"pQ.	c #311002",
"qQ.	c #512702",
"rQ.	c #9C5202",
"sQ.	c #984F02",
"tQ.	c #9A4F02",
"uQ.	c #9E5303",
"vQ.	c #9E5304",
"wQ.	c #9A5205",
"xQ.	c #9C5405",
"yQ.	c #9F5406",
"zQ.	c #A95D0B",
"AQ.	c #E2B82A",
"BQ.	c #FCC627",
"CQ.	c #F6B609",
"DQ.	c #F5B006",
"EQ.	c #EFA103",
"FQ.	c #9C700E",
"GQ.	c #764006",
"HQ.	c #794106",
"IQ.	c #8D4B0E",
"JQ.	c #96500F",
"KQ.	c #995411",
"LQ.	c #B47613",
"MQ.	c #ED9E05",
"NQ.	c #EA9601",
"OQ.	c #E79300",
"PQ.	c #8A4A00",
"QQ.	c #D2A610",
"RQ.	c #FBB811",
"SQ.	c #F9B111",
"TQ.	c #F7B110",
"UQ.	c #EF9E03",
"VQ.	c #F1A302",
"WQ.	c #F0A803",
"XQ.	c #996801",
"YQ.	c #C69502",
"ZQ.	c #F2A702",
"`Q.	c #F1A301",
" R.	c #E49201",
".R.	c #9F5C02",
"+R.	c #421102",
"@R.	c #2F1404",
"#R.	c #190102",
"$R.	c #1A0203",
"%R.	c #190202",
"&R.	c #200502",
"*R.	c #1B0203",
"=R.	c #140102",
"-R.	c #150102",
";R.	c #160102",
">R.	c #4C2102",
",R.	c #9D4800",
"'R.	c #AB5603",
")R.	c #E4C230",
"!R.	c #FEDA37",
"~R.	c #FCCE2D",
"{R.	c #F9AE0B",
"]R.	c #F9AC08",
"^R.	c #9C6A02",
"/R.	c #B17202",
"(R.	c #F2A104",
"_R.	c #E89602",
":R.	c #6D2F00",
"<R.	c #D3A30C",
"[R.	c #FAB50E",
"}R.	c #F9AD0B",
"|R.	c #F29B02",
"1R.	c #F1A002",
"2R.	c #976702",
"3R.	c #C78F03",
"4R.	c #F3A102",
"5R.	c #F19E01",
"6R.	c #E49200",
"7R.	c #D98400",
"8R.	c #A15F03",
"9R.	c #763402",
"0R.	c #9C4901",
"aR.	c #340B03",
"bR.	c #491602",
"cR.	c #571E01",
"dR.	c #632F01",
"eR.	c #6E3E00",
"fR.	c #6D3E00",
"gR.	c #6B4401",
"hR.	c #745401",
"iR.	c #744D01",
"jR.	c #6F4401",
"kR.	c #431801",
"lR.	c #8C3F01",
"mR.	c #994701",
"nR.	c #A34D02",
"oR.	c #9E4B01",
"pR.	c #9E4A01",
"qR.	c #974601",
"rR.	c #914201",
"sR.	c #C36D01",
"tR.	c #B56F02",
"uR.	c #301504",
"vR.	c #240505",
"wR.	c #411F03",
"xR.	c #623401",
"yR.	c #5C2E01",
"zR.	c #613401",
"AR.	c #653A02",
"BR.	c #6A5104",
"CR.	c #70650B",
"DR.	c #71660B",
"ER.	c #6E5D07",
"FR.	c #673C01",
"GR.	c #694301",
"HR.	c #674102",
"IR.	c #643B01",
"JR.	c #653B01",
"KR.	c #653A01",
"LR.	c #623601",
"MR.	c #623402",
"NR.	c #633601",
"OR.	c #5F3001",
"PR.	c #5C2D01",
"QR.	c #642D01",
"RR.	c #A95401",
"SR.	c #AD5701",
"TR.	c #A85100",
"UR.	c #A34E01",
"VR.	c #A55001",
"WR.	c #A95301",
"XR.	c #AA5401",
"YR.	c #AC5804",
"ZR.	c #E9DA42",
"`R.	c #E9D93F",
" S.	c #EDD138",
".S.	c #F5AF12",
"+S.	c #F7AE0F",
"@S.	c #F5A908",
"#S.	c #AF861B",
"$S.	c #92721E",
"%S.	c #967323",
"&S.	c #A06212",
"*S.	c #A76F02",
"=S.	c #E69801",
"-S.	c #DE8D01",
";S.	c #A36E03",
">S.	c #926501",
",S.	c #916302",
"'S.	c #CCA410",
")S.	c #E7B70E",
"!S.	c #E8B109",
"~S.	c #E8AD06",
"{S.	c #EB9E02",
"]S.	c #EA9F03",
"^S.	c #996702",
"/S.	c #622C00",
"(S.	c #C18F04",
"_S.	c #E7AB03",
":S.	c #E5A703",
"<S.	c #E29901",
"[S.	c #E09202",
"}S.	c #CB8302",
"|S.	c #E69201",
"1S.	c #DC8801",
"2S.	c #B76401",
"3S.	c #A35D02",
"4S.	c #5A2A03",
"5S.	c #5D2B03",
"6S.	c #522504",
"7S.	c #2B0E06",
"8S.	c #260C05",
"9S.	c #783A03",
"0S.	c #9C5200",
"aS.	c #C57A00",
"bS.	c #D98800",
"cS.	c #D08000",
"dS.	c #682B02",
"eS.	c #2D0F05",
"fS.	c #2D0E05",
"gS.	c #290D06",
"hS.	c #270C05",
"iS.	c #2A1004",
"jS.	c #301404",
"kS.	c #301604",
"lS.	c #2D1605",
"mS.	c #370E01",
"nS.	c #3C1100",
"oS.	c #3A1000",
"pS.	c #D7A10F",
"qS.	c #F6CB1E",
"rS.	c #F7C81D",
"sS.	c #E5B815",
"tS.	c #BE6C01",
"uS.	c #C97802",
"vS.	c #C47402",
"wS.	c #B86800",
"xS.	c #B86600",
"yS.	c #331203",
"zS.	c #2E1004",
"AS.	c #2F1104",
"BS.	c #2E1104",
"CS.	c #322808",
"DS.	c #35300C",
"ES.	c #35300A",
"FS.	c #90770E",
"GS.	c #FACB1D",
"HS.	c #FEC41D",
"IS.	c #FBB613",
"JS.	c #F9D83A",
"KS.	c #FCE23D",
"LS.	c #B89524",
"MS.	c #844400",
"NS.	c #E8AB07",
"OS.	c #F2AB04",
"PS.	c #9D7002",
"QS.	c #593001",
"RS.	c #5F2F01",
"SS.	c #773D01",
"TS.	c #995500",
"US.	c #673000",
"VS.	c #672F00",
"WS.	c #A46500",
"XS.	c #E28C00",
"YS.	c #F5A505",
"ZS.	c #DF9A03",
"`S.	c #200C03",
" T.	c #3F1202",
".T.	c #602602",
"+T.	c #330D04",
"@T.	c #1A0407",
"#T.	c #1C0407",
"$T.	c #3C1101",
"%T.	c #D8A226",
"&T.	c #E7BC2A",
"*T.	c #340A02",
"=T.	c #320A02",
"-T.	c #280503",
";T.	c #8B6508",
">T.	c #F6B50C",
",T.	c #F09C09",
"'T.	c #F7D032",
")T.	c #FEE23C",
"!T.	c #B69022",
"~T.	c #844100",
"{T.	c #E5A503",
"]T.	c #F2A403",
"^T.	c #A47302",
"/T.	c #A36100",
"(T.	c #A26A01",
"_T.	c #E69101",
":T.	c #F8A705",
"<T.	c #F7A604",
"[T.	c #E19F04",
"}T.	c #230D05",
"|T.	c #5C2801",
"1T.	c #4A1D02",
"2T.	c #451902",
"3T.	c #5A2400",
"4T.	c #BC6B00",
"5T.	c #D37F00",
"6T.	c #783800",
"7T.	c #5F2402",
"8T.	c #190306",
"9T.	c #180206",
"0T.	c #441801",
"aT.	c #451901",
"bT.	c #521F01",
"cT.	c #A75903",
"dT.	c #A55603",
"eT.	c #B76503",
"fT.	c #C66F03",
"gT.	c #C87002",
"hT.	c #D9A127",
"iT.	c #FCD636",
"jT.	c #E7BD2F",
"kT.	c #BA6B13",
"lT.	c #BC6E15",
"mT.	c #C06F13",
"nT.	c #BC6911",
"oT.	c #A9590E",
"pT.	c #AB5A0E",
"qT.	c #AC5C0B",
"rT.	c #A9580A",
"sT.	c #A85707",
"tT.	c #AB5904",
"uT.	c #AC5A03",
"vT.	c #704005",
"wT.	c #D68202",
"xT.	c #D67E01",
"yT.	c #D87C06",
"zT.	c #EBC830",
"AT.	c #F8DD3A",
"BT.	c #F6E140",
"CT.	c #B48F21",
"DT.	c #854E01",
"ET.	c #7F4B01",
"FT.	c #895002",
"GT.	c #E0A403",
"HT.	c #F1A502",
"IT.	c #EEA503",
"JT.	c #AA7603",
"KT.	c #743500",
"LT.	c #9F5E00",
"MT.	c #E79502",
"NT.	c #EA9502",
"OT.	c #EDA105",
"PT.	c #EFAC06",
"QT.	c #EDA703",
"RT.	c #DA9C03",
"ST.	c #9C5300",
"TT.	c #AA5B01",
"UT.	c #582602",
"VT.	c #BE7701",
"WT.	c #B86F01",
"XT.	c #B67001",
"YT.	c #773201",
"ZT.	c #8A4801",
"`T.	c #904801",
" U.	c #C37100",
".U.	c #C97700",
"+U.	c #BA6B01",
"@U.	c #884600",
"#U.	c #8D4700",
"$U.	c #8E4700",
"%U.	c #A85801",
"&U.	c #502203",
"*U.	c #421904",
"=U.	c #3F1604",
"-U.	c #491803",
";U.	c #551E02",
">U.	c #6E3702",
",U.	c #A75D01",
"'U.	c #A65A01",
")U.	c #A35701",
"!U.	c #AB6201",
"~U.	c #B36A01",
"{U.	c #B56B01",
"]U.	c #B86C01",
"^U.	c #B66901",
"/U.	c #BD8C1A",
"(U.	c #E4BB2A",
"_U.	c #E3B525",
":U.	c #E1A619",
"<U.	c #E5AF29",
"[U.	c #ECBB2C",
"}U.	c #ECBA2A",
"|U.	c #F1C333",
"1U.	c #F7CA33",
"2U.	c #EEDD6A",
"3U.	c #EEE06F",
"4U.	c #EDD969",
"5U.	c #EACE63",
"6U.	c #E5C653",
"7U.	c #E6C954",
"8U.	c #E7CA4D",
"9U.	c #E6C749",
"0U.	c #E6BF39",
"aU.	c #E6C032",
"bU.	c #E3B92D",
"cU.	c #D48A04",
"dU.	c #D28701",
"eU.	c #C98001",
"fU.	c #884201",
"gU.	c #984C01",
"hU.	c #8F4801",
"iU.	c #572904",
"jU.	c #552704",
"kU.	c #A1660E",
"lU.	c #AE7211",
"mU.	c #A56F14",
"nU.	c #D5A914",
"oU.	c #EDB813",
"pU.	c #EEB811",
"qU.	c #D1A90A",
"rU.	c #B26801",
"sU.	c #C68C06",
"tU.	c #D79406",
"uU.	c #D99605",
"vU.	c #D99304",
"wU.	c #E4A007",
"xU.	c #E59D03",
"yU.	c #E59A03",
"zU.	c #A17C09",
"AU.	c #EEB110",
"BU.	c #F3AF0D",
"CU.	c #DAAF10",
"DU.	c #7F6004",
"EU.	c #7D5A01",
"FU.	c #765102",
"GU.	c #A15301",
"HU.	c #210C04",
"IU.	c #995001",
"JU.	c #C27100",
"KU.	c #A65601",
"LU.	c #2B0E05",
"MU.	c #CD9919",
"NU.	c #FDC422",
"OU.	c #FAB516",
"PU.	c #F9C02B",
"QU.	c #FED237",
"RU.	c #FECF2E",
"SU.	c #FDF673",
"TU.	c #FEFA74",
"UU.	c #FEF568",
"VU.	c #FDE95F",
"WU.	c #FEDD3E",
"XU.	c #F8CC2D",
"YU.	c #E79203",
"ZU.	c #934701",
"`U.	c #DDA815",
" V.	c #FAB414",
".V.	c #DAA409",
"+V.	c #D69506",
"@V.	c #F5A506",
"#V.	c #A5860C",
"$V.	c #F8BA13",
"%V.	c #FBB10E",
"&V.	c #D9AE0F",
"*V.	c #5B2C01",
"=V.	c #4E1F03",
"-V.	c #290604",
";V.	c #C67500",
">V.	c #A65401",
",V.	c #2C0E05",
"'V.	c #CD9412",
")V.	c #FBC622",
"!V.	c #FBBE1C",
"~V.	c #F8B312",
"{V.	c #F9C129",
"]V.	c #FDF26B",
"^V.	c #FEF66B",
"/V.	c #FFF364",
"(V.	c #FEDC3A",
"_V.	c #FFE13E",
":V.	c #FED938",
"<V.	c #FECD29",
"[V.	c #F9C626",
"}V.	c #2A0802",
"|V.	c #210803",
"1V.	c #DBA10E",
"2V.	c #F7AD0F",
"3V.	c #D89A07",
"4V.	c #D59404",
"5V.	c #F5A706",
"6V.	c #F5A406",
"7V.	c #F3A105",
"8V.	c #F6A406",
"9V.	c #F4A002",
"0V.	c #6D2901",
"aV.	c #A9810B",
"bV.	c #F6B10E",
"cV.	c #F5A709",
"dV.	c #D6A108",
"eV.	c #582900",
"fV.	c #7E3A01",
"gV.	c #270806",
"hV.	c #5A2301",
"iV.	c #B66900",
"jV.	c #B16C00",
"kV.	c #A96F00",
"lV.	c #A86A01",
"mV.	c #A56E01",
"nV.	c #5A2A01",
"oV.	c #5A2302",
"pV.	c #592302",
"qV.	c #884901",
"rV.	c #863F00",
"sV.	c #C06C00",
"tV.	c #BF6B00",
"uV.	c #B06200",
"vV.	c #984B01",
"wV.	c #250B05",
"xV.	c #3F1304",
"yV.	c #BE6E00",
"zV.	c #C16F00",
"AV.	c #C68A04",
"BV.	c #E09D0C",
"CV.	c #DFA214",
"DV.	c #D5A41C",
"EV.	c #CDA011",
"FV.	c #CE9E10",
"GV.	c #D09812",
"HV.	c #E5C253",
"IV.	c #FCE063",
"JV.	c #FDE065",
"KV.	c #FCE36F",
"LV.	c #FDE37B",
"MV.	c #FDE37A",
"NV.	c #FCE06F",
"OV.	c #FDD648",
"PV.	c #FDD949",
"QV.	c #F3D544",
"RV.	c #DAB227",
"SV.	c #DCB528",
"TV.	c #DFB930",
"UV.	c #E2AE27",
"VV.	c #E49F0E",
"WV.	c #E4A82A",
"XV.	c #ECBE41",
"YV.	c #EBBC3D",
"ZV.	c #E3AD2D",
"`V.	c #BD6C02",
" W.	c #C77D00",
".W.	c #C67D00",
"+W.	c #511D03",
"@W.	c #753402",
"#W.	c #B78504",
"$W.	c #CB9305",
"%W.	c #CC8C04",
"&W.	c #C58C03",
"*W.	c #C39604",
"=W.	c #C39503",
"-W.	c #C09402",
";W.	c #884900",
">W.	c #BD7E02",
",W.	c #DD9403",
"'W.	c #E09304",
")W.	c #DE9103",
"!W.	c #CA8102",
"~W.	c #CC8501",
"{W.	c #CA8301",
"]W.	c #C37700",
"^W.	c #BF7300",
"/W.	c #B96B00",
"(W.	c #7D3C00",
"_W.	c #A97203",
":W.	c #C39407",
"<W.	c #C08D05",
"[W.	c #D09705",
"}W.	c #F2A507",
"|W.	c #CF8E01",
"1W.	c #030105",
"2W.	c #340E04",
"3W.	c #1C0606",
"4W.	c #CDA10E",
"5W.	c #FBB612",
"6W.	c #FBBA17",
"7W.	c #DAB328",
"8W.	c #874004",
"9W.	c #8F400A",
"0W.	c #CCBA6B",
"aW.	c #FEF46D",
"bW.	c #FEFE91",
"cW.	c #FEFE8E",
"dW.	c #FDF283",
"eW.	c #FCC526",
"fW.	c #E9BE24",
"gW.	c #B15D03",
"hW.	c #B55E01",
"iW.	c #BC6201",
"jW.	c #C26801",
"kW.	c #D39631",
"lW.	c #FDE64F",
"mW.	c #F2D03B",
"nW.	c #D07B04",
"oW.	c #B27B01",
"pW.	c #F3A803",
"qW.	c #ECA904",
"rW.	c #AB5F00",
"sW.	c #A85B01",
"tW.	c #D48D04",
"uW.	c #FAB30A",
"vW.	c #F9AD09",
"wW.	c #D29404",
"xW.	c #421F02",
"yW.	c #1E0706",
"zW.	c #110106",
"AW.	c #D0A10C",
"BW.	c #DBB425",
"CW.	c #873E03",
"DW.	c #91400B",
"EW.	c #CDBB6E",
"FW.	c #FEF56D",
"GW.	c #FEFF9B",
"HW.	c #FDF38B",
"IW.	c #FCC628",
"JW.	c #FEC923",
"KW.	c #E9BD20",
"LW.	c #D79B34",
"MW.	c #F5D443",
"NW.	c #D47D06",
"OW.	c #230505",
"PW.	c #904301",
"QW.	c #AE7901",
"RW.	c #F3A702",
"SW.	c #F3A003",
"TW.	c #EEA905",
"UW.	c #CE7B00",
"VW.	c #5B1C00",
"WW.	c #D48804",
"XW.	c #FAAF0A",
"YW.	c #FAAE09",
"ZW.	c #F8AD08",
"`W.	c #F9AD08",
" X.	c #F9A604",
".X.	c #D69D05",
"+X.	c #3D2102",
"@X.	c #521C02",
"#X.	c #3D1605",
"$X.	c #401803",
"%X.	c #3A1403",
"&X.	c #3C1103",
"*X.	c #8B4300",
"=X.	c #8D4900",
"-X.	c #924F00",
";X.	c #8B3F01",
">X.	c #914301",
",X.	c #914401",
"'X.	c #853D02",
")X.	c #1E0807",
"!X.	c #310D05",
"~X.	c #BD9307",
"{X.	c #E0AC0E",
"]X.	c #E1B615",
"^X.	c #CAA820",
"/X.	c #984A02",
"(X.	c #98460B",
"_X.	c #CEBB6F",
":X.	c #FFF770",
"<X.	c #FEFA88",
"[X.	c #FFFF9E",
"}X.	c #FFF491",
"|X.	c #FECE28",
"1X.	c #F0C22B",
"2X.	c #CD9B32",
"3X.	c #CE9A31",
"4X.	c #D28A18",
"5X.	c #D48806",
"6X.	c #D48504",
"7X.	c #E1A72E",
"8X.	c #F5D041",
"9X.	c #D88006",
"0X.	c #9A5000",
"aX.	c #370D03",
"bX.	c #924301",
"cX.	c #A77101",
"dX.	c #E59901",
"eX.	c #E49502",
"fX.	c #DF9C03",
"gX.	c #A65C01",
"hX.	c #BA6700",
"iX.	c #C17600",
"jX.	c #7A4401",
"kX.	c #966501",
"lX.	c #986501",
"mX.	c #BE7F02",
"nX.	c #D17F01",
"oX.	c #D88A02",
"pX.	c #F4A506",
"qX.	c #F4A606",
"rX.	c #E79F03",
"sX.	c #D69304",
"tX.	c #DA9402",
"uX.	c #BF8E02",
"vX.	c #3F1F03",
"wX.	c #110207",
"xX.	c #0F0605",
"yX.	c #692C02",
"zX.	c #692C01",
"AX.	c #BE7100",
"BX.	c #391304",
"CX.	c #260B05",
"DX.	c #1E0705",
"EX.	c #4D1B03",
"FX.	c #300A03",
"GX.	c #904C00",
"HX.	c #8F4701",
"IX.	c #6E3401",
"JX.	c #8B4903",
"KX.	c #A34F0C",
"LX.	c #D1BD75",
"MX.	c #FFF773",
"NX.	c #FFFA86",
"OX.	c #FFFF9D",
"PX.	c #FEF492",
"QX.	c #FED32D",
"RX.	c #FFD22E",
"SX.	c #FDE348",
"TX.	c #FDE347",
"UX.	c #FCE449",
"VX.	c #F8C12E",
"WX.	c #F6AE0D",
"XX.	c #F3A707",
"YX.	c #F6B218",
"ZX.	c #FFD838",
"`X.	c #F6CB3B",
" Y.	c #E08706",
".Y.	c #AC6000",
"+Y.	c #6A2F00",
"@Y.	c #4E1701",
"#Y.	c #A16200",
"$Y.	c #E59101",
"%Y.	c #F1A202",
"&Y.	c #EA9501",
"*Y.	c #BB7701",
"=Y.	c #5A2600",
"-Y.	c #502301",
";Y.	c #C57800",
">Y.	c #632501",
",Y.	c #A6500D",
"'Y.	c #D3BE7A",
")Y.	c #FFF978",
"!Y.	c #FFF776",
"~Y.	c #FFF988",
"{Y.	c #FEFF9E",
"]Y.	c #FEF594",
"^Y.	c #FDD232",
"/Y.	c #FED430",
"(Y.	c #FFE345",
"_Y.	c #FBC52D",
":Y.	c #F8B00E",
"<Y.	c #F6A505",
"[Y.	c #F8AD12",
"}Y.	c #FED93A",
"|Y.	c #F5CC3C",
"1Y.	c #E08806",
"2Y.	c #AB6200",
"3Y.	c #380E01",
"4Y.	c #7A3F02",
"5Y.	c #4B1401",
"6Y.	c #A25E00",
"7Y.	c #F19C01",
"8Y.	c #F39E01",
"9Y.	c #F29C01",
"0Y.	c #B87400",
"aY.	c #732E01",
"bY.	c #B86900",
"cY.	c #BA6B00",
"dY.	c #C67200",
"eY.	c #B87000",
"fY.	c #2F0F05",
"gY.	c #6F3001",
"hY.	c #9A5200",
"iY.	c #BB6900",
"jY.	c #BA6600",
"kY.	c #92650D",
"lY.	c #CB9010",
"mY.	c #C98A0B",
"nY.	c #C78510",
"oY.	c #D4B16A",
"pY.	c #E6D46F",
"qY.	c #E9D46A",
"rY.	c #EFDE7B",
"sY.	c #FEF08E",
"tY.	c #FEF08A",
"uY.	c #FEE77D",
"vY.	c #FFD030",
"wY.	c #FED230",
"xY.	c #FFDE55",
"yY.	c #FFEA6B",
"zY.	c #FFE968",
"AY.	c #FBD248",
"BY.	c #F8C645",
"CY.	c #F7C254",
"DY.	c #F7C04A",
"EY.	c #FCC72A",
"FY.	c #EEC230",
"GY.	c #C67905",
"HY.	c #C47900",
"IY.	c #A96300",
"JY.	c #AD5C00",
"KY.	c #6C3101",
"LY.	c #723401",
"MY.	c #491E03",
"NY.	c #793E01",
"OY.	c #874801",
"PY.	c #854B03",
"QY.	c #854C04",
"RY.	c #744901",
"SY.	c #926702",
"TY.	c #9C7703",
"UY.	c #9E8804",
"VY.	c #9F9207",
"WY.	c #9F8D05",
"XY.	c #A48603",
"YY.	c #A98202",
"ZY.	c #C08302",
"`Y.	c #DE9301",
" Z.	c #D38F01",
".Z.	c #D38E01",
"+Z.	c #D08A00",
"@Z.	c #CD8600",
"#Z.	c #CC8300",
"$Z.	c #A76C00",
"%Z.	c #652702",
"&Z.	c #2A0C04",
"*Z.	c #1F0706",
"=Z.	c #1C0706",
"-Z.	c #100908",
";Z.	c #481A01",
">Z.	c #924601",
",Z.	c #AD9221",
"'Z.	c #FBC21F",
")Z.	c #FBB816",
"!Z.	c #F8B212",
"~Z.	c #E19312",
"{Z.	c #CF760E",
"]Z.	c #D1780D",
"^Z.	c #E0AC48",
"/Z.	c #FEE048",
"(Z.	c #FDC320",
"_Z.	c #FDE771",
":Z.	c #FFFD86",
"<Z.	c #FFFD84",
"[Z.	c #FFEE62",
"}Z.	c #FFEC5B",
"|Z.	c #FDE75C",
"1Z.	c #FCB517",
"2Z.	c #E2B312",
"3Z.	c #AD5F00",
"4Z.	c #713302",
"5Z.	c #E2B611",
"6Z.	c #F6C618",
"7Z.	c #F5C71A",
"8Z.	c #F3BC0B",
"9Z.	c #F4BB08",
"0Z.	c #F7B509",
"aZ.	c #F8B109",
"bZ.	c #F8AA06",
"cZ.	c #F7AA05",
"dZ.	c #F4A202",
"eZ.	c #BC7D01",
"fZ.	c #863A01",
"gZ.	c #853B01",
"hZ.	c #7D3801",
"iZ.	c #562303",
"jZ.	c #AE9320",
"kZ.	c #FCC622",
"lZ.	c #FDBD1B",
"mZ.	c #E2AC45",
"nZ.	c #FFDC3C",
"oZ.	c #FDC622",
"pZ.	c #FEC924",
"qZ.	c #FDCC29",
"rZ.	c #FDE671",
"sZ.	c #FFFD87",
"tZ.	c #FFFD85",
"uZ.	c #FFEF62",
"vZ.	c #FDE656",
"wZ.	c #FBB314",
"xZ.	c #E1B00E",
"yZ.	c #6E3203",
"zZ.	c #773B02",
"AZ.	c #9E5101",
"BZ.	c #E7B00E",
"CZ.	c #FBB510",
"DZ.	c #FCB411",
"EZ.	c #F8A804",
"FZ.	c #F29E01",
"GZ.	c #EF9900",
"HZ.	c #BC7E01",
"IZ.	c #944800",
"JZ.	c #5B2503",
"KZ.	c #120505",
"LZ.	c #5C2701",
"MZ.	c #4A1E02",
"NZ.	c #451A03",
"OZ.	c #A95701",
"PZ.	c #893F02",
"QZ.	c #421A03",
"RZ.	c #481C02",
"SZ.	c #AE5901",
"TZ.	c #944F01",
"UZ.	c #8A5302",
"VZ.	c #875102",
"WZ.	c #B39B25",
"XZ.	c #FAD433",
"YZ.	c #FACC30",
"ZZ.	c #F9BF1F",
"`Z.	c #E9A314",
" `.	c #D9850A",
".`.	c #D78109",
"+`.	c #E3A637",
"@`.	c #FCD546",
"#`.	c #FED546",
"$`.	c #FED140",
"%`.	c #FCCB3D",
"&`.	c #FDCB3F",
"*`.	c #FCE369",
"=`.	c #FDED68",
"-`.	c #FDE85A",
";`.	c #FCE760",
">`.	c #FBE15F",
",`.	c #F9AE13",
"'`.	c #FAAD09",
")`.	c #E0A007",
"!`.	c #814000",
"~`.	c #854700",
"{`.	c #773A00",
"]`.	c #632902",
"^`.	c #280604",
"/`.	c #763A01",
"(`.	c #E8AF08",
"_`.	c #F7AE07",
":`.	c #F7AE08",
"<`.	c #F6B30E",
"[`.	c #F5B40C",
"}`.	c #F4B809",
"|`.	c #F4B908",
"1`.	c #F4B506",
"2`.	c #F3B607",
"3`.	c #F3B706",
"4`.	c #EFB706",
"5`.	c #EFB906",
"6`.	c #EEB906",
"7`.	c #EDB404",
"8`.	c #EBAC02",
"9`.	c #E8AF01",
"0`.	c #BC8F01",
"a`.	c #8B4500",
"b`.	c #924E01",
"c`.	c #522203",
"d`.	c #2B0D05",
"e`.	c #351204",
"f`.	c #2D0D05",
"g`.	c #290C04",
"h`.	c #E09603",
"i`.	c #F1AD09",
"j`.	c #F0AD07",
"k`.	c #EFA209",
"l`.	c #DE8509",
"m`.	c #DB8109",
"n`.	c #D47C06",
"o`.	c #F1BE27",
"p`.	c #FCC927",
"q`.	c #FBC827",
"r`.	c #FADD67",
"s`.	c #FEFB90",
"t`.	c #FEFD95",
"u`.	c #FEFC91",
"v`.	c #FFFC93",
"w`.	c #FEFC97",
"x`.	c #FFFC98",
"y`.	c #FFFE96",
"z`.	c #FFFD7F",
"A`.	c #FFF772",
"B`.	c #EEB444",
"C`.	c #EC9313",
"D`.	c #EC9216",
"E`.	c #EE9815",
"F`.	c #DD8C00",
"G`.	c #3B1602",
"H`.	c #3D1602",
"I`.	c #4E2801",
"J`.	c #CA8B01",
"K`.	c #BB6501",
"L`.	c #B56201",
"M`.	c #814700",
"N`.	c #693B00",
"O`.	c #653A00",
"P`.	c #643900",
"Q`.	c #613600",
"R`.	c #5F3800",
"S`.	c #9A5501",
"T`.	c #CB8A01",
"U`.	c #3B1D02",
"V`.	c #692F03",
"W`.	c #300F05",
"X`.	c #280705",
"Y`.	c #DF8B02",
"Z`.	c #EE9903",
"``.	c #EC9602",
"  +	c #D57B02",
". +	c #F1BB27",
"+ +	c #FEC625",
"@ +	c #FDC623",
"# +	c #FBE06F",
"$ +	c #FEFE85",
"% +	c #FFFB79",
"& +	c #FEF86F",
"* +	c #EFB63E",
"= +	c #F5A303",
"- +	c #EC9903",
"; +	c #C68001",
"> +	c #CA8602",
", +	c #3E1D02",
"' +	c #210705",
") +	c #1D0605",
"! +	c #DE8A01",
"~ +	c #ED9803",
"{ +	c #EA9603",
"] +	c #D57A02",
"^ +	c #F0B922",
"/ +	c #FEC624",
"( +	c #FDC521",
"_ +	c #FCDF77",
": +	c #FFFF84",
"< +	c #FFFF8F",
"[ +	c #EFB73C",
"} +	c #F5A302",
"| +	c #F5A101",
"1 +	c #ED9D03",
"2 +	c #C27400",
"3 +	c #C48302",
"4 +	c #411E02",
"5 +	c #9C4B01",
"6 +	c #9F4E01",
"7 +	c #632D03",
"8 +	c #0E0706",
"9 +	c #411703",
"0 +	c #320B04",
"a +	c #401604",
"b +	c #3E1603",
"c +	c #3B1304",
"d +	c #4A1C03",
"e +	c #793801",
"f +	c #290C06",
"g +	c #180307",
"h +	c #692A02",
"i +	c #6F2D01",
"j +	c #DC8B02",
"k +	c #F09D04",
"l +	c #EC9A05",
"m +	c #D07801",
"n +	c #CA7101",
"o +	c #EDB41F",
"p +	c #FDC31B",
"q +	c #FCDB6F",
"r +	c #FEFD87",
"s +	c #FEFE87",
"t +	c #FEFB72",
"u +	c #D9A73B",
"v +	c #C76E01",
"w +	c #DE9902",
"x +	c #3E1702",
"y +	c #844001",
"z +	c #662E01",
"A +	c #632E00",
"B +	c #6C3301",
"C +	c #3E1804",
"D +	c #0E0507",
"E +	c #2C0C05",
"F +	c #250906",
"G +	c #210606",
"H +	c #200607",
"I +	c #1E0607",
"J +	c #270906",
"K +	c #2A0B06",
"L +	c #703202",
"M +	c #9B4B01",
"N +	c #260B06",
"O +	c #120207",
"P +	c #100208",
"Q +	c #130307",
"R +	c #150308",
"S +	c #3D1505",
"T +	c #391004",
"U +	c #DA8C03",
"V +	c #F19C08",
"W +	c #ED990A",
"X +	c #CC7702",
"Y +	c #BC6802",
"Z +	c #E9B31A",
"` +	c #FDBF1B",
" .+	c #FAB713",
"..+	c #F6CC54",
"+.+	c #FAE75D",
"@.+	c #FBE85C",
"#.+	c #FBE455",
"$.+	c #FAE257",
"%.+	c #FCE559",
"&.+	c #FDE85B",
"*.+	c #FCEA5B",
"=.+	c #FEF35C",
"-.+	c #FDF25C",
";.+	c #FDF057",
">.+	c #D7A333",
",.+	c #C66D01",
"'.+	c #CF7601",
").+	c #EF9A04",
"!.+	c #F39D04",
"~.+	c #DA9803",
"{.+	c #783201",
"].+	c #A15101",
"^.+	c #702F01",
"/.+	c #4B1802",
"(.+	c #883F01",
"_.+	c #7C3601",
":.+	c #341105",
"<.+	c #110707",
"[.+	c #110505",
"}.+	c #110506",
"|.+	c #130406",
"1.+	c #140506",
"2.+	c #250905",
"3.+	c #280B06",
"4.+	c #411805",
"5.+	c #4F1E04",
"6.+	c #552104",
"7.+	c #5E2503",
"8.+	c #521F03",
"9.+	c #240A06",
"0.+	c #1D0606",
"a.+	c #1D0706",
"b.+	c #1A0506",
"c.+	c #1D0607",
"d.+	c #220806",
"e.+	c #230906",
"f.+	c #5D2705",
"g.+	c #7F3903",
"h.+	c #853D04",
"i.+	c #833D03",
"j.+	c #170506",
"k.+	c #160507",
"l.+	c #160505",
"m.+	c #190507",
"n.+	c #321007",
"o.+	c #4A1A03",
"p.+	c #5A2303",
"q.+	c #5B2404",
"r.+	c #713002",
"s.+	c #692C03",
"t.+	c #662A03",
"u.+	c #692B04",
"v.+	c #6E2E03",
"w.+	c #511F05",
"x.+	c #371005",
"y.+	c #491A04",
"z.+	c #672B04",
"A.+	c #692D04",
"B.+	c #632904",
"C.+	c #632905",
"D.+	c #703105",
"E.+	c #713104",
"F.+	c #753404",
"G.+	c #924804",
"H.+	c #9A4E06",
"I.+	c #934C06",
"J.+	c #AB7008",
"K.+	c #C37F09",
"L.+	c #C47F09",
"M.+	c #C07F0C",
"N.+	c #B26808",
"O.+	c #AF6509",
"P.+	c #A35D0A",
"Q.+	c #BB8A11",
"R.+	c #C79915",
"S.+	c #C79513",
"T.+	c #C49E28",
"U.+	c #CBBE2D",
"V.+	c #C9BE2D",
"W.+	c #CABA2C",
"X.+	c #CAB92C",
"Y.+	c #C9B82F",
"Z.+	c #CABA31",
"`.+	c #C8BA34",
" ++	c #CBC33D",
".++	c #CAC13D",
"+++	c #CAC138",
"@++	c #B7891F",
"#++	c #AC650A",
"$++	c #A95E07",
"%++	c #C38208",
"&++	c #C48408",
"*++	c #B07D07",
"=++	c #6A3104",
"-++	c #6D3105",
";++	c #6F3003",
">++	c #7E3B04",
",++	c #8A4204",
"'++	c #8A4203",
")++	c #8E4603",
"!++	c #934904",
"~++	c #944A04",
"{++	c #8F4704",
"]++	c #7B3A04",
"^++	c #6D2E03",
"/++	c #662B03",
"(++	c #521D02",
"_++	c #521D03",
":++	c #592303",
"<++	c #632803",
"[++	c #5E2403",
"}++	c #602603",
"|++	c #632604",
"1++	c #391205",
"2++	c #853C02",
"3++	c #7F3803",
"4++	c #632804",
"5++	c #5F2503",
"6++	c #6D2D03",
"7++	c #7D3602",
"8++	c #793403",
"9++	c #682E03",
"0++	c #884002",
"a++	c #894003",
"b++	c #783803",
"c++	c #4A1904",
"d++	c #461704",
"e++	c #592404",
"f++	c #713003",
"g++	c #723002",
"h++	c #6F2F03",
"i++	c #662A02",
"j++	c #461802",
"k++	c #4F2103",
"l++	c #843D02",
"m++	c #873E02",
"n++	c #7F3A04",
"o++	c #2F1007",
"p++	c #210907",
"q++	c #190705",
"r++	c #160605",
"s++	c #120605",
"                                                                                                                                                                                                                                                                                                                                                                                                                                                                                                                                                                                                                                                                                                                                                                                                                                                                                                                                    ",
"                                                                                                                                                                                                                                                                                                                                                                                                                                                                                                                                                                                                                                                                                                                                                                                                                                                                                                                                    ",
"                                                                                                                                                                                                                                                                                                                                                                                                                                                                                                                                                                                                                                                                                                                                                                                                                                                                                                                                    ",
"                                                                                                                                                                                                                                                                                                                                                                                                                                                                                                                                                                                                                                                                                                                                                                                                                                                                                                                                    ",
"                                                                                                                                                                                                                                                                                                                                                                                                                                                                                                                                                                                                                                                                                                                                                                                                                                                                                                                                    ",
"                                                                                                                                                                                                                                                                                                                                                                                                                                                                                                                                                                                                                                                                                                                                                                                                                                                                                                                                    ",
"                                                                                                                                                                                                                                                                                                                                                                                                                                                                                                                                                                                                                                                                                                                                                                                                                                                                                                                                    ",
"                                                                                                                                                                                                                                                                                                                                                                                                                                                                                                                                                                                                                                                                                                                                                                                                                                                                                                                                    ",
"                                                                                                                                                                                                                                                                                                                                                                                                                                                                                                                                                                                                                                                                                                                                                                                                                                                                                                                                    ",
"                                                                                                                                                                                                                                                                                                                                                                                                                                                                                                                                                                                                                                                                                                                                                                                                                                                                                                                                    ",
"                                                                                                                                                                                                                                                                                                                                                                                                                                                                                                                                                                                                                                                                                                                                                                                                                                                                                                                                    ",
"                                                                                                                                                                                                                                                                                                                                                                                                                                                                                                                                                                                                                                                                                                                                                                                                                                                                                                                                    ",
"                                                                                                                                                                                                                                                                                                                                                                                                                                                                                                                                                                                                                                                                                                                                                                                                                                                                                                                                    ",
"                                                                                                                                                                                                                                                                                                                                                                                                                                                                                                                                                                                                                                                                                                                                                                                                                                                                                                                                    ",
"                                                                                                                                                                                                                                                                                                                                                                                                                                                                                                                                                                                                                                                                                                                                                                                                                                                                                                                                    ",
"                                                                                                                                                                                                                                                                                                                                                                                                                                                                                                                                                                                                                                                                                                                                                                                                                                                                                                                                    ",
"                                                                                                                                                                                                                                                                                                                                                                                                                                                                                                                                                                                                                                                                                                                                                                                                                                                                                                                                    ",
"                                                                                                                                                                                                                                                                                                                                                                                                                                                                                                                                                                                                                                                                                                                                                                                                                                                                                                                                    ",
"                                                                                                                                                                                                                                                                                                                                                                                                                                                                                                                                                                                                                                                                                                                                                                                                                                                                                                                                    ",
"                                                                                                                                                                                                                                                                                                                                                                                                                                                                                                                                                                                                                                                                                                                                                                                                                                                                                                                                    ",
"                                                                                                                                                                                                                                                                                                                                                                                                                                                                                                                                                                                                                                                                                                                                                                                                                                                                                                                                    ",
"                                                                                                                                                                                                                                                                                                                                                                                                                                                                                                                                                                                                                                                                                                                                                                                                                                                                                                                                    ",
"                                                                                                                                                                                                                                                                                                                                                                                                                                                                                                                                                                                                                                                                                                                                                                                                                                                                                                                                    ",
"                                                                                                                                                                                                                                                                                                                                                                                                                                                                                                                                                                                                                                                                                                                                                                                                                                                                                                                                    ",
"                                                                                                                                                                                                                                                                                                                                                                                                                                                                                                                                                                                                                                                                                                                                                                                                                                                                                                                                    ",
"                                                                                                                                                                                                                                                                                                                                                                                                                                                                                                                                                                                                                                                                                                                                                                                                                                                                                                                                    ",
"                                                                                                                                                                                                                                                                                                                                                                                                                                                                                                                                                                                                                                                                                                                                                                                                                                                                                                                                    ",
"                                                                                                                                                                                                                                                                                                                                                                                                                                                                                                                                                                                                                                                                                                                                                                                                                                                                                                                                    ",
"                                                                                                                                                                                                                                                                                                                                                                                                                                                                                                                                                                                                                                                                                                                                                                                                                                                                                                                                    ",
"                                                                                                                                                                                                                                                                                                                                                                                                                                                                                                                                                                                                                                                                                                                                                                                                                                                                                                                                    ",
"                                                                                                                                                                                                                                                                                                                                                                                                                                                                                                                                                                                                                                                                                                                                                                                                                                                                                                                                    ",
"                                                                                                                                                                                                                                                                                                                                                                                                                                                                                                                                                                                                                                                                                                                                                                                                                                                                                                                                    ",
"                                                                                                                                                                                                                                                                                                                                                                                                                                                                                                                                                                                                                                                                                                                                                                                                                                                                                                                                    ",
"                                                                                                                                                                                                                                                                                                                                                                                                                                                                                                                                                                                                                                                                                                                                                                                                                                                                                                                                    ",
"                                                                                                                                                                                                                                                                                                                                                                                    .  +  @  @  @  +  #  #  @  $  %  &  $  &  *  *  =  -  +  +  @  @  @  @  #                                                                                                                                                                                                                                                                                                                                                                                                                                                                       ",
"                                                                                                                                                                                                                                                                                                                                                                                 ;  >  ,  '  )  !  ~  {  {  ]  ^  /  ~  (  _  )  )  !  :  <  _  [  }  !  }  |  1                                                                                                                                                                                                                                                                                                                                                                                                                                                                    ",
"                                                                                                                                                                                                                                                                                                                                                                              2  3  !  !  :  4  5  6  7  8  9  0  7  a  b  c  ^  ^  d  e  e  f  :  :  g  g  [  h                                                                                                                                                                                                                                                                                                                                                                                                                                                                    ",
"                                                                                                                                                                                                                                                                                                                                                                              i  j  k  l  m  n  n  o  p  q  r  s  t  u  v  w  x  y  z  A  B  C  D  E  F  G  H  I                                                                                                                                                                                                                                                                                                                                                                                                                                                                    ",
"                                                                                                                                                                                                                                                                                                                                                                        J  K  L  ,  I  M  N  O  P  Q  R  S  T  U  V  W  X  Y  Z  `   . .. +. @. #. $. %. &. *. m  =. 2                                -. ;. >. ,. '. ). !. ~. {. {. ]. ^. /. (. (. (. _. :. <.                                                                                                                                                                                                                                                                                                                                                                      ",
"                                                                                                                                                                                                                                                                                                                                                                     [. ,  |  _  }. }  |. 1. 2. 3. 4. 5. 6. 7. 8. 9. 0. a. b. c. d. e. f. g. h. i. j. k. l. m. n. <  ,  o.                         >  [  [  !  !  /  ~  ~  ^  ^  4  f  f  :  [  I  )  }. j  p. q.                                                                                                                                                                                                                                                                                                                                                                   ",
"                                                                                                                                                                                                                                                                                                                                                                     r. ,  I  4  G  s. t. u. v. w. x. y. z. A. B. C. D. E. F. G. H. I. J. K. L. M. N. O. P. Q. R. S. l  T.                         j  U. U. V. V. W. X. Y. Z. m  `.  +  + {  G  G  5  [  }  .+ ++                                                                                                                                                                                                                                                                                                                                                                   ",
"                                                                                                                                                                                                                                                                                             =  @+ #+ @  $+ %+ %+ &+ *+ =+ *+ -+ %+ &  &+ ;+                >+ ,+ [. '+ 1  |  )+ !+ ~+ {+ ]+ ^+ /+ (+ _+ :+ <+ [+ }+ |+ 1+ 2+ 3+ 4+ 5+ 6+ 7+ 8+ 9+ 0+ a+ b+ c+ d+ e+ f+ g+ h+ i+ *+ &+ *+ j+ j+ k+ l+ m+ n+ o+ p+ q+ r+ s+ t+ t+ u+ v+ w+ x+ y+ z+ A+ *. Y. B+ (. J  C+                                                                                                                                                                                                                                                                                                                                                             ",
"                                                                                                                                                                                                                                                                                          >+ D+ E+ }  f  f  F+ [  !  ^  G+ f+ 4  f  :  <  H+ I+          q. H+ J+  + K+ `. Y. L+ M+ N+ O+ P+ Q+ R+ S+ T+ U+ V+ W+ X+ Y+ Z+ `+  @ .@ +@ @@ #@ $@ %@ &@ *@ =@ -@ ;@ >@ ,@ '@ )@ l  <  :  :  <  <  !@ ~@ {@ ]@ ^@ /@ (@ _@ :@ <@ [@ [@ }@ |@ 1@ 2@ 3@ 4@ 5@ 6@ 7@ 8@ <  9@ %+                                                                                                                                                                                                                                                                                                                                                          ",
"                                                                                                                                                                                                                                                                                          j+ 0@ [  <  a@ a@ g  d  b@ 6  c@ d@ g  g  f+ f+ e@ f@          g@ e@ d@ h@ Y. Z. i@ j@ O+ k@ l@ m@ |@ n@ o@ p@ q@ r@ s@ t@ u@ v@ w@ x@ y@ z@ z@ A@ B@ C@ D@ E@ F@ G@ H@ I@ J@ K@ L@ M@ l  N@ <  f+ g  O@ P@ Q@ R@ (@ S@ T@ U@ V@ W@ X@ Y@ Z@ Z@ `@ `@  # .# +# @# 6@ M@ l  :  &                                                                                                                                                                                                                                                                                                                                                           ",
"                                                                                                                                                                                                                                                                                    ## $# %# &# *# =# -# ;# ># ,# '# )# !# ~# {# ]# ^# /# k  ;. _. ,+ (# _# e+ *. :# <# [# }# |# 1# 2# 3# 4# 5# 6# 7# 8# 9# 0# a# b# c# d# e# f# g# h# i# j# k# l# m# n# o# p# q# r# s# t# u# v# U. N@ w# x# y# z# A# B# C# D# E# F# G# H# I# J# K# L# M# N# O# P# Q# R# S# T# U# V# W# X# 9@ >+                                                                                                                                                                                                                                                                                                                                                    ",
"                                                                                                                                                                                                                                                                                 h+ 3  )  Y# Z# `#  $ .$ +$ @$ #$ $$ %$ &$ *$ =$ -$ ;$ >$ [  !  !  }. }. ,$ '$ )$ !$ ~$ {$ ]$ ^$ /$ ($ _$ :$ <$ [$ }$ |$ 1$ 2$ 3$ 4$ 5$ 6$ 7$ 8$ 9$ 0$ a$ b$ c$ d$ e$ f$ g$ h$ i$ j$ k$ l$ m$ n$ o$ p$ q$ r$ s$ t$ u$ v$ w$ x$ y$ z$ A$ B$ C$ D$ E$ F$ G$ H$ I$ J$ K$ L$ M$ N$ O$ P$ Q$ R$ )  j  -+                                                                                                                                                                                                                                                                                                                                                 ",
"                                                                                                                                                                                                                                                                                 S$ T$ }  U$ (@ V$ W$ X$ Y$ Z$ `$  % .% +% @% #% $% %% &% G  <  l  f  f  *% =% -% ;% >% ,% '% )% !% ~% {% ]% ^% /% (% _% :% <% [% }% |% 1% 2% 3% 4% 5% 6% 7% 8% 9% 0% a% b% c% =$ d% e% 6@ f% g% *. h% i% j% k% l% |@ m% n% o% D@ p% q% r% s% t% u@ u@ u% v% w% x% y% `@ z% A% B% C% D% E% N@ :  >                                                                                                                                                                                                                                                                                                                                                  ",
"                                                                                                                                                                                                                                                                                 F% ~  G% H% V$ T@ I% J% K% L% M% N% O% P% Q% $% R% S% T% U% V% W% 7  6  X% Y% Z% `%  & .& +& @& #& $& %& && *& =& -& ;& >& ,& '& )& !& ~& {& ]& ^& /& 0% (& _& :& <& [& }& |& 1& 2& 3& 4& 5& 9  6& 7& 8& 9& 0& a& b& c& d& e& &@ f& g& h& i& j& k& k& l& m& n& o& p& q& r& s& t& u& D% v& 4  ^  w&                                                                                                                                                                                                                                                                                                                                                 ",
"                                                                                                                                                                                                                                                                        &  x& y& z& A& B& C& D& E& F& G& H& I& J& K& L& M& N& O& P& Q& R& S& T& U& s# 6  V& W& Z% X& Y& Z& `&  * .* +* @* #* $* i. %* &* ** =* -* ;* >* ,* '* )* !* ~* {* ]* ^* /* /* (* _* :* <* [* }* |* 1* g% 2* 7& 3* 4* 5* 6* 7* 8* 9* 0* a* b* c* d* e* f* g* h* i* j* k* l* m* n* o* p* q* r* s* t* l. u* v* w* x* y* z* #+ *+ &+ %+ *+ A* D+ ;+ B* &+ &+ #+ C* #+ @  #  D*                                                                                                                                                                                                                                                                                  ",
"                                                                                                                                                                                                                                                                        r. E* F* G* H* I* J* K* L* M* N* O* P* Q* R* S* T* U* V* W* X* Y* Z* `*  = .= += @= #= $= %= &= *= == -= ;= >= ,= '= M* s$ )= != ~= {= ]= ^= /= (= (= _= := <= [= }= |= 1= 2= 3= 4= 5= 6= 7= 8= 9= 0= K@ t# a= b= c= d= e= f= g= h= i= j= k= K* l= m= (& n= o= p= q= r= s= t= u= v= w= x= y= z= A= B= C= D= E= F= G= v# h  H  h  H= N@ l  F+ F+ U. U. F+ F+ [  f  }  ,  C*                                                                                                                                                                                                                                                                                  ",
"                                                                                                                                                                                                                                                                        I= `. += J= K= L= M= N= O= P= Q= R= 1= S= L. T= 9% U= V= W* W= X= Y= Z= `=  - o$ .- +- ,= @- #- $- == ;= %- @* $= &- *- =- -- ;- >- ,- ]= '- )- !- ~- {- ]- ^- /- (- _- 1= :- <- [- 5= }- 7= 8= |- 1- g% 2- 3- 4- K= K= @- 5- ]% h= 6- 7- -@ 8- 9- 0- a- b- c- d- q= e- f- g- h- i- j- k- l- m- n- o- p- q- r- s- t- v# H  H  l  U. u- v- g  ,@ J@ ,@ v- g  4  5  4  I  C*                                                                                                                                                                                                                                                                                  ",
"                                                                                                                                                                                                                                                               w- x- y- z- A- B- C- D- E- F- G- H- I- J- K- L- M- N- O- P- Q- R- S- T- U- V- W- X- Y- Z- `-  ; +* %- .; +; *= @; #; $; %; &; *; j% =; -; ;; >; ,; '; ); !; ~; {; ]; ^; /; (; _; :; a& <; [; }; |; 8= 1; 2; 3; 4; 2* 1- 5; I* 6; 7; 8; 9; 0; a; b; c; d; e; f; g; h; i; j; k; l; m; n; o; p; q; r; s; t; u; v; w; x; y; z; A; B; C; D; E; F; G; H; I; J; K; L; M; N; O; P; Q; R; S; T; K                                                                                                                                                                                                                                                                             ",
"                                                                                                                                                                                                                                                            U; V; W; X; Y; && B% Z; `;  > .> +> @> #> $> %> &> *> => -> ;> >> ,> R% '> )> !> ~> {> ]> u& ^> /> &= Q@ (> _> :> <> [> }> |> 1> 2> 3> 4> 5> 6> 7> 8> 9> 0> a> b> c> d> e> f> g> h> i> j> k> l> V= +; c= c= b= m> n> o> p> u. q> r> s> W$ t> u> v> |@ w> x> y> z> A> B> C> D> E> F> G> H> I> J> K> L> M> N> O> Q. P> Q> 2* R> S> T> U> V> W> X> 9& Y> :% Z> `> N. 2. =&  , c= %= ., +, )  1  @,                                                                                                                                                                                                                                                                         ",
"                                                                                                                                                                                                                                                            #, $, _  %, &, *, =, -, ;, ;, >, &* ,, ', ), !, ~, {, ], ^, /, (, _, :, <, [, }, |, 4- Z% 1, )$ 7= Q@ #- (> 2, 3, 4, 5, 5, W$ 6, 7, 8, 9, 0, a, b, c, d, e, f, g, g, h, i, j, k, l, m, c% n, l> o, p, @* @* q, r, s, t, u, v, q> w, x, y, z, A, B, C, D, E, F, G, H, I, J, K, L, M, N, O, P, Q, R, S, T, U, V, P> Q. W, X, S> t# Y, Z, `,  ' .' +' `> @' #' $' %' :- &' *' =' 8= -' T> }  1  ;'                                                                                                                                                                                                                                                                         ",
"                                                                                                                                                                                                                                                            >' ,' <  '' )' !' 9; ~' {' ]' ^' /' (' _' :' <' [' }' |' 1' 2' 3' 4' [& 5' 6' 7' 8' Y% c= 9' 0' a' b' c' d' e' f' g' h' i' j' k' v. l' m' n' o' p' q' r' s' t' u' v' w' x' y' z' A' B' z, C' H* ,= D' ^> E' A& F' G' H' I' J' K' L' M' N' O' P' Q' R' S' T' U' V' W' X' Y' X' Z' `'  ) .) +) @) #) y, $) %) &) *) =) 7& -) ;) >) ,) t& ') )) !) ~) {) ]) ;$ ^) /) () _) :) <) [) }) |) 1) 2) D                                                                                                                                                                                                                                                                          ",
"                                                                                                                                                                                                                                                   3) 4) /. 5) 6) n  7) 8) y, 9) 0) a) b) c) d) e) f) g) h) i) j) k) l) m) n) o) p) q) r) s) t) 4- -' u) m> v) w) x) y) z) A) B) C) l' D) E) F) G) H) I) J) K) L) M) N) O) P) Q) R) Z> S) y. T) U) V) >, D) W) X) Y) Z) r, Q; `)  ! .! +! +> @! #! $! %! &! *! =! -! ;! >! ,! '! )! !! ~! {! ]! ^! /! (! _! D# :! :! <! [! s# m$ }! I@ |! 1! 2! .' 3! 4! 5! 6! 7! 7! 8! 9! 0! a! b! c! _! d! B' e!  ' f! g! h! i!                                                                                                                                                                                                                                                                   ",
"                                                                                                                                                                                                                                                   B* !  N@ *. j! k! l! m! n! o! p! q! r! s! t! u! v! w! x! y! z! A! B! C! i> D! k, E! F! G! P$ b' H! I! J! K! L! F' {) M! ,, N! &, O! =& E) P! Q! z% R! S! T! U! V! W! X! Y! Z! `! l= `>  ~ .~ +~ A% @~ #~ 2. $~ %~ &~ *~ =~ -~ ;~ >~ d! ,~ T, '~ )~ !~ ~~ {~ ]~ ^~ /~ (~ _~ :~ <~ [~ }~ |~ 1~ 2~ 3~ 4~ 5~ 6~ #~ 7~ 8~ 9~ d@ 0~ K@ a~ b~ c~ d~ e~ f~ g~ C, h~ != i~ j~ k~ l~ m~ n~ o~ 8) 8) p~ q~ r~ f! s~ n$ t~ u~                                                                                                                                                                                                                                                                ",
"                                                                                                                                                                                                                                                   *+ l  l  s, v~ w~ x~ y~ _! z~ A~ B~ C~ D~ E~ F~ G~ H~ I~ J~ K~ L~ i> l, M~ _@ N~ O~ P~ Q~ R~ }* S~ C; T~ U~ V~ W~ X~ +> Y~ Z~  ' `~ Y;  { .{ +{ @{ #{ ${ %{ &{ *{ ={ -{ ;{ >{ ,{ '{ L* $' ){ !{ #' -, q> ~{ O  {{ ]{ ^{ /{ ({ _{ _{ :{ <{ :{ [{ }{ |{ 1{ 2{ 3{ 4{ 5{ 6{ 7{ 8{ 9{ 0{ a{ b{ c{ B, d{ 5~ h' e{ f{ `~ g{ h{ ,@ f+ i{ j{ k{ l{ m{ n{ o{ p{ q{ r{ s{ t{ u{ v{ w{ x{ y{ z{ A{ B{ d! C{ D{ E{ F{ j{ G{ H{                                                                                                                                                                                                                                                                ",
"                                                                                                                                                                                                                                                   &+ :  f+ I{ )$ D' J{ j. $* K{ L{ M{ N{ O{ P{ P{ Q{ R{ S{ T{ U{ V{ W{ W{ X{ D! Y{ Z{ `{ ;=  ] .] +] @] #] $] `; N. %] &] *] =] *- -] ;] >] ,] '] )] !] ~] {] ]] ^] /] (] _] :] <] X& -% t& [] }] |] *- 1] 2] ;, 3] 4] o> 3- 5] 6] 7] 8] 9] 0] a] b] c] d] e] f] g] h] i] j] k] l] m] n] o] c% N+ C' p] q] Y; f{ ~{ 6, r] f+ F+ 6& s] t] u] v] w] x] y] z] A] B] C] D] E] F] G] H] I] J] K] L] A) M] N] O] P] Q] R] S] T] U] V]                                                                                                                                                                                                                                                    ",
"                                                                                                                                                                                                                                                   2  <  g  W] X] u& *' Y] Z] `] =@  ^  ^ .^ +^ @^ #^ $^ $^ %^ &^ *^ M* P= =^ -^ -^ ;^ >^ ,^ '^ t] )^ !^ ~^ {^ ]^ ^^ /^ (^ _^ :^ 2] 2] <^ [^ }^ |^ 1^ 2^ 3^ 4^ 5^ 6^ 7^ 8^ 9^ 0^ a^ b^ c^ 1, d^ *; d^ =- O= 1] ^^ e^ f^ 2* g^ h^ i^ 3& j^ k^ l^ m^ n^ o^ p^ q^ r^ s^ t^ u^ v^ w^ x^ y^ z^ A^ m, 5> B^ h= ]% C^ ~{ ~{ 6, D^ :  !  E^ v~ F^ G^ H^ n% I^ J^ K^ L^ M^ N^ O^ P^ Q^ R^ S^ T^ U^ V^ W^ X^ B' :{ Y^ Z^ Y, `^  / k  ;  ./ D*                                                                                                                                                                                                                                                 ",
"                                                                                                                                                                                                                                                   *+  + += +/ 6; e= @/ #/ F@ -@ $/ %/ &/ */ =/ -/ ;/ >/ ,/ '/ )/ !/ N. [] ~/ {/ ]/ ^/ // (/ _/ t] :/ </ [/ }/ |/ -] 1/ H! 2/ 3/ 4/ 5/ 6/ 7/ 8/ 9/ 0/ a/ b/ c/ d/ e/ f/ g/ h/ i/ j/ k/ l/ m/ n/ .' +' o/ *- =- '= 6; p/ ;) 4; ^{ q/ r/ s/ t/ u/ v/ w/ x/ y/ z/ A/ B/ C/ D/ E/ F/ G/ H/ I/ J/ -^ M~ K/ &' L/ *, M/ G! N/ O/ G  G  P/ 6' Q/ R/ S/ T/ U/ V/ W/ X/ Y/ Z/ `/  ( .( +( @( #( $( %( &( *( =( -( ;( =% 7' >( ,( H+ '( V] D*                                                                                                                                                                                                                                                 ",
"                                                                                                                                                                                                                                                   W; ,$ )( !( #~ ~( `~ {( D) ]( ^( /( (( _( :( <( [( }( |( 1( 2( 3( 4( 5( 6( 7( 8( 9( 0( a( b( c( d( e( f( g( h( i( j( k( l( m( n( o( p( q( r( s( t( u( v( w( x( y( y( z( A( B( C( D( E( F( G( H( j^ f= u& u& I( @* J( K( L( e% M( N( O( P( Q( R( S( T( U( V( W( X( Y( Z( `(  _ ._ +_ @_ #_ |& $_ %_ n^ a- =- &_ *_ =_ -_ ;_ M  >_ ,_ S) '_ )_ !_ ~_ {_ ]_ ^_ /_ (_ __ :_ <_ [_ }_ |_ 1_ 2_ 3_ 4_ 5_ 6_ 7_ Y] '= 8_ 9_ 0~ 3  0_ @+                                                                                                                                                                                                                                                 ",
"                                                                                                                                                                                                                                                   9@ a_ b_ c_ W) f{ && 3! d_ e_ f_ g_ h_ g, i_ j_ k_ l_ m_ n_ o_ p_ q_ r_ s_ *& ~( t_ 0, A) u_ v_ d( e( w_ x_ y_ z_ A_ 0% B_ C_ D_ E_ F_ G_ H_ I_ J_ K_ L_ M_ N_ O_ O_ P_ Q_ R_ S_ T_ U_ V_ W_ X_ Y_ @- Z_ `_ C^ >=  : .: w~ +: @: #: $: %: &: *: =: -: ;: >: ,: ': ): !: ~: {: ]: e- ^: /: (: D! _: :: :: O= 1! <: t# b  b  [: }: +~ S@ |: 1: 2: 3: b^ 4: 5: 6: 7: M_ 8: 9: 0: a: b: c: d: e: f: g: h: ]^ |] N. i: 9  L@ h  j: *                                                                                                                                                                                                                                                  ",
"                                                                                                                                                                                                                                                   p. k: l: m: n: o: p: q: r: s: t: u: v: w: x: y: z: A: B: C: D: E: F: G: H: :- *& I: J: K: L: M: N: O: P: Q: R: S: T: U: V: W: X: Y: Z: `:  < .< +< @< #< 9: $< %< &< *< =< -< ;< >< ,< '< )< !< ~< {< ]< ^< d= >= /< (< _< :< << [< }< |< 1< 2< 3< 4< 5< 6< 7< 8< 9< 0< a< b< c< d< e< f< g< h< i< n^ a- j< k< l< m< n< o< p< q< r< r< s< t< u< v< w< x< y< z< A< B< C< D< E< F< G< 5( H< I< J< K< L< M< N< O< P< r# Q< l  j  R<                                                                                                                                                                                                                                                 ",
"                                                                                                                                                                                                                                                   S< i@ T< U< l> V< W< X< Y< Z< `<  [ .[ +[ @[ #[ $[ %[ &[ *[ =[ -[ ;[ >[ ,[ '[ v. )[ ![ ~[ {[ ][ ^[ /[ ([ _[ :[ $_ <[ [[ }[ |[ 1[ 2[ 3[ 4[ 5[ 6[ 7[ 8[ 8[ 9[ 0[ a[ b[ c[ d[ e[ f[ g[ h[ i[ j[ k[ l[ m[ n[ o[ s_ p[ q[ r[ s[ t[ u[ v[ w[ x[ y[ z[ A[ B[ C[ C[ D[ E[ F[ G[ H[ I[ J[ K[ L[ M[ N[ O[ P[ M* 0% Q[ R[ 2* o  S[ T[ U[ l' k= V[ W[ X[ ]] Y[ Z[ `[  } .} +} @} #} $} %} &} *} =} -} ;} >} ,} '} )} !} ~} {} ]} ^} /} e@ j  V] (}                                                                                                                                                                                                                                           ",
"                                                                                                                                                                                                                                                   _} d@ n$ :} M( V* <} [} }} |} 1} 2} 3} 4} 5} 6} 7} J_ 8} 9} 0} a} b} c} d} e} V[ f} g} h} i} j} k} l} m} n} o} k, p} q} r} s} t} u} v} w} x} y} z} A} B} C} D} E} F} G} H} c} I} J} K} L} M} N} O} P} Q} 4( R} v. e~ S} T} U} V} W} X} Y} Z} `}  | .| +| @| #| $| %| &| *| =| -| ;| >| ,| '| )| !| ~| P= {| ]| ^| X% /| e~ (| p[ _| :| <| [| }| || 1| 2| 3| 4| 5| 6| 7| 8| 9| 0| a| b| =@ c| d| e| f| g| h| i| j| =) a_ g% e@ 3  k| ;'                                                                                                                                                                                                                                           ",
"                                                                                                                                                                                                                                                   l| f+ )@ v* m| n| o| p| q| r| s| t| u| -' v| w| 7; x| y| z| A| B| C| D| E| F| G| H| I| 5@ J| K| L| M| N| O| P| Q| R| S| T| U| V| W| X| Y| Z| `|  1 .1 +1 @1 #1 $1 %1 &1 *1 =1 -1 ;1 >1 ,1 '1 )1 !1 ~1 {1 ]1 ^1 /1 (1 _1 :1 <1 [1 }1 |1 11 21 31 41 51 61 71 81 91 01 a1 b1 c1 d1 e1 f1 g1 h1 i1 j1 N. k1 *- l1 m1 n1 o1 e~ p1 q1 r1 s1 t1 u1 v1 w1 x1 y1 z1 A1 B1 C1 D1 E1 F1 G1 H1 I1 J1 O. K1 L1 M1 N1 O1 P1 Q1 R1 S1 T1 e@ H  U1 _}                                                                                                                                                                                                                                           ",
"                                                                                                                                                                                                                                          V1 W1 ;+ X1 Y1 F  Z1 `1  2 .2 +2 @2 #2 $2 %2 &2 *2 =2 -2 ;2 >2 ,2 '2 )2 !2 ~2 {2 ]2 ^2 /2 (2 _2 :2 <2 [2 }2 |2 12 22 32 42 52 62 72 82 92 02 a2 b2 c2 d2 e2 f2 g2 h2 i2 j2 k2 l2 m2 n2 o2 p2 q2 r2 s2 t2 u2 v2 5: w2 x2 y2 z2 A2 B2 C2 D2 E2 F2 G2 H2 I2 J2 K2 L2 M2 N2 O2 P2 Q2 R2 S2 T2 U2 V2 W2 X2 Y2 Z2 `2  3 .3 3* i% +3 @3 #3 $3 %3 &3 *3 =3 -3 ;3 >3 ,3 '3 )3 !3 ~3 {3 ]3 ^3 /3 (3 _3 :3 <3 [3 }3 |3 13 23 33 43 53 63 73 83 S. v# 93 ;                                                                                                                                                                                                                                            ",
"                                                                                                                                                                                                                                       03 _} h! ,' <  ]  a3 b3 c3 d3 e3 ;| f3 g3 h3 p1 q[ i3 j3 k3 l3 m3 n3 o3 p3 q3 L: 0- r3 s3 t3 u3 v3 w3 x3 y3 z3 A3 B3 C3 D3 E3 F3 G3 H3 I3 J3 K3 L3 M3 N3 O3 P3 Q3 R3 S3 T3 U3 V3 W3 X3 Y3 Z3 `3 ;:  4 .4 +4 e| @4 #4 #4 $4 %4 b} &4 *4 =4 -4 ;4 >4 ,4 '4 )4 !4 ~4 {4 ]4 ^4 /4 (4 _4 :4 <4 [4 }4 |4 14 24 D) 3] ][ 34 44 54 3! 64 .' f~ 74 84 94 04 a4 b4 c4 d4 e4 f4 g4 h4 i4 j4 k4 l4 m4 n4 o4 p4 q4 r4 s4 8, t4 6= u4 v4 w4 x4 y4 z4 A4 B4 Y1 C4                                                                                                                                                                                                                                           ",
"                                                                                                                                                                                                                                       D4 ;  E4 /# F4 G4 H4 I4 J4 K4 L4 d{ M4 N4 O4 P4 Q4 R4 S4 T4 U4 V4 }| W4 X4 Y4 Z4 `4  5 .5 +5 @5 #5 $5 %5 e{ &5 *5 =5 -5 ;5 >5 ,5 '5 )5 !5 ~5 {5 ]5 ^5 /5 (5 _5 :5 <5 [5 }5 |5 15 25 35 45 55 65 75 85 95 05 e| ]@ a5 b5 c5 d5 e5 f5 g5 h5 i5 j5 k5 l5 m5 n5 o5 p5 q5 r5 s5 t5 u5 v5 w5 x5 y5 z5 A5 B5 C5 D5 E5 F5 G5 H5 3! 3! d_ I5 J5 K5 L5 M5 N5 O5 P5 Q5 R5 S5 T5 U5 V5 W5 X5 Y5 Z5 `5  6 .6 +6 @6 #6 $6 %6 x| &6 *6 =6 -6 ;6 >6 ,6 x) '6 )6 ,'                                                                                                                                                                                                                                           ",
"                                                                                                                                                                                                                                       !6 ~6 T. !  {6 -& ]6 ^6 /6 (6 _6 :6 <6 [6 }6 |6 16 26 C] S^ 36 46 56 66 76 86 96 06 a6 b6 c6 d6 e6 f6 g6 M/ h6 i6 j6 k6 l6 m6 n6 o6 p6 q6 r6 s6 t6 u6 v6 w6 x6 y6 z6 A6 B6 C6 D6 E6 F6 G6 H6 I6 J6 K6 L6 M6 N6 O6 P6 Q6 R6 S6 T6 U6 V6 W6 X6 Y6 Z6 `6  7 .7 +7 @7 #7 $7 %7 &7 *7 =7 -7 ;7 >7 ,7 '7 )7 !7 ~7 {7 p, ]7 ^7 Z] =@ /7 (7 _7 :7 <7 [7 }7 |7 17 27 37 47 57 67 77 87 97 07 a7 b7 c7 d7 e7 f7 g7 h7 i7 j7 k7 l7 m7 |/ n7 o7 p7 q7 r7 s7 l  k  j                                                                                                                                                                                                                                      ",
"                                                                                                                                                                                                                                       t7 3  !  u7 v7 w7 m- x7 |@ y7 z7 =% A7 B7 C7 D7 E7 F7 G7 H7 I7 J7 K7 L7 M7 N7 O7 P7 Q7 !| R7 S7 T7 U7 V7 W7 X7 Y7 Z7 `7  8 .8 +8 @8 #8 $8 %8 &8 *8 =8 B6 -8 ;8 >8 ,8 '8 )8 !8 ~8 {8 ]8 ^8 /8 (8 _8 :8 <8 [8 }8 |8 18 28 38 48 58 68 78 88 98 08 a8 b8 c8 d8 e8 f8 g8 h8 i8 j8 k8 l8 m8 n8 o8 p8 q8 r8 s8 t8 u8 *= v8 ^> 24 w8 x8 y8 z8 A8 B8 C8 D8 E8 F8 G8 H8 I8 J8 K8 L8 M8 N8 O8 P8 Q8 R8 S8 T8 U8 V8 W8 X8 Y8 Z8 l^ `8  9 .9 24 >~ +9 (@ @9 U. l  l  1                                                                                                                                                                                                                                   ",
"                                                                                                                                                                                                                                       #9 3  k  :  $9 h' H) %9 Q+ e> N' ') K1 >^ &9 *9 =9 -9 ;9 >9 ,9 56 '9 )9 !9 ~9 {9 ]9 a6 ^9 /9 (9 _9 :9 <9 [9 }9 |9 19 29 39 49 59 69 79 89 99 09 a9 b9 c9 d9 e9 f9 g9 h9 i9 !8 j9 k9 l9 m9 n9 o9 p9 q9 r9 s9 t9 u9 v9 w9 x9 y9 z9 A9 B9 C9 D9 E9 F9 G9 H9 I9 J9 K9 L9 M9 N9 O9 P9 Q9 R9 S9 T9 U9 V9 W9 X9 Y9 Z9 L1 `9  0 C) .0 +0 @0 #0 $0 %0 &0 *0 =0 -0 ;0 >0 ,0 '0 )0 !0 ~0 {0 ]0 ^0 /0 (0 _0 :0 <0 [0 }0 |0 10 20 30 40 9& 9& Z] 50 x. 60 70 N@ N@ N@ l|                                                                                                                                                                                                                                  ",
"                                                                                                                                                                                                                                       80 T. !  l  90 t; y= 00 e! a0 b0 c0 d0 e0 f0 g0 h0 i0 j0 k0 l0 m0 n0 o0 p0 q0 r0 s0 t0 u0 v0 w0 x0 y0 z0 A0 B0 C0 D0 E0 F0 G0 H0 I0 J0 K0 L0 M0 N0 O0 P0 Q0 R0 S0 T0 U0 V0 W0 X0 Y0 Z0 `0  a .a +a @a #a $a %a &a *a =a -a ;a >a ,a 'a )a !a ~a {a ]a ^a /a (a _a :a <a [a }a |a 1a 2a 3a 4a 5a 6a 7a 8a 9a 0a aa 6, ba ca da ea fa ga ha ia ja ka la ma na oa pa qa ra sa ta ua va wa xa ya za Aa Ba Ca Da Ea Fa Ga Ha Ia Ja d_ M/ Ka La Ma Na Oa  / /# Pa                                                                                                                                                                                                                                  ",
"                                                                                                                                                                                                                                       Qa h! :  <  Ra Sa T@ Ta -@ Ua Va l@ Wa Xa Ya Za `a  b .b +b @b #b $b %b &b *b =b -b ;b >b ,b 'b )b !b ~b {b ]b ^b /b (b _b :b <b [b }b |b 1b 2b 3b 4b 5b 6b 7b 8b 9b 0b ab bb cb db eb fb gb hb ib jb kb ^% lb mb nb ob pb qb rb sb tb ub vb wb xb yb zb Ab Bb Cb Db Eb Fb Gb Hb Ib Jb Kb Lb Mb Nb Ob Pb Qb Rb Sb k= Tb Ub J. Vb Wb Xb Yb Zb `b  c .c +c @c #c $c %c &c *c =c -c ;c >c ,c 'c )c !c ~c {c ]c ^c /c (c _c :c <c [c =, }c |c 1c 2c 9_ 3c /# 4c                                                                                                                                                                                                                                  ",
"                                                                                                                                                                                                                                       5c j  [  8@ 6c 7c V$ 8c 9c 0c ac bc cc dc ec fc gc hc ic jc kc lc $b mc nc oc pc qc rc sc tc uc vc wc xc Q, yc zc W4 Ac Bc Cc Dc [b F6 Ec Fc Gc Hc Ic Jc Kc Lc Mc Nc Oc Pc Qc Rc Sc ]8 Tc Uc Vc -: Wc Xc Yc Zc `c  d .d +d @d #d $d %d &d *d =d -d ;d >d ,d 'd )d !d ~d {d ]d ^d /d (d _d :d <d [d }d |d 1d 2d V[ V[ 3d 4d q@ 5d 6d 7d 8d 9d 0d ad bd cd dd ed fd gd hd id jd kd ld md nd od pd qd rd sd td ud vd wd e& xd yd zd <- Ad Bd Cd Dd Ed Fd Gd 3                                                                                                                                                                                                                                   ",
"                                                                                                                                                                                                                                       j+ ++ )   + Hd Id $* Jd Kd Ld Md Nd Od Pd Qd Rd Sd Td Ud Vd Wd $b Vd Xd Yd G] Zd `d  e .e +e @e #e $e %e &e *e =e 8^ -e ;e :b >e ,e 'e l9 )e !e ~e {e ]e ^e /e (e _e :e <e [e }e |e 1e 2e 3e 4e 5e 6e 7e X_ 8e 9e 0e ae be ce de ee fe ge he ie je ke le me ne oe pe qe re (a se te ue ve we xe ye ze Ae Be Ce 7- De Ee Fe Ge He Ie Je Ke Le Me Ne Oe Pe Qe Re Se Te Ue Ve We Xe Ye Ze `e  f .f +f @f #f $f %f &f *f =f -f ;f >f ,f 'f )f N< !f ;@ ~f {f )                                                                                                                                                                                                                                   ",
"                                                                                                                                                                                                                                       *  3  k  :  ]f ^f /f (f _f :f <f [f }f |f 1f 2f 3f 4f 5f 6f Wd $b 7f 8f 9f 0f af bf cf df ef ff 3f gf hf if jf kf lf mf nf of pf qf ,e q6 rf sf tf uf vf wf xf yf zf Af Bf Cf Df Ef [b Ff Gf Hf If Jf Kf Lf Mf Nf  d Of Pf Qf Rf Sf Tf Uf Vf Wf Xf Yf Zf `f  g .g +g @g #g $g %g &g *g =g -g ;g >g ,g 'g )g !g ~g {g ]g ^g /g (g _g :g <g [g }g |g 1g 2g 3g 4g 5g 6g 7g 8g 9g 0g ag bg cg `e dg eg fg gg hg ig jg kg lg mg ng og pg qg `; ^^ Sb l' rg l+ sg                                                                                                                                                                                                                                  ",
"                                                                                                                                                                                                                                       D* T. N@ !  tg @3 k' ug vg wg xg yg r^ zg Ag Bg Cg Dg 5f Eg Fg Gg Hg Ig Jg Kg Lg Mg Ng Og Pg Qg Rg Sg Tg Ug Vg Wg Xg Yg Zg Cc `g  h .h +h @h #h $h %h &h *h =h -h ;h >h ,h 'h )h !h ~h {h ]h ^h <@ /h (h _h :h <h 7^ [h }h |h 1h 2h 3h 4h 5h 6h 7h 8h 9h 0h ah bh ch dh eh fh gh hh ih jh kh lh mh nh oh :@ ph 2> 6: qh rh sh th uh vh wh xh yh zh Ah Bh Ch Dh Eh Fh Gh Hh Ih Jh Kh Lh Mh Nh Oh Ph Qh Rh Sh Th Uh Vh Wh Xh Yh Zh `h  i P= ~| .i Sb +3 +i z*                                                                                                                                                                                                                                  ",
"                                                                                                                                                                                                                                       j+ p. H  }  @i #i $i %i &i wg *i =i R! -i ;i >i ,i 'i )i !i ~i {i ]i ^i /i (i _i :i <i [i }i |i 7| 1i 2i P_ 3i 4i 5i 6i g1 7i 8i Ff 9i 0i ai bi ci di ei fi gi hi ii ji ki li mi ni ~h oi pi qi ri si ti ui vi wi xi yi zi Ai Bi Ci Di Ei Fi Gi Hi Ii Ji Ki Li Mi Ni Oi Pi Qi Ri Si Ti Ui Vi Wi Xi Yi Zi `i  j .j [9 +j @j #j $j %j &j *j =j -j ;j >j ,j 'j )j !j ~j {j ]j ^j /j (j _j :j <j [j }j |j 1j 2j 3j 4j 5j 6j 7j 8j ]{ 9j 0j aj bj .' #i cj +i z*                                                                                                                                                                                                                                  ",
"                                                                                                                                                                                                                                       (# $, )  |  dj 6, 64 ej fj gj hj ij jj kj lj mj nj oj pj qj rj sj tj uj vj wj xj yj zj Aj Bj Cj 6| Dj Ej Fj Gj Hj Ij Jj Kj Lj Mj Nj Oj Pj Qj Rj Sj Tj Uj Vj Wj Xj Yj Zj `j  k .k +k @k #k $k %k &k *k =k 05 -k ;k >k ,k 'k )k !k ~k {k ]k ^k /k (k _k :k <k [k }k |k 1k 2k 3k 4k 5k 6k 7k 8k 9k 0k ak bk ck dk Ua F@ ek fk gk hk ik jk kk lk mk nk ok ma pk qk rk sk tk uk vk wk xk yk zk Ak Bk Ck Dk Ek Fk Gk Hk Ik Jk Kk Lk Mk Nk Ok E) -] %2 6, Pk Qk i+ Rk Sk                                                                                                                                                                                                                            ",
"                                                                                                                                                                                                                                 Tk j  =+ H  !  )  Uk && b: Vk Wk Xk Yk Zk `@ y. `k  l .l +l @l #l $l %l &l *l =l -l ;l >l ,l Aj 'l )l Rg !l ~l 7- {l ]l ^l /l (l _l :l <l [l }l $8 |l ~5 1l 2l 3l 4l 5l 6l 7l 8l 9l 0l 8i al bl cl dl el fl gl c^ hl il jl kl ll ml nl ol pl ql rl sl tl ul vl wl xl yl zl Al Bl Cl Dl El Fl Gl Hl Il Jl Kl Ll Ml Nl -@ Ol Pl Ql Rl Sl Tl Ul Vl Wl Xl Yl Zl `l  m .m +m @m #m $m %m &m *m =m -m ;m >m ,m 'm )m !m ~m {m ]m ^m /m (m _m *) :m s$ O= &, M/ S[ <m 3  sg l| [m                                                                                                                                                                                                                         ",
"                                                                                                                                                                                                                                 h! 3  3  Gd f+ :  }m |m r~ 1m 2m 3m 4m 5m V$ 6m 7m 8m 9m 0m am bm `d cm *l dm em fm gm hm im ^9 jm km lm mm nm #3 om pm `' qm rm sm tm um vm 35 wm 89 xm ym zm Am Bm Cm Dm Em Fm Gm Hm Im Jm Km Lm Mm Nm Om Pm 4= Qm Rm Sm Tm Um Vm Wm Xm Ym Zm `m  n .n +n @n #n $n %n &n *n =n -n ;n >n ,n 'n )n !n ~n {n ]n ^n /n (n _n :n <n [n }n |n 1n 2n 3n 4n 5n 6n 7n 8n 9n 0n an bn cn dn en fn gn hn in jn kn ln mn nn on pn qn rn sn tn un vn wn  > -] M/ ~{ xn yn zn j  ~6 B*                                                                                                                                                                                                                         ",
"                                                                                                                                                                                                                                 e@ k  k  )@ f+ }. An Bn C% Cn Dn 6| En Fn Gn Hn In Jn Kn Ln u= Mn Nn On Pn Qn Rn Sn Tn Un Vn d_ Wn Xn Yn Zn `n 2=  o .o +o @o #o $o %o &o *o =o -o 9i ;o >o ,o 'o )o !o ~o {o [b qf ]o ^o /o (o _o :o <o [o }o |o }* 1o 2o 3o 4o 5o 6o 7o 8o 9o 0o ao bo co do eo fo go ho io jo ko lo mo no oo po qo ro so to uo vo p[ D) wo xo yo zo Ao Bo Co Do Eo Fo Go Ho Io Jo Ko Lo Mo No Oo Po Qo Ro So To Uo Vo Wo Xo Yo Zo `o  p .p +p @p #p m+ $p %p j( W> ~( &p *p L@ =p ~6 ;+                                                                                                                                                                                                                         ",
"                                                                                                                                                                                                                        D* 2  -p f+ h  T$ ;p !  }  m+ Y% ^7 >p ,p 'p )p !p ~p D) {p ]p }@ ^p /p (p _p s8 :p <p [p }p s$ M* |p 1p 2p 3p 4p 5p 6p 7p  , G! 8p 9p 0p 4_ ap bp cp dp ep fp Oj #8 gp 69 hp ip jp kp @k lp mp np op pp qp rp sp tp %& up }2 vp wp xp yp zp Ap Bp Cp Dp Ep Fp Gp Hp Ip Jp Kp Lp Mp bo Np Op Pp Qp Rp Sp Tp Up Vp Wp Xp Yp Sb X> -} Zp `p n[  q .q +q @q #q $q %q &q *q =q -q ;q >q ,q 'q )q !q ~q {q ]q ^q /q (q _q :q <q [q }q 8- Hn @~ I( D' |q 1q :} 2q 3q %2 4q 5q 6q k  k  7q                                                                                                                                                                                                                         ",
"                                                                                                                                                                                                                     @  z* ,  |  g  H= k  H  !  }  8q 9q 0q aq bq cq dq eq fq gq hq iq jq kq lq mq nq oq pq qq rq sq tq 9& uq ~( c+ vq wq xq yq zq Aq /% Bq Cq Dq Eq Fq Gq Hq Iq Jq Kq Lq Mq Nq 69 I0 Oq Pq Qq Rq Sq Tq Uq Vq Wq Xq Yq X_ Zq `q `q  r .r +r @r #r $r %r &r *r =r -r ;r >r ,r 'r )r !r ~r {r ]r ^r /r (r _r :r <r [r }r |r 1r K{ uq 3! q[ Ol v. ui 2r 3r 4r 5r O} 6r 7r 8r 9r 0r ar br cr dr er fr gr hr ir jr kr 4n lr mr nr or pr qr rr sr tr =- ur vr wr m> :/ r, 3q q> xr G= yr N@ 3  7q                                                                                                                                                                                                                         ",
"                                                                                                                                                                                                                     zr 0@ I  j   + ,@ N@ H  H  !  Ar Br 0q Cr Dr Er Fr Gr Hr Ir Jr Kr Lr Mr Nr Or Or Pr |} Qr Rr Sr Tr Ur Vr Wr Xr Yr Zr `r  s 4( .s $a +s @s #s $s %s &s *s =s -s ;s >s ,s oi 's )s !s ~s {s ]s ^s /s (s _s :s <s [s 3, }s @: M( |s 1s +r 2s 3s 4s 5s 6s 7s 8s 9s 0s as bs cs ds es fs gs hs is js ks ls ms ns os ps qs rs ss j% ts 24 k% j% us !$ vs ws xs ys zs As Bs Cs Ds Es Fs Gs Hs Is Js Ks Ks Ls Ms Ns Os Ps Qs Rs Ss Ts Us Vs T@ P! Ws Xs Ys Zs `s  t .t +t @t *, #t $t f+ l  0_                                                                                                                                                                                                                         ",
"                                                                                                                                                                                                                     %t 1  ,  [  [: s# g  3  3  k  W, {{ `h &t *t =t -t ;t >t ,t 't )t !t ~t {t ]t ]t ^t /t (t _t :t bj <t [t }t |t 1t 2t 3t l> V= V* Y_ 4t 5t 6t 7t 8t 9t 0t at bt '5 ct dt Rq et ft gt ht it jt kt lt mt nt ot pt k^ qt L1 3, @: rt st *- |] tt ut vt wt xt yt zt At Bt Ct 81 Dt Et Ft Gt Ht u5 It Jt Kt Lt Mt Nt Ot Pt +0 Qt /* Rt St Tt Ut Vt Wt Xt Yt Zt `t  u .u +u @u #u $u %u &u *u =u -u ;u >u ,u 'u )u !u ~u {u ]u ^u /u (u _u :u 24 <u [u }u |u 1u o^ 2u K{ C% 6; ., 3u 4u 5u 6u                                                                                                                                                                                                                         ",
"                                                                                                                                                                                                                     #  l| I  :  /} 9_ 7u ++ ++ ++ E^ 8u 9u 0u 2, au bu cu qq du eu fu A0 *& gu hu hu iu ju ju ku Gn  ! lu mu 0f nu ou pu qu 2, ru ~% X_ u| ~g 8, su tu uu vu wu xu yu zu Au Bu Cu Du Eu Fu Gu Hu Iu Ju Ku Lu _n R= Mu Nu Y_ Ou `q ru Pu Qu P= Ru E) M* Su Tu Uu Vu Wu Xu Yu Zu `u  v .v +v @v #v $v %v Xg &v *v =v -v ;v O= &- #* >v qu ,v 'v Wt )v `; !v e- ~v {v ]v ^v /v (v _v :v <v [v }v |v 1v 2v 3v 4v 5v 6v 7v ^m 8v 9v 0v av f~ #* d^ <u bv cv u, dv ;~ G) ev X] 3= fv |- gv hv iv                                                                                                                                                                                                                         ",
"                                                                                                                                                                                                                     jv Y. kv /} lv 9_ f+ I  |  |  .- `, mv nv ov o, pv qv rv sv tv b: uv xn E) E) E) vv wv xv yv zv Av Bv Cv Dv Ev Fv Gv 6= Hv :> Iv up +* o: #~ 3* Jv Kv Lv Mv Nv J= Ov Pv Qv b^ Rv Sv Tv Uv Vv Wv Xv Yv p1 Zv 3> `v Xs rp  w  w E= .w +w Z; Y] i. @w #w $w %w &w *w =w -w ;w >w ,w 'w )w !w ~w {w ]w ^w /w (w _w :w X] h. '= i. <w [w }w |w .~ 1w 2w *, 3w R~ 4w 5w 6w 7w 8w 9w 0w aw bw cw dw ew fw gw ig hw iw jw kw 7^ lw mw G@ nw #* K{ ow pw qw W, rw sw sw tw =% ,= uw vw ww xw yw                                                                                                                                                                                                                         ",
"                                                                                                                                                                                                      zw Aw :. _. Bw Cw Dw Ew Fw Gw `- Hw f+ I  [  Iw Jw Kw Lw Mw |o Nw Ow Pw Qw Rw Sw Tw Uw Vw +' Sb Ww Xw Yw Zw `w  x .x +x @x #x $x %x &x &x *x l% =x -x q] .j |m ;x >x ,x 'x )x !x ~x {x ]x ^x /x (x _x :x <x [x }x |x 3> ^% 1x 2x 3x 4x 5x 6x 7x 8x 9x 0x ax bx M/ cx dx ex fx gx hx ix jx kx lx mx nx ox ox px qx rx sx tx <- ux vx wx xx yx zx Ax Bx Cx I5 Dx 4* +t Ex uw Fx Gx Hx Ix Jx Kx Lx Mx Nx Ox Px Qx Rx Sx Tx Ux Vx Wx Xx Yx Zx Qt @3 `x  y .y +y qw @y o$ #y $y %y &y *y =y z| -y ;y [: ++                                                                                                                                                                                                                         ",
"                                                                                                                                                                                                   i+ '  Pa u7 (  `. >y ,y ss 'y G= )y !y ~y H  4  {y (@ 9- q7 *= ]y ^y w8 T= /y (y _y :y <y [y }y |y 1y 2y 2y 3y 4y r0 5y 6y 7y L! 8y 9y &, &' 0y $% #% ay by cy 4( 3w P* dy ey fy Iu gy hy 5_ iy jy ky ly my ny R= g= f= t4 s_ oy py qy ry sy ty uy `3 vy wy xy yy zy 1= Ay By 9} Cy Dy Ey Fy Gy Hy Iy Jy Ky Ly My Ny Oy Py j^ Qy o[ H< Ry k^ Sy Ty Uy bf Vy Wy h= p: 9' ru }2 /f .^ Xy Yy Zy wq `y  z .z +z @z #z $z %z &z *z =z -z ;z >z ,z k% :u 'z .: w) )z !z n$ ]  g  7  ~z {z G) ]z &- ^z ,' k  z*                                                                                                                                                                                                                         ",
"                                                                                                                                                                                                   sg I  }  F* /z -_ (z Aj j% 4* _z :z <z n$ N@ f  [z Y> E& }z  ] .; Q$ .0 |z 1z 2z 3z 4z 5z 6z *' 7z 8z 9z 0z az bz cz dz ez fz gz hz I( L/ &' iz R% jz D& kz lz mz nz -v |3 oz pz qz rz sz tz uz vz wz xz yz zz t4 Az Bz Cz Dz Ez Fz fj Gz Hz Iz Jz Kz Lz Mz Nz Oz Pz R~ e~ .i Qz Rz Sz Tz Uz Vz Wz Xz Yz Zz `z  A .A o[ V* Ex +A Qy -v @A #A $A %A &A *A =A -A =, ;A 7= ~% >A U= .0 N* ,A 'A )A !A ~A {A ]A ^A /A (A _A :A <A [A }A |A 1A 2A $* $* 3A w) 4A 5A 6A %# 7A 8A 8A o$ 9A :: _{ @w 0A k  I  z*                                                                                                                                                                                                                         ",
"                                                                                                                                                                                                   sg |  aA bA cA dA +3 T[ T[ eA fA gA hA V# 6q lv iA jA kA lA mA nA oA pA qA rA sA tA uA vA wA xA yA zA AA BA CA DA EA FA GA HA L! IA g{ JA KA 7_ LA |/ MA NA OA PA QA u& Nu RA SA TA UA VA WA XA YA ZA `A  B d= .B <> +B @B #B $B %B &B *B =B -B ;B >B ,B 'B )B !B ~B {B ]B |m KA ^B /B (B _B :B <B [B }B |B 1B 2B Q: @- 1; 3B 4B L= 5B 6B 7B 8B 9B 0B aB bB cB dB eB fB e= I* M= ;A gB hB iB jB kB lB mB nB oB pB qB rB sB tB uB vB wB xB yB zB AB BB CB c' DB EB FB GB HB n$ += IB JB KB J* LB k  |  #+                                                                                                                                                                                                                         ",
"                                                                                                                                                                                          &+ &+ MB 1  I  NB OB ^f /f U[ b: &' PB gA QB RB QB hA SB m  {  TB UB :% T@ VB WB XB YB q> w. i= z+ ZB `B  C .d .C +C @C #C Zs Zs $C %C &C *C B% g= t4 l' G@ 3! =C -C ;C >C ,C %= l^ K1 `q 3, }s @: 'C M( V* )C !C ~C {C ]C ^C /C (C _C :C c| w. <C k= -@ v. (n [C }C |C 1C 2C B, 3C qt Yc 4C M* aj k% 4C &5 _> 5C o, @: 6C B% X] e= 1; !C !C 7C 8C /p 9C 0C Fj aC bC cC dC Y~ eC g= 9y $= up ~C :w V[ Ur fC gC hC 75 iC jC kC lC mC nC oC pC .s 4( Br qC rC gv ., 1, sC tC H) uC vC c@ c@ wC B% @/ xC yC :  }  C*                                                                                                                                                                                                                         ",
"                                                                                                                                                                                       zC sg l| sg N@ J+ AC BC .i k' s) gq CC DC EC hA FC b_ &. m. += G  M  GC M$ 5~ HC B- XB }, IC 6- -@ JC KC LC MC NC OC PC QC RC +] SC TC UC VC WC =, X] XC %2 W) w, YC ZC `C  D .D +D @D #D V= Ou 3, $D %D &D *D =D -D ;D -= ux >D ,D 'D d& )D !D ~D ~D {D ]D ^D /D (D Kj _D :D <D [D }D |D 1D 2D =- |] K{ 3D M( %D 4D 5D 6D Y, @/ 3= e= 7D -D 8D 9D 0D aD bD cD 8z  i dD eD t> fD gD hD 8~ u& iD 1; X] p[ `] jD kD lD mD nD oD pD qD rD sD tD uD Yc %= vD wD xD gv Z% 1, sC z% yD zD AD !z /} wC  , @/ BD E% :  !  C*                                                                                                                                                                                                                         ",
"                                                                                                                                                                                       j+ ++ ;  H  CD 4t ^y DD ED FD GD HD ID JD KD LD MD ND #t >f p$ :  OD PD QD RD SD TD UD `h VD WD XD YD ZD `D  E .E +E @E #E $E 9A %E 74 &E *E =E |m @t b: -E ;E :2 >E ,E 'E )E !E ~E {E ]E ^E #i f~ 4. o7 /E (E _E :E <E [E 9y }E |E 1E 2E 3E 4E 5E 6E 7E 8E 9E 0E aE bE cE dE eE fE AA gE hE iE jE kE lE mE o, Ou nE oE pE qE rE 8~ sE tE uE vE wE xE yE zE AE BE CE DE EE FE GE HE IE JE KE LE ME NE n: av OE PE QE RE SE TE UE VE WE XE YE ZE %- %= `E  F .F +F CC G! wx @F #F $F `x  F %F nz C% H* G* &F H  j  #+                                                                                                                                                                                                                         ",
"                                                                                                                                                                                       *F ++ l| /# =F f= X] -F V) ;F >F ]p X^ ,F 'F )F !F s- ~F {F ]F :  l  )z l. ^F /F (F &~ _F :F <F [F s, }F 8  ]  g  K+ 6  |F d^ K{ j% k% k% ss #i `~ 7~ U[ 1F I) h' 2F `~ O! o: 3F 4F 5F 6F 7F Qz G@ G) G) +9 8F 9F 0F aF bF :- 2= k= Ur cF dF nu kf kf v= eF fF gF hF iF jF kF V[ lF mF nF oF pF qF J. rF sF `9 L1 tF g. U@ uF :! 8~ ') vF wF xF yF zF AF r~ BF CF DF EF FF {( GF HF IF JF KF tC ,_ 1w #i {( F@ b| :| <C Qy Ry LF MF o, ^< ~% !C u& L= JB Z] Q= 4* U[ o: `~ NF :w  ' .0 ^f OE ~v 3= u& OF PF H+ )  #+                                                                                                                                                                                                                         ",
"                                                                                                                                                                                       -p V; ++ J+ QF Dz RF SF TF UF VF WF XF YF ZF HA p< `F  G .G +G m  += l$ @G #G $G %G V> &G r, 4; [F R> *G n  m  n  6& t, n+ bj Qt d~ /* /* d~ (| :- ~( r> =G #% -G ;G >G xr ,G 'G )G !G ~G {G Qt Qt Gn (@ T@ ]G ^G Q+ /G (G f{ f{ Qt _G :G <G [G }G |G 1G 2G 3G 4G 5G 6G 7G 8G 9G 0G aG bG cG dG eG e> fG gG hG iG jG kG Y{ lG mG s) J* nG oG pG qG rG sG tG uG vG wG xG yG Xp zG AG |@ BG eD CG M$ 5. (| 3! -@ DG Dw |x EG FG GG #] HG IG JG KG LG MG NG ss OG U= G@ 3! 6, @t +- 3D &- ;, j. PG QG RG SG n< j  ++ B*                                                                                                                                                                                                                         ",
"                                                                                                                                                                                 %+ %+ TG r. e@ UG VG WG XG YG ZG `G  H .H +H @H G* a' #H $H %H %H 1! &H *H Rt 4t =H -H m7 vr Ov ;H :} m> L( >H HA xD wC ,H f- 'H )H CC IC g{ B% Az !H ~H {H ]H ^H =y /H (H _H :H <H [H }H |H 1H 8] 2H 3H 4H 5H 6H 7H 8H 9H 0H aH bH cH dH eH fH gH hH iH jH kH lH mH nH oH pH qH rH sH tH uH vH wH xH yH -^ z' zH AH BH CH DH EH FH GH HH IH JH KH LH MH NH Ex OH PH QH RH SH TH UH VH WH XH YH g' ZH #) 4. l' 4* `H  I .I +I @I #I $I %I &I *I =I -I ;I >I ,I 'I )I !I ~I $* ,y 9' {I ]I o/ -, ^I /I /I (I _I :I <I [I                                                                                                                                                                                                                            ",
"                                                                                                                                                                              }I 1  D+ ;p |I 3c 1I 2I 3I 4I 5I 6I 7I 8I 9I w, 1. W& W& 0I M  }  !  5q Y; aI xn bI cI e^ Tt 7= dI eI fI /F gI e% hI iI jI T[ CC Bn %= $= ux >= 1; `_ kI ;| t> ;| lI 2. IC mI nI oI pI qI fG Q+ rI sI tI uI vI wI xI yI 1= zI AI BI CI DI EI FI GI HI II q_ q_ JI KI LI 5: }C A0 MI NI OI PI QI RI SI TI 0( i> +> UI VI  D WI XI {% ^< &5 YI ZI `I  J .J +J @J Y_ #J $J %J &J *J =J -J ;J >J F@ -} k= d_ 1p #i @w @~ ,J Xv 'J )J !J || ~J {J vy ]J ^J /J (J _J :J <J %D [J ,_ l- }J |J Mw 1J '= *y 2J 3J f+ l  H+ 4J                                                                                                                                                                                                                                  ",
"                                                                                                                                                                              h! |  =p 5J RB }! 6J 7J 8J 9J 0J =e g0 aJ bJ ^1 cJ -H ^> dJ M  }  I  yC cJ 4C I( C% ur ~v eJ 8y fJ gJ $C /F hI 3& hJ iJ *H 6, ~{ B% @* d= L= K1 %& Ex jJ kJ N+ &* lJ mJ by [$ nJ oJ pJ qJ rJ m@ sJ tJ uJ vJ wJ xJ yJ zJ =E J* AJ BJ T+ CJ DJ 3z EJ FJ GJ ,^ 7= HJ IJ JJ KJ LJ Dz MJ NJ OJ PJ QJ ~g D) mG kJ RJ j> SJ TJ TJ UJ VJ X_ V= V* V= WJ XJ YJ ZJ `J  K )C .K +K @K #K $K %K &K *K =K d~ uq &E -K ;K >K ,K 'K )K !K ~K {K ]K ^K /K (K _K :K <K [K }K |K 1K 2K 3K 4K L$ R% 5K 6K b' 7K 8K @w zG 9K 7u H  k  0K                                                                                                                                                                                                                                  ",
"                                                                                                                                                                              S< 3  T$ B; aK WC bK 1z cK dK eK fK gK hK iK -% jK kK kK lK B4 k  I  &_ uv mK L/ =, =, 5; 8y b= nK oK 2q $C pK A_ qK rK sK tK ss &2 $= @* $= >= L= >= uK vK wK xK yK zK AK BK CK DK EK FK GK HK IK JK KK LK MK NK OK PK QK RK SK TK UK VK WK XK YK ZK .~ G- %_ `K  L .L +L u$ @L #L $L %L &L *L =L -L ;L e1 >L y, ,L 'L )L !L ~L ru &5 *= {L B& ]L ^L /L (L _L ~g :L <L mj [L }L |L 1L 2L 3L X{ 4L 5L 6L 7L 8L 9L 0L 5K aL bL cL bL dL eL fL gL hL iL jL kL lL mL nL AK oL pL qL rL sL tL 74 uL vL wL xL yL h! p. zL                                                                                                                                                                                                                                  ",
"                                                                                                                                                                              3  }  )  C; vw b' B& AL BL 1@ W$ CL DL EL FL ,f GL a= HL IL )@ k  I  z& I( X) 1. QG =% W& 0q 4] 9' &G &C wD JL  ! '= o/ :u *; d^ /* @- %= %= 5( ]1 C^ &, 4* q[ /f KL LL XF ML p: =, NL Q@ Ou ~% OL PL QL RL SL TL ') UL VL WL XL YL Y$ ZL `L b^ _h  M .M +M @M #M $M %M &M C, *M =M -M ;M >M ,M )g Q+ 'M 4~ #% )M !M ~M BG {M ]M ^M /M c^ c^ (M _M :M <M [M }M 7, t) |M 1M 2M 3M ^E 6- l' 4M 5M Y{ 6M 7M 8M 9M 0M aM bM cM dM eM fM gM hM iM jM kM lM mM nM oM pM qM rM sM +; V* Pz >~ 50 tM ^y D% #H uM Gd 93 C4 vM                                                                                                                                                                                                                                  ",
"                                                                                                                                                                              3  !  !  `s AB wM xM yM 1@ U) Sa zM AM BM CM DM TD >@ t# EM )@ k  j  FM *, X) v, ur GM HM H! IM JM KM IH LM MM tr h. i. *; mw 0& tM NM OM PM QM RM SM TM ^9 /f z| UM VM WM XM 8~ 6; 1, YM 7D 2; ZM `M  N .N +N zq @N #N $N %N &N *N =N -N ;N >N ,N 'N )N !N ~N {N ]N ^N /N (N _N :N <N [N }N vv |N 1N 2N G- 3@ 3N 4N 5N 6N 7N 8N 9N 0N aN bN cN dN eN fN gN hN iN jN kN lN mN nN oN #* &; pN *( iq qN rN sN tN uN vN wN xN yN zN AN BN CN DN EN FN GN HN IN JN KN LN MN NN ON =5 e< <& wp u0 PN >v QN ,( 7u H+ C4 RN                                                                                                                                                                                                                                  ",
"                                                                                                                                                                              ;  k  H  SN *y Z; TN UN hD +- VN WN XN YN ZN )^ *~ `N 5& HL  O k  j  .O +O @O ;1 #O %H QB l$ $O J| %O  ! :& _{ G! mK ~( d~ 0& Qt &O *O =O -O ;O >O ,O 7. ^y o[ 'O )O !O ~O {O (> ]O .; df *y TN ^O /O (O _O J* w, :O <O [O }O |O 1O 2O 3O jz 4O m, 5O 6O 7O 8O 9O 0O aO bO cO dO eO fO gO hO iO =- Qu *y :- JA `~ jO kO lO mO nO L$ oO pO qO rO sO tO uO vO wO xO yO zO AO BO CO DO EO FO GO HO IO JO KO LO MO NO OO PO QO RO SO TO UO VO WO XO YO XO ZO `O  P .P +P @P #P $P W$ %P &P *P =P }m -P ;P )@ H  k  j  >P                                                                                                                                                                                                                                  ",
"                                                                                                                                                                              ,P H  N@ 'P U= ev i. B% Q* R} e= !C 3B vr )P !P @] .= ~P >@ 93 k  )  {P 7z ]P ^P b~ yr %H gA /P u* <& L* s$ N= (P NF KA :O OE uq _P 'M -^ 0, t> W$ W$ :P >v 4( <P [P }P |P 1P 2P +; l> sL <& 3P x. #% 4P 5P 6P d_ 7P 8P 9P 0P aP bP cP @- dP K[ b% eP k3 fP gP hP iP jP kP lP mP nP oP pP qP rP Ru l( w8 9y sP tP uP vP wP xP yP tC zP AP BP CP DP St V= EP FP GP HP IP #/ Y] 8K 4P 1F JP KP LP MP NP OP PP QP RP SP TP UP VP WP XP YP ZP `P  Q .Q +Q @Q #Q $Q /f %Q |C &Q *Q =Q -Q ;Q >Q V& 2) LB ,Q Gd 3  k  ++ >P                                                                                                                                                                                                                                  ",
"                                                                                                                                                                     'Q )Q !Q ~Q {Q ]Q ^Q /Q (Q NG xr q> _Q :Q <Q [Q }Q |Q 1Q 2Q 3Q Y- 4Q )@ =p =p 5Q #H 6Q 7Q a= `N hA 8Q 9Q P> 0Q O= <& aQ bQ f= :w 64 .i Sb cQ dQ eQ eQ fQ gQ hQ iQ AB cy 7z jQ kQ lQ mQ `h &G {@ nQ oQ (% pQ 63 N! qQ rQ sQ tQ uQ vQ wQ xQ yQ zQ AQ BQ CQ DQ EQ FQ GQ HQ IQ JQ KQ LQ MQ NQ OQ PQ QQ RQ SQ tq _G TQ UQ VQ WQ XQ YQ ZQ `Q  R .R +R @R #R $R %R &R ;( *R =R -R ;R >R &- '= 7_ ,R 'R )R !R ~R {R ]R ^R yN /R (R _R :R <R [R }R |R 1R 2R 3R 4R 5R 6R 7R 8R 9R 0R aR A# bR l@ cR dR eR fR yr gR LB ,Q )@ 3  ++ ++ hR                                                                                                                                                                                                                                  ",
"                                                                                                                                                                  iR jR h! kR K{ {( @3 j% lR mR  ' 0& ^f nR oR pR qR rR }: )v q7 ;A hD sR tR |  k  ~y p$ uR ]F RB `N hA >H vR wR (% +~ xR yR xM =' `_ q] .0 zR ts 0& -, AR BR CR DR ER FR R} @t GR HR IR JR KR UD C= LR 0, j> MR NR *' OR PR QR RR SR TR UR VR WR :: @~ XR YR ZR `R  S .S +S @S Wd #S $S %S &S *S =S -S ;S >S G) w8 ,S 'S )S !S ~S {S ]S ^S /S (S _S :S <S [S }S y= 2@ |S 1S 2S 3S 4S 1]  ! 5S 6S oG 7S 8S 9S 0S aS bS cS dS eS fS gS hS iS jS kS lS mS nS oS pS qS rS sS tS uS vS wS xS yS z' zS AS ,( >@ BS CS DS Y1 1  l| j  R<                                                                                                                                                                                                                                  ",
"                                                                                                                                                                  ./ ES ~6 FS C) GS N* 0& .; *= jI k% Z] HS IS JS KS LS MS NS OS PS cJ +O QS ++ k  d@ !F !F RS uR QB SS L( vR TS E# US S) L$ mz 7= iD VS Y] i. *; .i 3! z| WS XS YS ZS `S f{ )H  T .T +T @T #T $T %T &T *T 0, =T zQ -T ;T >T ,T 'T )T !T >= ~T #' n^ sw {T ]T ^T /T (T _T :T <T [T Wd Fg }T o0 #b |T 1T 2T 3T `> tq 4T 5T 6| 6T 7T .B 8T 9T 0T aT bT cT ts G@ E& ,_ .~ h' cJ TL 5- #. dT 2] eT fT gT hT iT jT kT yN lT mT nT oT pT qT rT sT tT uT vT wT xT yT zT AT BT CT DT OO ET FT GT /: HT IT JT c@ 6q KT LT MT t~ l| sg l| NT                                                                                                                                                                                                                                  ",
"                                                                                                                                                                  ~6 ~6 l| OT PT QT (z RT ST TT UT VT WT XT YT ZT `T  U NE .U ^I +U PG @U ,( ++ 3  G+ f( #U I{ $U %U &U ^y ~F |- *U }z =U -U ;U >U ,U Pu 'U )U >U !U ~U {U ]U ^U /U (U _U K* DD :U <U [U }U |U 1U 2U 3U 4U 5U 6U 7U ., 8U 9U 0U aU bU @- >= cU dU 8) eU fU gU hU iU jU kU lU mU nU [T oU pU %b qU rU sU tU uU vU wU xU yU zU AU BU {C CU DU EU FU GU HU aI =E IU JU KU LU MU NU OU PU QU RU SU TU UU VU WU XU fM YU ZU `U  V .V +V @V #V $V %V &V *V =V -V ;V >V ,V 'V +Q )V !V ~V {V ]V ^V y) /V (V _V :V <V [V }V |V W1 1V 2V                                                                                                                                                                                                                                     ",
"                                                                                                                                                                  _} ~6 sg !  ^} 3V 4V 5V V$ .~ 6V 7V 8V 9V 0V aV bV cV ss k% dV eV fV gV zn 3  ./ H  V# hV VD CC &2 5* cI 3= I* 8= 7= d= iV CG tC yD jV C^ :w QM kV lV mV nV oV @N pV qV V) rV sV tV uV vV Gn Ta wV xV yV zV AV BV }; CV DV EV FV GV ux ]1 8; cC N> HV IV JV KV LV MV NV OV PV nU [T QV RV Fg SV TV UV VV WV A) =Q XV YV wg ZV `V p, [;  W .W +W @W #W 4B Ex PS (| D) $W %W &W *W =W -W ;W >W ,W 'W )W !W ~W ~W {W ]W ^W /W (W _W :W <W [W }W |W 1W 2W 3W 4W 5W 6W 7W 8W 9W 0W aW bW cW dW eW fW .- 3V gW hW )@ k  T. zL                                                                                                                                                                                                                                           ",
"                                                                                                                                                                  ~6 =p l| OD iW jW kW lW 6m 2@ mW nW oW pW qW k^ Ry r> o/ *y rW k< W, R[ f+ 3  ~6 ~6 3c fR sW &p )H aI xC $= c= == == K= tW uW =G y= x, g= R} vW wW XF xW yW ]% zW AW BW V$ CW DW uV EW FW (% |z GW HW y^ y^ IW JW KW LW MW y^ NW OW =, s_ @) PW ,, QW RW SW TW UW VW WW XW YW ZW ZW [T `W Vd  X .X c} +X @X ,, #X $X %X &X *X =X ~% -X ;X >X ,X 'X )X -= iD uv d_ 1p mI !X ~X {X ]X ^X iU /X (X _X :X <X [X [X }X |X 1X 2X 3X 4X 5X 6X |W 7X 8X 9X 0X aX bX cX dX eX fX gX hX iX jX kX lX mX nX oX oX pX qX e@ 3  S< Sk                                                                                                                                                                                                                                           ",
"                                                                                                                                                                  l| '( |  rX sX tX uX vX WR '{ wX xX yX zX rQ cU .# AX BX CX dA m+ x; DX RB EX 3  ~6 ~6 H  KT FX b: 8~ e^ NL I* )$ 1; K= GX H- <2 HX IX JX =y #) KX LX BQ MX NX OX PX QX RX SX TX UX VX WX XX OS YX ZX `X  Y .Y +Y YI @Y #Y $Y %Y &Y @/ s_ *Y =Y :[ -Y ;Y >Y Q^ ,Y 'Y )Y !Y ~Y {Y ]Y ^Y /Y (Y _Y :Y <Y 0e [Y r^ I) }Y |Y 1Y 2Y 3Y Bn =, 4Y 5Y 6Y 7Y H% *= {L 8Y 9Y 0Y aY Cq bY cY dY eY fY gY hY iY jM jY kY kY lY mY nY oY pY qY rY sY tY }W uY vY wY xY yY zY AY BY CY DY EY kT ~V FY GY HY IY JY KY u; LY )  3  ./ MY                                                                                                                                                                                                                                           ",
"                                                                                                                                                                  0@ 1  1  NY OY PY CI QY r> p[ *; RY XX SY TY UY VY WY XY ;= ,^ ~F ~F a' m+ v- k  ~6 ;  l| YY ZY #i n: n: o: 6, ~{ -T e= @* &, ^1 r~ `Y  Z bc Od .Z '= s> +Z 32 @Z #Z $Z ux e^ %Z &Z *Z =Z 64 q> -Z ;Z >Z ,Z 'Z )Z &6 !Z ~Z {Z ]Z ^Z ^1 /Z (Z _Z :Z >C <Z [Z }Z |Z 1Z 2Z 3Z 4Z 5Z H} 6Z 7Z 8Z 9Z 0Z aZ bZ cZ 1@ dZ :& eZ H@ eA ^I 2] -] =U fZ gZ hZ iZ 'C {@ jZ ;6 dC kZ lZ mZ nZ oZ pZ qZ rZ sZ tZ uZ vZ wZ wZ xZ yZ zZ AZ BZ CZ DZ EZ FZ GZ HZ IZ JZ KZ LZ MZ NZ OZ PZ QZ RZ SZ dM ~V TZ UZ VZ ;~ >~ nR WZ ~6 =p '( XZ                                                                                                                                                                                                                                           ",
"                                                                                                                                                                  ~6 l| l| YZ ZZ `Z `Z  ` W) f~ OE sw +r ]^ -L .` +` @` #` I| Y, $` $` aK %` u# h! 3  '( ~6 &` *` =` q] q] r> o: IC -` :w 6; zd -T 3= ;` Od Od >` o/ &- ,` '` )` !` ~` {` Yc c= ]` ^` /` (` ~( I( Dz _` :` pG <` [` }` |` M> 1` 2` 3` B% R= 4` 5` 6` 7` 8` 9` 0` a` QV [T b` c` d` e` f` g` tj h` i` j` k` l` ,_ A% m` sP g= s_ ev Ta LA n` I% T, =$ |J o` $D p` q` =Q eD r` s` t` u` v` w` x` y` z` A` vZ B` C` D` E` F` G` H` I` &V J` K` L` M` N` O` P` Q` R` S` T` U` V` W` X` iX Y` Z` ``   .o7 . .+ .@ .++ |  0@ XZ                                                                                                                                                                                                                                           ",
"                                                                                                                                                                  ;  =p l| # .$ .M~ % .& ./* OE * .= .- .; .> ., .' .) .! .4u ~ .{ .H5 ] .^ .5J g+ 3  ~6 ~6 / .( .q] gq =E aI 1. mJ TN JX Pu NL @* $= _ .bc Od eD i. =- ]^ : .< .[ .} .| .1 .2 .3 .4 .5 .6 .&& -` :L 7 .8 .9 .0 .a .~% b .c .d .e .f .ux g .3` h .i .j .k .l .m .%l `W QV Wd n .o .p .q .r .s .t .u .9m v .w .xR 6. x .y .z .A .B .C .D .E .)M F .G .H .I .J .K .'~ L .]Z M .N .O .P .Q .R .S .T .tZ U .vZ V .W .X .Y .Z .` . .....+..@..#..$..%..&..*..=..-..;..>..,..'..)..!..X` iX ~..{..]..^../..-E (.._..Pa 1  0@ :..                                                                                                                                                                                                                                          ",
"                                                                                                                                                                  ~6 T$ 1  <..[..A, }..LE h. sw |..1..$K 2..3..j. TN 4..EC )z j{ hA hA hA p$ 5..6..Gd k  k  7..v, *, I( =, $= %= 8..1@ 9..S) RG ]C 3= 0..T, y, a..Qu tr G) (% N. '= b..c..d..e..f..`! M= Az `~ I( /D [t =! g..h..i..Ex j..k..h_ l..m..H< XC FH pG n..o..p..q..r..s..%S o0 }T t..n0 u..v..w..x..y..z..A..B..C..0% Y] D..E..F..G..H..1; .B I..@' J..K..L..M..N..O..P..Q..R..S..T..U..V..W..X..Y..Z..`.. +.(R .+.++.@+.#+.$+.%+.&+.*+.=+.-+.;+.>+.,+.'+.)+.!+.~+.{+.]+.^+./+.(+._+.kT :+.~V lM nM <+.jj J) [+.}+.|  ++ V] |+.                                                                                                                                                                                                                                          ",
"                                                                                                                                                                  l| 3  1  1+.2+.3+.4+.oQ `; Qu 5+.6+.7+.8+.9+.Ws *y 0+.a+.%H QB 1* a= 1- b+.c+.d+.3c h! )  QS e+.mK mK +- u& c= Bz 0- 9..,_ f+.-T <- g+.h+.=Q p~ 3P P! l= K* 24 0& QA i+.j+.k+.l+.rg 2= h= 7~ L/ m+.n+.o+.p+.q+.r+.s+.t+.u+.v+.w+.x+.Aq g= y+.z+.A+.B+.C+.D+.E+.F+.G+.H+.I+.&S &S o0 J+.w..K+.~! L+.M+.N+.O+.P+.*; Q+.R+.S+.T+.U+.K1 Mu 8Y V+.W+.X+.Y+.Z+.`+. @..@.+@.@@.#@.$@.AS %@.&@.*@.=@.-@.;@.dM >@.,@.'@.)@.!@.~@.{@.]@.^@./@.(@._@.:@.<@.[@.}@.|@.1@.2@.]+.3@.4@.5@.6@.dM :+.7@.8@.9@._$ z= n! 0@.a@.++ ++ ;  b@.                                                                                                                                                                                                                                          ",
"                                                                                                                                                                  1  ~6 1  c@.d@.L$ y~ e@.f@./H g@.h@.i@.j@.k@.l@.m@.n@.o@.1D p@.Q; q@.5q R; 8q MT UG r@.OD s@.t@.Q~ u@.v@.bQ w@.x@.60 WR y@.z@.F- :! q~ A@.B@.C@.D@.sr ){ E@.F@.:u G@.H@.I@.J@.K@.L@.7; M@.N@.O@.P@.Q@.R@.S@.T@.U@.vx V@.W@.X@.Y@.Z@.2= |m `@. #..#.+#.@#.##.Vq $#.%#.&#.*#.=#.-#.;#.>#.,#.'#.)#.!#.~#.{#.]#.^#.i. /#.(#._#.:#.<#.[#.6; }#.|#.1#.2#.3#.4#.5#.6#.7#.8#.9#.0#.>H a#.b#.c#.d#.e#.f#.g#.h#.i#.j#.k#.l#.m#.n#.o#.p#.q#.r#.s#.t#.t#.u#.v#.w#.x#.y#.z#.A#.B#.C#.D#.E#.F#.G#.H#.I#.J#.K#.L#.M#.N#.O#.P#.Q#.Bw |+.                                                                                                                                                                                                                                          ",
"                                                                                                                                                                  0@ j: 1  R#.S#.Aj @3 T#.I| U#.V#.3P n^ _{ W#.X#.Y#.Z#.$* o/ K{ bQ &x +t 9' 4- 0' `#.|.  $.H  aA A4 6u .$.4* l' X) 3u +$.@$.:% 2@ U) #$.g{ 8~ ^9 :% U) 1@ 1@ 9- Z> $$.%$.&$.20 *$.=$.-$.;$.&* >$.,$.'$.)$.O#.!$.6, r> ~$.{$.]$.^$./$.(| =& b: /f Dx tM ($._$.:$.<$.[$.FQ }$.c> |$.1$.2$.3$.4$.5$.6$.7$.8$.T= ]h tq 9$.0$.a$.b$.c$.%D d$.e$.f$.g$.h$.i$.j$.k$.l$.m$.75 n$.o$.p$.Zs q$.r$.s$.t$.u$.v$.w$.F#.x$.y$.z$.A$.B$.C$.D$.E$.F$.G$.H$.I$.J$.K$.L$.M$.N$.O$.P$.y$.eM Q$.R$.S$.n@ -$.;6 y, T$.U$.V$.W$.XX n7 X$.Y$.4c sg Z$.                                                                                                                                                                                                                                    ",
"                                                                                                                                                                  0@ '( 1  `$. %.0& Qt .%.+%.eJ 0j -] 2] :: @%.Q> K| #%.~I zR tM e^ 5; $%.P] 2; vw f( -_ -_ :  :  f  ~  @i -@ n: uv %%.Mw &%.*%.Z> 2@ =%.~( ~( $i y. U) U) 0- Y> -%.;%.~( :- 4C X{ ,~ >%.,%.'%.p) ,$.)%.f= C^ :- c| w. !%.~%.{%.]%.^%.(| q> (n v. .' f~ /%.(%._%.:%.<%.[%.}%.|%.1%.2%.3%.4%.5%.6%.7%.8%.9%.0% ^#.[] 0%.a%.b%.c%.c$.u4 u4 d%.e%.f%.g%.h%.i%.j%.k%.l%.m%.n%.o%.qC p%.q%.Wt Z> r%.s%.t%.u%.v%.w%.fM x%.y%.z%.A%.B%.C%.D%.E%.F%.G%.H%.I%.J%.K%.L%.M%.mT N%.:+.O%.P%.*( k, dQ d0 dU e! ZI 3& Q%.50 .Z NE 6A ~6 _} (}                                                                                                                                                                                                                                     ",
"                                                                                                                                                                  ++ |  l| R%.S%.-, i. 74 CB b' 74 T%.U%.V%.W%.e% rC X%.]z ^^ $* Y%.#D .K {> 0' 2; MT Z%.`%. &.s. ~  ~  .&.`] .' IC ,^ St +&.@&.y= H) #&.2. ~( xr (@ -%.-%.W{ $&.NS %&.%2 d_ 6, H- 3N B@.t; &&.*&.=&.-&..j ;&.JA %2 p[ >&.,&.'&.)&.!&.,G Ut ~&.:- 8, mK {&.]&.^&./&.(&._&.:&.Tm <&.[&.}&.|&.1&.2&.3&.4&.5&.6&.7&.8&.9&.0&.a&.b&.c&.d&.5C e&.f&.g&.h&.i&.s_ j&.k&.l&.m&.n&.o&.p&.q&.}3 (@ r&.s&.t&.u&.v&.w&.x&.y&.z&.A&.B&.C&.D&.E&.F&.G&.H&.I&.J&.K&.L&.M&.N&.O&.P&.Q&.R&.S&.T&.U&.V&.W&.y~ X&.Y&.Z&.`&.|x <& =%. *..*.T. E4 (}                                                                                                                                                                                                                                     ",
"                                                                                                                                                                  ~6 ~6 '( +*.m@.-, i. @*.SB V& #*.$*.%*.&*.W%.%F q# **.=*.-*.;*.>*.x. .> ,*.q7 ;, 4. '*.)*.m@.!*.~*.$@.gW P; -P {*.s$ :& $$.]*.C& NR ^*.-] M* ]z I% W$ 3+.kJ /*.(*._*.G! sP /Z :*.r&.8- <*.[*.}*.|*./E F@.zR @w (% 5. 1*.2*.3*.4*.5*.6*.7*.8*.@%.|3 H< G- jj %5 9*.0*.a*.b*.c*.d*.e*.f*.g*.h*.i*.#3 w, j*.k*.l*.m*.n*.o*.p*.q*.r*.s*.O= t*.u*.v*.w*.|: x*.(@ y*.z*.A*.B*.C*.D*.E*.F*.G*.RF H*.I*.J*.LP kE K*.L*.M*.N*.QP O*.P*.Q*.R*.S*.T*.U*.V*.W*.X*.Y*.Z*.`*. =..=.+=.@=.#=.$=.%=.&=.M> S, *=.==.-=.;=.sw 4. 5V >=.3  k| ,=.                                                                                                                                                                                                                                    ",
"                                                                                                                                                                  ~6 ++ 0@ '=.ev |p ~I **.Y. ]  d@ *. </ /I cj p# p# )=.!=.~=.{=.>*.'{ .> .! ]=.3P ]^ .U sw ^=.TD 4& LD E^ F^ TC /=.3P m` ;G (=.Q@ dI _=.O= 2] )v >L a..T, :=.<=.[=.}=.[y 7~ :- |=.1=.H) 2=.$= C^ r~ 3=..> Ta ]z aQ x*.x*.s*.Qu -F 4=.5=.6=.7=.1Q 8=.+A !{ 9=.0=.a=.b=.c=.d=.e=.f=.g=.h=.i=.7$.j=.]% TL k=.l=.m=.N} n=.o=.rt p=.q=.r=.L* -] ^1 s=.t=.u=.X&.#% v=.3w .s w=.|t x=.y=.z=.@- 1, A=.B=.C=.D=._C E=.F=.G=.H=.I=.FN J=.y%.K=.L=.M=.N=..+.C` bS yN y$.O=.P=.{) (: ^` Q=.R=.e^ S=.l@ ;| T=.v_ k! U=..! -F V=.W=.N@ E4 4c                                                                                                                                                                                                                                     ",
"                                                                                                                                                                  }I 3  l| FS =y |p o/ X=.Y=.Z=.tR IL `=. -.rK 4* :O W%.=6 .-.+-.E@.N= >*.1w _& <& @~ q7 -F @-.#-.i1 MD $-.Q> qC %-.s$ :&  ~ *5 V< dI q=.(&  ! `> 3+.T, cc &-.*-.=-.--.~&.f{ =& s$.;-.>-.q< {C $= v@.,-.'-.)-.!-.~-.:*.HC -, s*.{-.]-.^-./-.(-._-.:-.<-.N= [-.}-.|-.1-.2-.3-.g=.4-.5-.6-.7-.8-.9-.0-.U@.a-.b-.c-.d-.e-.f-.M( 'C TT E@._{ ]z cI cy g-.h-.i-.j-.k-.h= 8=.l-.m-.n-.o-.p-.L= %= q-.r-.s-.t-.u-.|@ :[ v-.w-.x-.y-.z-.A-.L%.B-.B-.C-..+.D-.bS E-.F-.G-.H-.I-.l, J-.K-.QG H* L-.M-.A, cH hl o< N-.1w O-.P-.Q-.v# R-.S-.                                                                                                                                                                                                                                    ",
"                                                                                                                                                                  T-.(} ;+ U-.V-.W-.X-.sc DD NE vp <P -H -H ]P bQ Y-.Z-.`-. ;..;.+;.AQ Pz @;.#;.tw $;.%;.&;.*;.5; =;.s- }* '^ Br OF V#.-;.x| HM +* $= -x 6m 6m L$ ;;.>;.,;.';.);.!;.~;.{;.j% ];.^;./;.(;._;.JB tM :;.<;.[;.};.|;.1;.2;.3;.4;.5;.6;.7;.8;.9;.0;.a;.b;.c;.d;..' #3 ^#.(@ e;.G- 9- f;.dZ g;.@r h;.i;.j;.k;.l;.m;.n;.o;.p;.q;.r;.~% s;.t;.u;.v;.w;.x;.y;.z;.A;.B;.C;.D;.o/ E;.F;.G;.H;.I;.Ex == J;.K;.L;.M;.N;.O;.P;.Q;.R;.S;.T;.U;.[X V;.W;.(R V;.X;.mT `*.Y;.Z;.`;. >..>.+>.+> @>.#>.H! $>.lA %>.&>.BS *>.=>.->.;>.>>.,>.zn R-.X1                                                                                                                                                                                                                                     ",
"                                                                                                                                                                           @+ &+ ++ !  '>.NS N= #&.+- X] 1, )>.)>.#- !>.>` bc ~>.(M Z^ )$ %= -T Cz {>.]>.^>./>.bI zd 4t (>.m7 Zh og |; [; ov u& f=  , _>.:>.S, <>.[>.}>.|>.1>.2>.3>.4>.5>.&- 6>.7>.8>.9>.0>.F@.i. a>.b>.c>.d>.e>.f>.g>.h>.i>.ux 8=.X] -` Yc j>.k>.6| l>.m>.5( H< n>.Q, 7, 3. /% o>.R= zI n>.p>.q>.r>.af s>.t>.q[ V[ c| :> ru `8 u>.v>.w>.x>.Hd y>.z>.A>.B>.C>.D>. %.w8 E>.F>.G>.H>.I>.ui {% V* V< 3B J>.K>.L>.M>.N>.O>.P>.Q>.y&.R>.:+.aW S>.`..uS T>.U>.V>.W>.X>.[@ Y>.c% *T Z>.TD `>. ,.gJ .,.;H +,.EC @,.l$ 4u TD zn zn #,.T-.                                                                                                                                                                                                                                    ",
"                                                                                                                                                                           zr z* l| j  $,..! _{ D .;A +- H* %,.&,.*,.=,.-,.=L ;,.>,.,,.',.),.!,.~,.{,.],.^,./,.(,._,.:,.Z, Br %%.<,.}; 2P ]O I* t4 KA F& [,.:>.},.|,.1,.2,.3,.4,.5,.6,.7,.8,.9,.0,.a,.b,.c,.wp XX d,.e,.f,.g,.h,.i,.j,.k,.i>.ux !T Az 4C XC l,.%} m,.n,.o,.p,.q,.r,.s,.t,.u,.zz v,.w,.x,.y,.z,.A,.B,.r0 C,.D,.:u =@ +' 8D E,.-*.F,.G,.H,.I,.J,.K,.L,.M,.N,.O,.P,.Q,.R,.S,.T,.U,.V,.W,.X,.Y,.Z,.8= {C `,. '..'.+'.@'.#'.$'.%'.&'.*'.='.-'.;'.>'.,'.''.)'.!'.~'.n% {'.]'.^'.M+ /'.('._'.:'.Y) <'.(F x; fA Hw ['.}'.|'.8@ 1'.#,.;+                                                                                                                                                                                                                                     ",
"                                                                                                                                                                           @+ z* |  )  2'.<& :& /H i( 3'.vi 4'.C@.5'.6'.7'.8'.9'.0'.a'.b'.c'.d'.e'.f'.g'.h'.i'.j'.k'.l'.m'.:u .0 :O X)  , e= g= sP 7~ n'.o'.o'.p'.q'.r'.s'.t'.u'.v'.w'.x'.y'.z'.A'.B'.C'.D'.E'.F'.G'.H'.I'.J'.K'.&K 8O L'.M'.-, Ws 6~ N'.O'.P'.Q'.R'.S'.T'.U'.V'.W'.X'.Y'.Z'.`'. )..).+).@).#).$).%).&).*).=).-).'I -K !M ;).>).,).').)).!).~).{).]).^)./).()._).:).<).[).}).|).1).2).3).4).5).6).KA 8~ 7).8).9).0).a).a).b).c).d).e).f).g).g).h).i).j).k).jq l).(: a+ m).n).o).p).q).r).)| ^F H5 Q~ 4C I( 4q  F s).d+.t).93 =                                                                                                                                                                                                                                      ",
"                                                                                                                                                                           @+ z* |  )  2'.sw >~ u).3& v).TS w).z% yD x).C^ f= 7( y).z).VF A).B).C).D).8, 9y E).F).G).H).I).|] bj @3 #~ [c X] /Z 2= 7~ mw .9 =@ ev J).K).$) 1@ L).M).N).O).P).Q).R).GF +^ S).T).U).V).W).W7 X).Y).Z).`). !..!.2] E) +!.@!.#!.eB =' $!.%!.&!.*!.=!.-!.Za ;!.>!.,!.'!.2~ }K )!.!!.~!.{!.]!.^!./!.(!._!.:!.<!.K[ K[ ;%.Ur [!.}!.|!.1!.2!.3!.4!.5!.6!.7!.V4 8!.9!.0!.a!.7v b!.c!.d!.e!.:- _n f!.g!.`_ ]H h!.8) i!.j!.k!.%@ l!.I. i~ m% <@ |& 5M m!.a, n!.o!.p!.gv q!.BW jz r!.$C )| +/ B%  , @t s) =` s!.t!.93 g+ D*                                                                                                                                                                                                                                     ",
"                                                                                                                                                                           @  j: j  )  sc <& ;~ u!.v!.3& w!.x!.y. tC y!.z!.I* tF A!.B!.4d C!.D!.;; E!.F!.G!.H!.I!.J!.K!.L!.|] aj {( ~g && C^ I( 2. %2 *; Y] *; JX ,, Od M!.Wt :: K* N!.O!.P!.Q!.R!.Qz d^ S!.T!.U!.V!.W!.C^ zq X!.Y!.Z!.`!. ~._& r=.i' .~.+~.@~.Y% ~% #~.$~.%~.&~.*~.=~.OJ -~.;~.>~.~#.,~.'~.)~.!~.~~.{~.]~.^~.ru rt /~.f3 0, 5M c] ts j% (~._~.:~.<~.[~.sG }~.|~.FQ 1~.2~.3~.#~ cj 4~.5~.6~.7~.8~.9~.0~.=% d= -' a~.dC I% b~.c~..'.d~.e~.32 X>.n@ J-.f~.g~.h~.i~.h> j~.k~.l~.m~.q` n~.o~.p~.G5 q~.J{ bI 4C 64 JB 0z r~.H+ g+ D*                                                                                                                                                                                                                                     ",
"                                                                                                                                                                           *  V] ++ ++ s~.T#.t~.Dz @N W> u~.MM v~.w~.x~.y~.z~.A~.B~.C~.D~.E~.F~.G~.H~.I~.J~.K~.L~.M~.N~.O~.V$ ,_ OS 1p f{ -Z P~.JP 3@ p+ Q~.^y {*.VB E .y3 =^ y4 R~.S~.T~.U~.V~.W~.w8 tq X~.Y~.Z~.`~. {._: N! .{.+{.@{.#{.${.%{.&{.*{.={.-{.;{.bt L= xM >{.,{.'{.){.!{.~{.{{.]{.^{./{.({._{.:{.<{.[{.}{.|{.1{..B ~C 2{.3{.'K {H 0Y i= 6- 4{..a 5{.6{.7{.sG 8{.9{.0{.a{.b{.c{.d{.e{.f{.g{.h{.i{.j{.k{.l{.m{.n{.o{.p{.q{.cU r{.s{.t{.u{.v{.~>.w{.x{.y{.z{.A{.B{.C{.D{.E{.F{.G{.H{.'f I{.J{.^F ^F K{.L{.M{.N{.$i xr O$ O{.e@ g+ P{.                                                                                                                                                                                                                                    ",
"                                                                                                                                                                           P{.sg j  3  Q{.r- s- R{.=E nw :O S{.AC T{.U{.V{.W{.X{.Y{.Z{.`{. ].m_ .].+].@].#].$].%]..0 6~ n! *%.`@ &].2= 3> *].R! @!.w3 UB pg p!.c' F@ r> U[ FD d! =].-].;].>].,].'].aj bj )].!].mD ~].{].Y~ ,~ ]].GM TL =5 ^].xF /].(]._].C, :].<].3B 3B OG F@.%'  ! /@ #' N= ~{ s_ g .OG n^ P! +9 [].$& `9 j^ -= `_ }].;, #/ 24 G@ p1 |].1].2].3].4].5].f!.6].7].8].9].0].a].W$ b].c].d].Fj e].D_ f].yi g].W$ y, h].]C o[ @* g= f= QG i].2@ -G j].iD /> dI 3] IM k].D! D! l].m].Hv `h ]{ n].fI o].3+.p].)M }E 1. W> )6 g+ g+ T-.                                                                                                                                                                                                                                    ",
"                                                                                                                                                                           D* l| k  k  q].aV [].sp b: 3! /* r].s].t].u].v].w].x].y].z].A].B].C].mD D].b> E].F].G].4* H].8) *%.`@ o7 2= L/  M uW dU q` I].+%.8u J= G@ &' G! J].x4 K].L].M].G7 N].O].|] w8 P].Q].R].S].T].cR B' U].+t |3 V].W].X].Y].Pb BG iq Z].`]. ^.4- ts .0 tK s$ _& :: O= `~ f= @* :O  > $' #' .^.(>.p, /> 3B +^.@^.O= #^.2w uq l' l' $^.%^.&^.*^.=^.|3 -^.;^.>^.,^.'^.)^.B' I% !^.2> 9y ~^.{^.]^.^^./^.M> a..(^.e^ 1, _^.C% QG oV :^.ED <^.[^.&= &= dI d= dI }^.K. RJ |^.1^.2^.DM oK ^F p~.3^.4^.T, 1F 5^.mK 6^.7^.zn 8^.S-.                                                                                                                                                                                                                                    ",
"                                                                                                                                                                           B* V] 9^.T. 0^.j$ a^.b^.aI d~ j% c^.d^.e^.f^.g^.h^.i^.j^.k^.l^.m^.n^.o^.p^.Y@.q^.r^.Xp GS JC s^.kG t^.=,.l' f~ U* u^.v^.C~.w^.x^.y^.z^.IC KA +O AL A^.B^.C^.D^.E^.F^.G^.l( H^.I^.J^.K^.L^.M^.PW A' -$ TT o7 N^.O^.P^.Q^.R^.S^.T^.U^.V^.yM W^.X^.vL Y^.Z^.p+ j]..# /=.A&  ] 2D j1 `^.lI  /../.&= cJ G! 1> ,U +/.@/.#/.$/.%/.&/.*/.=/.-/.;/.>/.q!.,/.'/.)/.!/.~/.{/.D! D! ]/.^/.Z~ //.(/._/.:/.</.Y~ k@ [/.}/.|/.1/.2/.3/.4/.5/.EL 6/.7/.>U /E ,` 0Y 8/.9/.0/.a/.b/.c/.d/.e/.3~.(>.DM f/.4^.T, qV 5^.1. g/.h/.i/.8^.S-.                                                                                                                                                                                                                                    ",
"                                                                                                                                                                           (} ;  E4 9^.j/.k/.G= |J 8z j% ^f l/.m/.n/.o/.p/.q/.r/.s/.B` t/.u/.i].CW v/.w/.x/.y/.z/.ss A/.B/.C/.D/.E/.@3 uq F/.nv &5 8= G/.=Q p~ H) W) :w d= =%.sr f;.H/.I/.J/.NW K/.r< F) L/.M/.N/.O/.P/.eD l@ ,%.>~ ^@ #' 24 N* Qz 2= R} -` Q/.h+.cc vU R/. r $D S/.`h %G $C rC T/.U/.2P .; V/.V/.W/.(> S/.:u +r }] X/.l).Y/.Z/.5M M~ M-.`/.uv .s uv :, m-  (..(.+(.@(.#(.$(.|@ g> %(.R! uW &(.L. *(.2w =(.Y>.m!.U@ -(.g> Q| ;(.'%.y' ^` U@ g> X{ >(.(@ 6. ,(. ! O= ~g 2> `~ oQ Wt |=.'(.Ys oK )(.|> 3+.4P !(.~(.O$ {(.](.](.^(.                                                                                                                                                                                                                                    ",
"                                                                                                                                                                              ;+ Tk T. /(.((._(.#>.+F mw X> l/.:(.n/.<(.[(.}(.|(.1(.2(.3(.4(.5(.L!.6(.Vc 6w 7(.8(.`H 9(.0(.a(.b(.c(.d(.d(.e(.f(.$& ^7 g(.=Q CG ay U[ Az ~v h(.i(.j(.k(.l(.m(.n(.o(.dZ G) p(.q(.r(.s(.t(.l@ l@ u(.>~ x. -%.24 b| v(.`~ NF Az w(.a..3+.x(.y(.z(.A(.B(.C(.D(.E(.Q. P> UC &G vr S/.Ov F(.G(.H(.C . > ~| I(.yS p) j, z' j> 3# `/.2H |3 u~.J(.K(.L(.M(.N(.O(.P(.Q(.DI N~ R(.S(.=i T(.U(.V(.W(.X(.;(.Y(.n@ Z(.`(. _.Q| D! $_ ._.'M 'M +_.2@ .~ #' n^ (& T= CC `~ aI 2F H) V) ;] <,.eI @_.#_.3+.$_.J* %_.&_.*_.iR =_.-_.                                                                                                                                                                                                                                    ",
"                                                                                                                                                                                       W% HB &F ;_.}w >_.UN ,_.'_.)_.!_.~_.{_.]_.^_./_.(_.__.:_.<_.[_.}_.|_.1_.2_.3_.4_.5_.6_.7_.8_.9_.0_.a_._'.S/.P] b_.c_.d_.(^.e_.s* f_.g_.h_.i_.j_.k_.l_.m_.n_.w(.&y o_.p_.q_.r_.s_.t_.t_.u_.]` v_.w_.x_.y_.z_.A_.B_. ] C_.D_.E_.F_.G_.H_.`;.I_.PS G! 1> J_. F +F O$ 4q VS SM K_.L_.M_.;)..~.M> N_.O_.P_.Q_.R_.S_.T_.U_.$&..U V_.W_.X_.Y_.Z_.`_. :..:.+:.@:.#:.$:.%:.&:.*:.=:.-:.;:.>:.,:.':.):.!:.~:.{:.]:.^:./:.(:._:.::.<:.[:.}:.|:.1:.2:.!f G/.3:.4:.#!.m! y~ 5:.UD #-.6:.7:.8:.<:.9:.0:.r# ++                                                                                                                                                                                                                                              ",
"                                                                                                                                                                                       r. a:.9_ 5& l. #G oK b:.c:.d:.e:.f:.g:.g:.h:.i:.j:.k:.l:.X` m:.n:.o:.p:.q:.r:.s:.t:.Ou u:.v:.w:.x:.y:.z:.Ov IM A:.8~ L/ ~T dP #!.M$ B:.C:.D:.E:.F:.G:.H:.q, e= >= {C zy 5- <- I:.J:.K:.L:.Qb != M:.N:.`_ O:.>A P:.Zh P:.}` Q:.S# R:.i, m% S:.2. q> %2 c| p1 w, c| G@ Q= T:.M:.B, U:.@> <!.V:.W:.*D |; |; Ou up `9 x@.2@ f;.X:.Y:.Z:.`:. <..<.+<.8% @<.[!.#<.$<.%<.&<.*<.=<.-<.;<.><.`] GF 2= Mu u| -v ,<.p1 D) !T @- @- XC g= Az -` g!.Ex ^7 '<.)<.!<.m! @!.&(.~<.gI v).{<.b= ]<.{F ^<.k  k  V]                                                                                                                                                                                                                                              ",
"                                                                                                                                                                                       g@ /<.(<.FC w!.|* vD _<.:<.<<.[<.}<.|<.1<.2<.3<.4<.5<.6<.7<.8<.9<.&] 0<.a<.b<.c<.d<.&= .^.e<.f<.g<.>I h<.+$.8y &p IC gq KB p~ =G jz i<.j<.k<.l<.F:.]7 |; m<.]1 !T c= 3= H* QG n<.o<.p<.q<.qI != r<.s<.cP t<.Ov Ov (> (> u<.|s 2K v<._@ j, w<.&, 8~ ~( 64 (| U[ x<.JX y<.z<.A<.B<.1d C<.K).)<.FD B& D<.~% /> E<.+* F<.aQ sr G<.H<.I<.I<.J<.K<.S) L<.M<.N<.O<.P<.Q<.y^ R<.S<.T<.U<.V<.Q= {( 1> t& J{ +- *].#;.W<.vx @- >= X] ^1 hD Q~ X<.!$ lz 4:.N> <!.Y<.L$ j' Z<./F /F v!.|- $` `<. [.k  .+ ;                                                                                                                                                                                                                                               ",
"                                                                                                                                                                                       0K ES 93 }V 6K Rt .[.+[.n:.}# @[.#[.$[.%[.&[.*[.=[.-[.;[.>[.,[.'[.)[.![.~[.{[.][.^[.xr 1/ /[.([._[.:[.<[.D= Z- jI d_ &2 G].h+.n! J) [[.}[.|[.1[.2[.nK B_.3[.4[.4[.tw 5[.<*.6[.7[.8[.9[.0[.BI e> a[.b[.]C ]C _P 6[.R  JX =y c[.d[.e[.Y~ >` f[.g[.h[.i[.j[.d{.k[.l[.m[.n[.o[.42 pI p[.q[.NG VS =E _w )H 4q r[./y s[.t[.s*.aj u[.v[.w[.x[.y[.z[.A[.B[.C[.D[.E[.F[.G[.H[.I[.J[.K[.L[.M[.N[.qV O[.P[.Q[.$;.R[.S[.T[.U[.V[.IX g+.W[.]) X[.Y[.Z[.`[. }..}.*T cC B' *Q v^.v@.#= +}.!*.Gw @}..= j  k  3                                                                                                                                                                                                                                               ",
"                                                                                                                                                                                       #}.$}.Tk ((.%}.&}.6P mJ *}.=}.-}.;}.>}.,}.'}.)}.!}.~}.{}.]}.^}.uZ /}.(}._}.:}.<}.m@.#i [}.}}.|}.1}.2}.3}.:# T< 4}.d_ (| 5}.U, cc S, t> }@ )g 6}.7}.ux 1, ss 2w &- o7 U) E& N$ Pu ui ui 8}.d& d& 9}.0}.s_ -` oQ T@ D@.1] L* 3P  > [> l@ a}.5M m!.b}.p) A) eD c}.d}.e}.f}.g}.h}.i}.j}.k}.&e Q* .j v. .i G@ `# I% x4 l}..9 -} =} m}.n}.o}.p}.b(.q}.r}.s}.t}.u}.v}.w}.x}.y}.z}.A}. Z 4+.U, B}.B!.C}.D}.E}.F}.G}.H}.I}.9- 9- e1 k, B! V@ ^! J}.f. _@ l, b% 5> K}..}.L}.1. )H M}.N}.D= R; 1- 3  k  l|                                                                                                                                                                                                                                              ",
"                                                                                                                                                                                       O}.P}.Q}.R}.S}.pA 8..T}.U}.V}.W}.X}.Y}.Z}.`}. |..|.+|.{}.@|.#|.$|.%|.&|.*|.=|.-|.m'.(| %E ;|.>|.,|.'|.)|.*. l< !|.(| nw |:.,, K).Wa ~|.{|.]|.^|./|.JM  ^.#* ;, ;, .Z V$ 3@ <^.(|._|.:|.<|.[|.}|.||.1|.2|.3|.4|.A^.ED 5|.6|.7|.8|.9|.0|.a|.b|.c|.d|.e|.f|.g|.h|.i|.j|.k|.l|.m|.n|.o|.p|.q|.r|.s|.t|.u|.v|.w|.x|.y|.z|.A|.B|.C|.D|.E|.`; F|.G|.H|.I|.J|.K|.L|.M|.N|.O|.P|.Q|.R|.S|.T|.U|.V|.W|.X|.Y|.Z|.`|. 1..1.+1.@1.#1.$1.%1.R+ )g e~.&1.*1.n@ m!.=1.j> 3# eD -1.6, r> %F ['.;1.Uk $t k  3  0_                                                                                                                                                                                                                                              ",
"                                                                                                                                                                                                   >1.1I ,1.'1.Z; p+ )1.!1.~1.{1.]1.^1./1.(1._1.:1.<1.S>.[1.}1.|1.11.21.31.(@ xR 41.51.61.71.81.91.m> _z b' b' IH Va e/.R, 01.a1.b1.c1.d1.(> Zh -H E' W& 'I e1.@w f1.g1.h1.i1.j1.k1.l1.m1.n1.o1.p1.q1.zQ uv r1.s1.t1.u1.v1.w1.x1.y1.z1.A1.B1.C1.D1.E1.F1.G1.H1.I1.J1.K1.L1.M1.N1.O1.P1.Q1.R1.S1.T1.U1.V1.W1.X1.Y1.Z1.`1. 2..2.+2.@2.#2.$2.%2.&2.*2.=2.-2.;2.>2.,2.'2.)2.!2.~2.{2.]2.^2./2.(2.;! _2.:2.<2.[2.}2.|2.12.l@ 22.;U 32.42.52.62.72.#~.82.:,.92._G N. 02.=_ lv lv 5..9^.ES (}                                                                                                                                                                                                                                              ",
"                                                                                                                                                                                                   ;  k  k  a2.Qu b2.c2.d2.Q*.e2.f2.g2.h2.i2.j2.k2.EN #Q l2.m2.n2.o2.p2.q2.U) 1@ c[.s_ !T f(.;H r2.9Q ^F &~ s2.t2.O= ^f &; *' u2.v2.]y P:.[; }` v2.V/.V/.`% <& .U w2.x2.Hj y2.z2.A2.|m B2.C2.D2.E2.F2.-v Aq G2.H2.I2.J2.K2.Bg d` L2.M2.z@ N2.O2.P2.m_ Q2.R2.S2.T2.U2.M2.V2.W2.], X2.Y2.Z2.`2. 3..3.+3.@3.#3.$3.%3.&3.*3.=3.-3.;3.a( n' -{.v$.WL %N >3.,3.'3.)3.!3.~3.{3.]3.^3./3.(3._3.:3./= <3.^= [3.}3.|3.13.23.u> >` 33.+' av av %2 c| G@ u* w) 43.pA k% '= %O 53.B4 (<./<.k  ~6 P{.                                                                                                                                                                                                                                             ",
"                                                                                                                                                                                                63.}I ~6 3  73.#&.5}.83.93.B&.03.a3.b3.c3.d3.e3.f3.g3.h3.i3.j3.k3.l3.m3.n3.0- 2@ jV o3.p3.9j gI *) Q> e% iI VC t2.L* ts uq RG (> Zh P:.Zh &D &D %%.Ov q3.lz >~ 50 r3.s3.^g t3.u3.v3.KA w3.>$.*O x3.y3.z3.A3.B3.C3.D3.E3.F3.G3.H3.I3.J3.K3.L3.M3.v= S+.N3.O3.P3.Q3.R3.S3.T3.U3.V3.W3.X3.Y3.Z3.`3. 4..4.+4.[3._3.@4.#4.$4.%4.&4.*4.=4.-4.;4.>4.,4.'4.)4.A] L^ !4.~4.{4.R2.]4.^4./4.(4._4.:4.<4./= /4.[4.}4.|4.14.24.j> 5> |> 3! v. p1 sP 7~ o: 34.)F 44.:L k% %' 54.64.B+ /<.U1 k| 74.                                                                                                                                                                                                                                                ",
"                                                                                                                                                                                                   X1 ;  ++ 84.+!.94.04.a4.fM @Q b4.c4.d4.e4.f4.g4.h4.FY i4.j4.k4.l4.m4.n4.m- w7 o4.V/.1: {F ]P '$ -H +$.f(.}; p4.>(._& ,(.q4.P:.2P 1: %-  0 Z% r4..U n7 E .s4.+~.d0 t4.u4.v4.w4.%_.`~ q4.>O ;6 x4.y4.z4.A4.B4.C4.D4.E4.F4.G4.H4.I4.J4.K4.L4.M4.N4.O4.P4.Q4.R4.S4.T4.U4.V4.W4.X4.Y4.Z4.`4. 5..5.+5.@5.[3.#5.$5.%5.&5.*5.=5.-5.;5.>5.,5.'5.)5.!5.~5.{5.]5.^5.Q2./5.(5._5.:5.<5.[5.}5.|5.15.25.35.45.55.65.75.85.95.05.a5.b5.c| v. D) s_ zq  , .F c5.&2 d5.e5.f5.g5.,>.e@ E4 hR                                                                                                                                                                                                                                                       ",
"                                                                                                                                                                                                   V] ++ ++ h5.i5.G- j5.k5.Y` I=.l5.m5.n5.o5.f4.p5.h4.q5.r5.s5.t5.sr M* =G :, M$ 2=.u5.v5.u5.C% nz 4t $- (>.[; IH BL dZ xR 8Y w5.&6 Ov $= H* xC j. #' 6. x. p].A' +> x5.Aq g= t4 [c f{ uL d0 m! y5.z5.A5.B5.C5.D5.Ru m}.=} Ur &^ 1w E5.J).F5.A}.G5.b% Y/.H5.I5.J5.K5.L5.M5.N5.O5.P5.Q5.R5.{4.S5.^3.$3.T5.U5.V5.W5.X5.Y5.Z5.`5.`5.Z5. 6..6. 6..6.+6.@6.#6.$6.%6.o9 &6.*6.=6.-6.-6.G, ;6.>6.qZ ,6.j .'6.)6.!6.Y<.TN w. 3! Qz w, ~6.1p :w vx -` 3! F/.#i {6.n$ B4 ,(  O g+ k| @+                                                                                                                                                                                                                                                       ",
"                                                                                                                                                                                                   V] =p 1  Wy 6m ]6.^6./6.(6._6.:6.<6.[6.}6.e4.|6.h4.FY 16.26.36.f;.-] *%.M$ jj 2=.46..; u5.6; +t 4t 56.66.76.+D @' xR US Lw 2P P:.9' mK 4q xr )*.86.5. D@.A' *T ^'.m{ g= g= t& X^.=` 96.06.a6.y5.b6.c6.d6.e6.f6.g6.B_ h6.}] ;~ (@ cC h> i6.j6.k6.l6.m6.n6.o6.p6.#X %5 q6.!6.T, r6.s6.t6.u6.v6.w6.x6.y6.z6.A6.B6.A6.C6.D6.E6.t@ F6.G6.H6.I6.J6._~ K6.#6.L6.M6.N6.O6.P6.Q6.R6.S6.F, T6.>6.U6.,6.V6.W6.X6.Y6.}f Z6.w. e~ -@ GS 24 mw *, r~ g{ e~ 54 (| `6.n$ n$ ~y l  N@ ES  7.                                                                                                                                                                                                                                                      ",
"                                                                                                                                                                                                   B* 3  ES .7.+7.@7.#7.0Y $7.QD %7.&7.*7.=7.-7.;7.>7.7@.,7.'7.o: ~(.!f i' &(.8) )7.*) x; !7.4V 3Q 3Q ~7.*- ]^ NE W<.L@.>y M@.@/ 3= :^ ;, ;, =- `> xR (@ ;G {7.]7.^7./7.,y &; (7._7.:7.<7.[7.}7.|7.17.27.37.47.57.67.77.87.97.07.a7.b7.N-.c7.d7.e7.f7.g7.h7.i7.j7.k7.l7.m7.n7.o7.R) p7.q7.r7.s7.t7.u7.v7.w7.x7.y7.z7.A7.B7.C7.D7.E7.F7.G7.H7.I7.t% J7.@6.K7.L7.M7.N7.O7.P7.Q7.R7.S7.T7.U7.V7.W7.X7.%9 Y7.Z7.z@.>G w, l' ^H }> I% `7. 8.Sa .8.p] U[ IC +8.H5 44 @8.S. N@ sg #8.                                                                                                                                                                                                                                                      ",
"                                                                                                                                                                                                   7q =p ES $8.3  OD %8./H k% r4.&8.*8.=8.h3.-8.h3.bW ;8.;8.>8.^7 %- *}.1=.n! ,8.9/.'8.)8.!8.t# IL b_ #. k1 E) dT I| ~8.Z) gB  , =, _Q *- =- =- 6. 2@ N$ {8.]8.z_ 5= Q  tK d^ ^8./8.(8.A)._8.:8.<8.[8.&. @] }8.T< 2- c@ h@ B4 h@ += *. :# t, |8.18.28.T< 38.R. 7& M  n  48.58.68.[F q/ 78.h1 Z) 88.98.08.a8.b8.<3.c8.nD nC d8.e8.f8.g8.h8.i8.J7.j8.k8.l8.b8.m8.n8.o8. @.P7.p8.q8.S7.r8.s8.t8.^@ A% S) q] g .g .KA #~ w, u8.Od  Z Wa 8) b].v8.-Z gq M/ w8.WC x8.R; )@ H  sg #8.                                                                                                                                                                                                                                                      ",
"                                                                                                                                                                                                      0_ ;+ }I ~6 )  y8.%].Qt !I z8.A8.B8.C8.D8.E8.F8.G8.H8.I8.J8.K8.P~ `@ M$ L8.M8.N8.R; O8.k: :# iW u).-] O= Qu P8.T> {<.V| 3= NL KB -] sw sw 6. Wt U) Q8.]M R8.S# 1U S8.e/.T8.U8.V8.W8.X8.Y8.Z8.`8. 9.p$ </ .9.t# !z O@ +9.+9.@9.#9.$9.%9.&9.*9.=9.-9.;9.>9.,9.'9.)9.!9.~9.{9.xw Ar ]9.U/.^9./9.(9._9.:9.<9.[9.}9.|9.19.29.39.49.59.69.79.89.99.09.a9.b9.c9.d9.e& e9.f9.g9.h9.i9.j9.k9.l9.60 0- m9.!I zd :w p: gq :^ n9. Z  Z U, uW o9.p9.M@.xn z_.q9.{ .7Q r9.yL 3  j: #                                                                                                                                                                                                                                                        ",
"                                                                                                                                                                                                            h+ S< ++ s9.4q p: 2H `x ~T t9.u9.v9.w9.x9.y9.z9.A9.B9.C9.D9.>~ K* f;.E9.i@ !z Ed n$ `. M  F9.G9.{*.+;.H9.I9.J9.=%..U .U K9.L9.PN M9.v| %8.zz S- '> N9.4> O9.P9.Q9.R9.S9.T9.U9.V9.W9.X9.Y9.T< R> s, >H m> 8Q Z9.;@ `9. 0..0.+0.@0.#0.$0.-U %0.&0.*0.=0.-0.;E '_ u).;0.u!.Q  >0.,0.%~ '0.)0.!0.~0.{0.]0.^0./0.(0._0.:0.<0.[0.}0.|0.10.20.30.40.50.60.70.80.90.00.a0.b0.c0.d0.e0.f0.#i U= g0.h0.&/.A@.i0.j0.k0.l0.BW M$ w3 e/.q=.^[.CB f(.`, %` m0./} /# 9^.ES 1  .                                                                                                                                                                                                                                                        ",
"                                                                                                                                                                                                            2V jR 3  n0.2H t& ;A $i 5^.5^.o0.p0.q0.r0.s0.t0.yW )6.a..y= &].NS )v u0.G  N@ g  d@ `. m  v0.`h w0.x0.T= K{ &; D@.:& :& y0.,f 6= z0.Hv }` Hv A0.B0.-G N'.C0.D0.'6.E0.F0.g{ Q~ ,$ += n  :# G0.:# s, >H w) LD M/ #~ #~ H0.I0.f8.J0.N[.h' V) K0.L0.M0.N0.O0.0- (@ o# /f o# VS DM 8u }- d$.p!.P0.Q0.R0.S0.T0.U0.V0.W0.X0.Y0.w}.Z0.`0.94.l= *(.H^. a..a.+a.@a.#a.$a.%a.Ru P= P= T= ]=.Q, 2= b: X{ CG q` M> Y~ @> >` H) *%.#!.&a.2. -` DM U> ,0.*a.=a.-a.k  k| ES V] zr                                                                                                                                                                                                                                                       ",
"                                                                                                                                                                                                            ;a.>a.,a.'a.)a.!a.~a.f~ T[ =E {a.]a.^a./a.(a._a.:a.&(.CG X&.C .:: `> <a.G  N@ l  d@ B4 n  [a.w0.w0.B(.E) mw GS sr ^@ '{ Id Z, %~ }a.DM |a.1a.2a.`# N$ E& 3a.wd 4a.5a.1Q 4C M/ 6a.9  2- T< 5& T<  - 7a.>H q/ t) )H %2 8a.9a.0a.aa.:% :% l- ba.ca.da.ea.fa.+~ A% uq Sb Sb F!.6C +%.&6 ga.C(.9u C(.ha.ha.ia.ja.ka.la.ma.na.oa.pa.qa.ra.sa.ta.v(._| ua.va.wa.xa.ya.j% =@ %' =- <& |z g= /Z 8~ N[.h+..~.;6 W$ cR K).S) 6m yD za.mK C% }'.TD p%.Aa.Ba.Ca.](.,a.$8.(}                                                                                                                                                                                                                                                          ",
"                                                                                                                                                                                                               Da.   Ea.LY *% Fa.C% <- RG :^ W%.V#.Ga.0j FX Ha.I) I) ay C) ;~ G) E9.f+ N@ ,@ 1- fV 34.Ia.Z, Zh Ja.86. > =- Ka.La.PT 0~.&p DC Bn Ma.Na.q~ Oa.dU +~.Pa.({.Qa.Ra.Sa.Ta.Ua.Va.Wa.4V Xa.An $` |- Ya.P$ R~ Za.]#.`a.J]. b..b.+b.@b.#b.$b.%b.&b.*b.=b.-b.;b.>b.,b.'b.ev Y] _G _=.)b.. .BX  i 2H !b.{@ )>.~b.{b.]b.^b./b.(b._b.:b.<b.[b.}b.|b.1] 3P }z 1b.2b.3b.E!.(@ A% 4b.5b.6b.7b.F@.:u 24 8b.9b.0b.ab.bb.-(._@ a..p].A' /~.{F 44 *>.cb.$H I@ =a.S. I=                                                                                                                                                                                                                                                                   ",
"                                                                                                                                                                                                                     b@.3  l  :# db.fv X& 4q 1> p] }E =E ~(.62.#!.#!.-G _=.sw _{ eb.G  H  d@ cb.*) l. v5.mR nv [E S@  > s*.wL fb.$-.gb.q> f{ f{ 0- _% *%.X&.hb.$5 -( y3.Wa.=) ib.jb.!z 9  r2.kb.x; vw q, q, ,= M/ [c X) lb.*T >` mb.&| nb._#.ob.qI pb.qb.rb.Q^ sb.tb.ub.vb.5S '= ~| *- *- ~| -] #* k' (| &2 q, ;= wb.xb.4A x) yb.zb.Ab.Bb.Cb.Db.Eb.Fb.sr 86.60 :- 6: *& FO ,_ 94.kJ h~ C, Gb.~| ;, ~| r~ L1 Hb.Ib.U:.Jb.X^ I%  Z Kb.01.`>.)8.6& G0.6q ,( 93 e@ U1                                                                                                                                                                                                                                                                   ",
"                                                                                                                                                                                                                     &+ ++ l  !z 2; Lb.sp aI p: M@.Mb.jI gB lI I) M$ V$ k% Nb.Ob.Pb.f+ N@ `. =) l. Qb.u5.1: v2.Rb.Sb.Tb.(& {6.Ub.Ub.Vb.IC 6, w, A% T! T! =G Wb.'<.Xb.Yb.Wa.T~ ]F 5& 2- m< )8.xD Q. B& db.db.=;.b: &' 1. Zb.@> ;| `b. c..c.+c.Bd Q+ =-.@c.#c.R^ $c.%c.ub.&c.*c.+r M* sw =c.0Q =c.j% .' f~ n: d= +*  ^.-c.;c.X#.>c.,c.'c.)c.!c.~c.{c.]c.^c./c.(c._c.:c.=& }J 2@ 94.<c.[c.}c.|c.^^ aj }] GH 1c.`,.2c.I^ Jb.3c.S,  Z 4c.5c. ,.v).6c.7c.['.8c.g+ yL ](.9c.                                                                                                                                                                                                                                                               ",
"                                                                                                                                                                                                                     *  l| H  Y. 44 S~ 0c.b: 4C 5Q Q< 6u ac.bc.w7 `@ cc.dc.ec.fc.gc.l  N@ [: hc.p%.p%.$%.C% r~ >G ic.jc.kc.d1.&D %~ lc.h. ;, s*.^@ mc.){ Hn P/ nc.oc.pc.6q c+.qc. [.a= '8.An `, P8.rc.sc.tc.uc.`# vc.wc.+!.(@ 6. xc.yc.zc.Ac.Bc.:% Cc.Dc.Ec.Fc.Gc.Hc. D Ic.=$ Jc.Kc.Lc.Mc.Nc.2o Oc.{( ts mw 4. h. C) hJ 9u VC Pc.Qc.Rc.Sc.Tc.Uc.Vc.Wc.Xc.Yc.Zc.`c.j% ss nw 64 U[ N@. d..d.IU N$ -%.O'.+d.@d.#d.$d.k@ A' L#.GH w,.%d.i( Z, gJ A& ^y *5 &d.H  .+ Tk *d.                                                                                                                                                                                                                                                               ",
"                                                                                                                                                                                                                     %t X1 )  `. !*.:z =d.gq N/ MT 4  I  /# -d.yD V$ ;d.KT >@ V# >d.l  N@ ,d.'d.#G T> 5; |m 1. ow gA rC 34 &6 u<.Zh ^[.D@.$' tr `> r< #' )v F{ .= 0= 2- n$ c@ 6q 1- D; m> wb./> 2; )d.eD A' z, 3+.>L x4 Y> /@ P= .9  ! g;.,(.@' !d.~d.M+ [@ #M {d.]d.^d.MP u> *T M~ /d.(d._d.Of :d.F@ =} Tr ^^ ^#.K{ 2P |; `h <d.~=.|s .; ss Qz [d.}d.|d.1d.2d.3d.-} F@ 4d./Z R} ~6.[9 p>.0Y jz ,_ N$ 5d.6d.7d.8d.9d.A' 0d.d= /> /> `, Z, gJ *5 ad.!$ bd.3  9^.cd.dd.                                                                                                                                                                                                                                                               ",
"                                                                                                                                                                                                                        &+ V; ed.<z Fa.B- fd.gB BS k/.gd.Z- c7.~H }z hd.v* lv /} '8.D; $H id.+}.*5 jd.4t Q$ 7z kd.6Q 44 _z N:.ld.+) md.nd.od./E pd.qd.Kw K9.*P 5& 5& .= h%  - (< rd.[y `S sd.td.ud.vd.wd.xd.yd.1F 1F zd.Ad.Bd.Cd.Dd.Ed.Fd.Gd.Hd.Id.Jd.Kd.Ld.Md.Nd.Od.Pd.Qd.Rd.Sd.Td.Ud.Vd.Wd.Xd.Yd.Zd.`d. e..e.+e.@e.#e.$e.%e.&e.St $& $-  M T[ *e.=e.-e.;e.>e.,e.'e.)e.!e.~e.{e.]e.^e./e.(e._e.:e.<e.[e.}e.Y$ |e.1e.2e.3e.J* t& bI t- T> ~*.z& 4e.0c.`s 3  k  k| dd.                                                                                                                                                                                                                                                               ",
"                                                                                                                                                                                                                              5e.zn )@ )@ 6e._# _# 7e.0' 0' EC .t 3Q MT !z J@ G+ x; m+ 4V 8e.M/ g{ *, Z, K| L( 9e.-` )$ W& )M p].a..0e.{P eV n< ae.be.ce.de.G+ G+ G+ s] p< ee.fe.<& ;~ |/ ge.he.yv ie.@t B% z_.@w 1w lu je.ke.le.me.ne.oe.pe.qe.re.se.te.ue.ve.ve.we.xe.ye.ze.Ae.Be.Ce.De.Ee.Fe.se.Ge.He.M].Ie.Je.Ke.Le.Me.,$.Ne.H* >= %= ,= 3= -T Oe.Pe.Qe.Re.Se.Te.Ue.Ve.We.Xe.Ye.Ze.`e. f.^L F, .f.+f.@f.v&.#f.*' =% AQ #/ mw Q= $f.~P QB 9_ Y. 6e.,' H  E4 %f.*d.                                                                                                                                                                                                                                                               ",
"                                                                                                                                                                                                                              &f.T. H  k  ++ ++ J+ t9 r- 9' vn l. Qb.*f.}! ,@ ,@ =f.q- U< -f.b: X) g{ Ia..: fb.EC NF ., BD )M zb.cc ;f.&_ cb.5& '@ Gd l  7u ,@ ^  ^  ]| >f.+] ,f.]z '{ >*.^` )` 9}.'f.;&.f= B% &- n^ dT )f.!f.FQ ~f.{f.N^ ]f.d` ]f.^f./f.(f._f._f.:f.<f.[f.(3.(3.}f.r% |f.Y0.1f.2f.wP 3f.4f.5f.6f.7f.8f.9f.N~ 0f.NL @* >= L= $= @* L1 LF Ou af.bf.cf.df.ef.3>.ff.gf.L^ x:.P7.hf.if.jf.ub.kf.l!.lf.<- e=  ' _G N* N* ^z %H MD 5J 7u 93 k  k  Tk %f.mf.                                                                                                                                                                                                                                                               ",
"                                                                                                                                                                                                                                 S-.4c S-._} _} s. q].`p nf.['.34.+,.=f.!z g  G  of.4V +,.pf.%2 t) A:.~F !a.qf.rf.kz J* 6P sf.tf.uf.vf.wf.&F j{ ,( S. 7u Y. j{ xf.yf.zf.Af.Bf.Cf.Hn  ~ -& Df.Ef.Ff.Gf.r> 1> l1.Hf.If.mA Jf.%K Kf.Lf.Mf.Nf.Of.Pf.Qf.Rf.Sf.Tf.Uf.Uf.Vf.Wf.Xf.Yf.Zf.`f. g..g.+g.@g.#g.$g.%g.&g.*g.*g.=g.-g.;g.>g.,g.'g.)g.!g.~g.{g.]g.^g.$D $D /g.(g._g.:g.<g.[g.}g.|g.1g.h9.w>.E, 2g.d3 3g.J. M:.4g.A_.OH 5g.3[.S[ S[ 6g.hA cb.}! )@ e@ ++ (} X1 7g.                                                                                                                                                                                                                                                                  ",
"                                                                                                                                                                                                                                          8g.k| 3  J+ ,( 9g.<z t- 0g.ag./} N@ G  bg.WB cg.B- d_ cJ H* Y; d^ 0& ~I .~ W{ $' dg.eg.fg.gg.f+ <  g  hg.EM lv !F fJ ;= ^7 ig.k).jg.)6.l@ Od bc tM 4[.NG <& 5. -%.kg.lg.mg.ng.og.pg.qg.rg.sg.tg.ug.vg.wg.xg.yg.zg.Ag.Ag.Bg.Cg.Dg.Eg.Fg.Gg.Hg.Ig.Jg.Kg.Lg.Mg.Ng.Og.Pg.Qg.Rg.Sg.Tg.Ug.Vg.Wg.Xg.Yg.Zg.`g.1`  h.I( I( .h.+h.@h.#h.$h.%h.&h.*h.Zi Zi e> =h.-h.;h.K).K).$) >h.E^ `=.MD fV hA 7& u, Ar l. UG l  E4 sg                                                                                                                                                                                                                                                                            ",
"                                                                                                                                                                                                                                          @, ,a../ ~6 )  !  R; ND aK +/ n$ N@ )@ bg.,h.p%.'h.f~ cJ =;.(P /* /* U* xR >*.E@.)h.~  <  :  H  !  f+ !z !z !z SS 4] $- Br 6'.,%.33.}> K).T, M> mw N* mw WR U) 2@ !h.~h.{h.JF ]h.^h./h.C).g> g> U@ Z/.(h.Z@ U:.C, _h.Be {d.V@ :h.<h.[h.7| }h.zc |h.1h.2h.3h.>& 4h.KH 5h.6h.7h.8h.9h.0h.ah.bh.ch.cC >%.M> dh.3> 9y .j eh.fh.gh.CU 7p s=.hh.;h.32 C, ih.0F _C I% S, jh.->.kh.lh.R. mh.)^ )^ 34.=f.=f.RB H  S< sg                                                                                                                                                                                                                                                                            ",
"                                                                                                                                                                                                                                          nh.,P }I _} H  H  4V #H *C oh.B4 H+ )@ ph.kK qh.(I .i =E t& PN rh.sh.th.uh.vh.wh.xh./# l  e@ d@ `. k: 6a.s] *>.yh.zh.Ah.Bh.Ch.22.<{ [> T, Pa.F .Dh.Eh.Fh.Gh.Hh.X7.Ih.Jh.Kh.Lh.Mh.Nh.Oh.Ph.Qh.Rh.Sh.Th.Uh. ).Vh.Wh.Xh.Yh.Zh.`h. i..i.+i.@i.#i.$i.%i.&i.*i.=i.-i.;i.>i.,i.'i.)i.!i.~i.{i.]i.^i./i.(i._i.:i.<i.[i.}i.[$ c' B& |i.4t 1i.@O 2i.3i.4i.nJ 5i.6i.7i.8i.w{.@&.9i.0i.ai.bi.ci.)^ QB 34.q- Z- +9.N@ k  sg                                                                                                                                                                                                                                                                            ",
"                                                                                                                                                                                                                                                   o. k  H  eV di.ei.`<.n$ N@ H  d@ >d.`. fi._G /f gi.hi.5A ii.ji.ki.y# li.t!.g  )@ 2- $H 7a.cg.mi.wb.dI ni.i).l@ ;| oi.pi.mz qi.]=.]^ 2=.ri.si.ti.ui.vi.wi.xi.yi.zi.Ai.Bi.[# Ci.Di.Ei.Fi.Gi.Hi.Ii.Ji.Ki.Li.Mi.Ni.Oi.Pi.Qi.Ri.Si.Ti.Ui.Vi.Wi.Xi.Yi.Zi.`i. j..j.+j.@j.#j.$j.%j.&j.*j.gj =j.-j.-j.;j.>j.,j.'j.)j.#;..i @3 !j./F ~j.{j.]j.^j.]j.^j.~# /j.(j._j.:j.<j.[j.}j.L*.|j.c@ K+ RB !F 1j.n. k  H  l|                                                                                                                                                                                                                                                                            ",
"                                                                                                                                                                                                                                                    7.l| I  *_ G= 2j.}m kv N@ l  l  N@ l  3j.*; $i O$ _# 1  1  |  :  <  G  G+ d@ B4 4j.E^ /P TS (> 1: q3.5j.6j.>` eD 7j.c= L= 8j.XX -, 9j.0j.Y$ l~ aj.bj.cj.dj.ej.LD L( m< 7  fj.gj.hj.ij.jj.kj.lj.mj.nj.oj.pj.qj._!.qj.rj.;c.sj.tj.w!.e^ ;A uj.vj.wj.xj.yj.zj.Aj.Bj.Cj.P+.Dj.Ej.Fj.^X Gj.Hj.vc Ij.Jj.-(.Kj.]/ #i Ol N* OH ~j.Lj.gz kh.Mj.Nj.Oj.Oj.Pj.~z Qj.Rj.Sj.Z/.M! Tj.&P Uj.Uj.4j.*~ TS +9.k  H+ S<                                                                                                                                                                                                                                                                            ",
"                                                                                                                                                                                                                                                    7.++ k  Vj.2j.Wj.Xj.,>.N@ <  l  N@ f+ Yj.Zj.rK `j._# ++ ++ ^  $t  k.b_ .k.+k.x) Z&.@k.#k.SG Z2 $k.%k.&k.*k.=k.+/.-k.%Q ;k.>k.,k.'k.)k.!k.~k.~k.{k.]k.^k./k.(k._k.L( :k.<k.[k.}k.|k.TS 1k.2k.3k.4k.5k.6k.7k.8k.9k.0k.ak.bk.ck.@# WB :L :^ dk.ek.fk.gk.hk.ik.jk.kk.lk.mk.nk.ok.pk.qk.rk.sk.tk.uk.vk.wk.xk.yk.zk.Ak.Bk.Ck.Dk.Ek.Fk.Gk.J>.Hk.Ik.Jk.Kk.:j.Lk.Mk.Nk.Ok.ID Pk.Qk.Rk.Sk.Tk.Uk.Vk.Wk.de.&` Xk.                                                                                                                                                                                                                                                                           ",
"                                                                                                                                                                                                                                                   =  Yk.Yk.|I QS A4 UG BS 4V R; eV Vj.Zk.EC `k. l.d+.<  J+ B4 .- Q~ ]P ~a.)b.Qt 4[.y<.x*.Y> A% -%.(@ aQ .l.6;.}E cj +l.|> @! @l.#l.$l.%l.&l.#$.-F *l.=l.-l.;l.)z fb.>H C(.w5.8u *H $i ;@ >l.,l.'l.)l.!l.~l.{l.]l.^l./l.(l._l.4( 8= +$.l$ MD :l.<l.[l.}l.|l.1l.2l.3l.4l.5l.6l.7l.8l.9l.0l.al.bl.cl.dl.el.fl.gl.hl.il.+} jl.kl.ll.ml.nl.nl.ol.'>.#$.pl.ql.;6 .2.rl.sl.tl.ul.1=.I) I) 1F L$ vl.A_ O. rK wl._} ~6 2V                                                                                                                                                                                                                                                                   ",
"                                                                                                                                                                                                                                                            V; j  k  G+ xl.$` a' #p yl.zl.Z- )@ k  H  g  `. n$ *% Bn _^.D% ,y OE 4* C) 1w _{ _{ :: :& :& .> p: &' CC _>.dC >%.Al.Bl.Cl.Dl.El.n^  ! Fl.:k.m< += :k.Gl.e( +# Hl.+# UN r> *& Il.O' L .O+ Jl.Kl.Ll.Ml.Nl.B, Ol.Pl.4( 8= Ql.Rl.Sl.Tl.K( |8.LD v7 Ul.Vl.Wl.[2.Xl.Yl.Zl.`l.>L dP  m.W+..m.+m.v}.@m.#m.v}.$m.%m.&m.tC 2@ *Q A' eD ;).ss |p ~I ID z, 4+.*m.$= Z% [2 m- z= :% (@ US =m.m^ s) *].-m.~6 ~6 ;m.                                                                                                                                                                                                                                                                  ",
"                                                                                                                                                                                                                                                            l| ES 3  /# >m.,m.6Q J= 'm.G= h{ G+ )@ 7u ;y b_ 7@ )m.') `% ]I !m./* F/.R, xR 6. m` ~m.NS NS >, mJ aI _Q '> {m.]m.^m./m.(m._m.:m.94.94.<m.[k.n  += 18.[m.ZN 2K }m.|m.1m.Af.2m.3m.4m.5m.6m.7m.8m.9m.0m.am.am.bm.cm.dm.em.fm.gm.hm.im.=_ T< 6c.RD jm.w7 km.lm.mm.nm.om.pm.qm.rm.sm.tm.um.vm.wm.xm.ym.zm.OJ Am.Bm.T) xR Cm.Dm.Em. $ Fm.C) Pu Gm.A, >` Hm.c1.Im.Jm.Km.z= Lm.94.<% Mm.Nm.J_.W%.0A ;  ;  Om.                                                                                                                                                                                                                                                                  ",
"                                                                                                                                                                                                                                                            l| ES =p )  bd.yl.Pm.R; ~y >d.G+ ++ ++ OD Qm.<C aa y| m9.(@ r< T#.|* C= Rm.8' Sm.Tm.Um.z) z) 5b.Vm.DO Wm.Xm.Ym.Zm.`m. n..n.+n.@n.'=.#n.$n.HA TS !=.V< Q@ f+.V$ %n.)M &n.*n.0(.=n.-n.;n.>n.,n.'n.Wg )n.!n.~n.[G {n.22.1` <{ l= r< 60 ]n.m< ^n.8c./n.z~.(n._n.:n.<n.[n.Rf.}n.|n.1n.2n.3n.4n.5n.6n.7n.8n.9n.X+.0n.y' j> an.bn.cn.dn.$k.4( en.fn.d& c& gn.hn.x$ in.jn.WN >1 kn.ln.mn.ji.`k.;y 6e.l| ;  nn.                                                                                                                                                                                                                                                                  ",
"                                                                                                                                                                                                                                                            *+ 3  ~6 )  ph.] .,h.on.H  k  =p ~6 )   + &H b: 1. pn.sr _{ G) T#.f(.2P &6 u<.MF  /.qn.i> i> &* 05.JU VB rn.sn.tn.un.Ut g= :w T< d  K+ QB ee.}, C(.Iv :> vn.WR Y> wU wn.;h.xn.yn.lO zn.An.Bn.Cn.Cn.Dn.En.En.Fn.Gn.d0 x4 l}.m` Ta 50 Hn.68.~z |8.lh.[m.In.^| t, Jn.Kn.Ln.Mn.H] Nn.zj.On.Pn.8} Qn.>~ =Q CG =G Rn.&* >` Sn.Tn.Un.Vn.J* Wn.en.Xn.d& Qb Yn.Zn.D/.`n. o.S/.S/..o.~z m  <  }  :  )  ++ ~6 +o.                                                                                                                                                                                                                                                                  ",
"                                                                                                                                                                                                                                                               &  zC r. @o.#o.$o.%o.T$ j  |  8@ G+ M  &o.W> W> %F .! @~ @~ *o.$- .; =o.-o.;o.>o.,o.'o.ab.)o.!o.~o.{o.]o.^o./o.(o.@7.qf.wC Ed += i@ _o._(.:o.t2.<o.[o.}o.|o.1o.2o.3o.4o.5o.6o.7o.8o.9o.0o.ao.bo.co.do.eo.fo.go.ho.io.jo.60 D@.50 ko.>f.xD lo.mo.no.oo.po.~P qo.ro.so.to.uo.vo.wo.xo.yo.zo.Ao.Bo.Co.F .Wm.>O z, >L Do.Eo.Fo.Go.2 .Ho.Io.Jo.Ko.Lo.Mo.No.Oo.Po.Qo.ad.+}.Ro.So.To.Uo.Vo.Wo.Xo.T. h! 4J                                                                                                                                                                                                                                                                   ",
"                                                                                                                                                                                                                                                                     iR Yo.93 f+ yL .+ k  /# Zo.O@ O@ of.{{ {{ }* +- Bn +O 1, 1, e^ `o.+! `/.A' Ha.G*.fd. p..p.+p.@p.#p.$p.%p.&p.+9.V# IL s] l$ 7a.sE 1> o: 8/.U) T@ *p.=p.-p.cn.;p.>p.,p.'p.)p.!p.~p.{p.8Z ]p.^p./p.(p._p.:p.<p.[p.}p.|p.)v sw yy dI 56.1p..~.W$ 2p.3p.G0.4p.5p.6p.7p.8p.9p.0p.ap.bp.cp.dp.ep.fp.-@ 6- gp.%n.hp.R% 4P 4P ip.jp.kp.lp.mp.za.#;.np.$&.e1.j. #* ss :u g[.op.pp.qp.4[.K{ rp.E4 g+ k| }I 8g.sp.                                                                                                                                                                                                                                                         ",
"                                                                                                                                                                                                                                                                     B* ,a.k  )  yL v# N@ f+ uR po.!P #G tp.:> {@ r~ =, zd L= up. : vp.>%.M> B' D5 zy h= wp.xp.yp.zp.Ap.hJ v0.$@.2* 2- o$ C; Ub.$-.w8.~( L/ Z{.m` 3P Bp.Cp.Dp.Ep.Fp.Gp.Hp.{%.v^ Gj.Ip.Jp.Kp.Lp.Mp.Np.Op.Pp.Qp.Rp.T+ Sp.~m..! 50 8..Py +; Tp.}> (! '> Up.n  In.l< [m.</ Vp.Wp.Xp.;].Yp.Zp.4f.`p. q..q.+q.DO =G m- :, 4P l}.@q.80.LP Ic.#q.p1 1p TN XX s*.Ws k% ss U= $q.i> A}.n9.4[.C) %q..+ g+ 3  3  ES P}.                                                                                                                                                                                                                                                         ",
"                                                                                                                                                                                                                                                                     ;+ ./ 3  )  '@ UG d+. $.&q.*q.[, =q.-q.OM ;q.2H *, |m bI Cz FX k}.%* N[.t; >q.,q.'q.)q.!q.~q.{q.]q.of.a+.cb.5& k: FC ^q./q.&*.(q._q.1b.:q..Z '= y0.<q.[q.}q.|q.le.1q.2q.3q.4q.5q.6q.dm 7q.Kp.8q.9q.0q.aq.bq.cq.dq.eq.<& -, vL Y-.f+.fq.,%.M> i< gq.ww hq.iq.$-.Ub.jq.kq.lq.mq.nq.oq.pq.qq.rq.sq.tq.uq.[> 5, )M O~.i5.vq.||.wq.xq.yq.zq.Aq.Bq.-, i. Cq.Dq.Eq.Fq.@` m, @> qp.NG U= Gq.E4 E4 k  k  ES B*                                                                                                                                                                                                                                                          ",
"                                                                                                                                                                                                                                                                     ;+ S< k  H  r# #U *_ !y e^ =% RG GT Rn.>O _! @w K{ j% ,y 4. XX . .mK `~ Y; Hq.Iq.o<.Jq.Kq.Lq.Mq.Nq.m< 9  t# `N ZN x) sK OG 'U Oq.Pq.Qq.Rq.sC 3! Ol '>.Sq.Tq.Uq.Vq.Wq.Xq.Ae.Yq.Zq.`q. r..r.+r.@r.EV ,X #r.1$.$r.%r.&r.Z] 0& h. h. ;, *r.kJ -^ =r.[].;= b= '^ +%.!=.v!.-r.;r.>r.,r.'r.)r.!r.~r.I3.{r.]r.^r.Q+ /r.X> Z] SY G- +9 t[.(r._r.:r.<r.(% (% [r.}r.|r.1r.2r.,~ z, o4.=` CX 3r.g+ g+ 9^.k  ./ Q}.                                                                                                                                                                                                                                                         ",
"                                                                                                                                                                                                                                                                     V] S< T. H+ >@ 4r.1j.Xa.bQ R{.5r.6r.Y~ ,~ 4~ n7 $* 0& K{ R, {-.x, g{ @t X) 7r.8r.9r.0r.ar.Q> 7a.5& s# s# >Q `N <k.;_.br.q=.q=.cr.dr.er.fr.gr.d~ ts s$ n^ ,(.hr.ir.jr.kr.lr.l8.mr.y@ nr. r.or.pr.qr.rr.sr.v= 04 tr.ur..i /* @w -, i. {-.Rn.3# vr.wr.tp.2/ Ov 66.m7 |* [F xr..9.@$.F/.4* yr.zr.Ar.Br.Cr.Dr.JF Er.zR F@..> ay Y> |: Fr.Gr.Hr.Ir.<^.r&.Jr.Kr.Lr.Mr.Nr.,~ PW 2=.^9 (Q Or.g+ 93 .+ k  3  Q}.                                                                                                                                                                                                                                                         ",
"                                                                                                                                                                                                                                                               Pr.Qr.S$ B+ ,>.|. V& Rr.8q Sr.Tr.B^ Ur.Vr.Wr.KE Xr.@w :u C) Yr.Zr.`r. s.Nm.Aj |p .s.+s.@s.#s.$s.MD  - *f.cg.4V -P %s.G= &s.*s.=s.-s.;s.>s.,s.'s.)s.!s.~s.Jw N. N. |$ {s.]s.^s.Pp.lr.l8./s.G6.`5.u% pe.(s._s.:s.<s.[s.}s.|s.a5.{H %_ 1s.2s.<2 /*.g3 3s.4s.66.St 5s.6s.{G E{ gA fb.@,.7s.[2 8s.9s.0s.as.bs.cs.^r.Qb ds.es.fs.gs.hs.B@.is.js.ks.ls.ms.ns.os.ps.qs.rs.ss.ts.us.vs.ws.xs.t~.ys.H  g+ k  k  =p i+                                                                                                                                                                                                                                                          ",
"                                                                                                                                                                                                                                                      zs.~6 S< T. k  Y1 ae.Hw ['.`- |q Ia.As.Zb.y, I% HX D) q> f{ Qt Sb !I Bs.Cs.Ds.Es.Fs.sw `> Gs.Hs.Is.Js.o> 2- 2- ag.;= Lb.8= ,^ dI Ks.Ls.Ms.Ns.Os.Ps.Qs.Rs.t8 DF Ss.Ts.^f  9 Us.L. Vs.Ws.Xs.Z5.)- Ys.J6.Z5.Zs.`s. t..t.+t.@t.#t.$t.m- 5~ 8) M> M> y, u(.%t.&t.*t.=t.)>.-t.;t.9.. ~ m` Pm.%G TC 6@ ,$ >t.,t.'t.)t.!t.~t.U@ m!.{t.]t.S+.^t.}..a}./t.(t._t.G] :t.<t.C0 [t.}t.|t.1t.2t.!Q 3t. $.Y. 4t.<  N@ N@ k  3  ~6 b@.                                                                                                                                                                                                                                                         ",
"                                                                                                                                                                                                                                                      iR ~6 3  3  9^.t~ q  N8.wR p- -t.%T 5t.k@ M> >L 6t.U[ f{ &' ts (| wx 7t.8t.9t.0t.md.>~ #' at.*. xr.9  o> 6q R> #H d= q, K= Y% 3B bt.ct.dt.et.ft.ux C^ gt.ht.it.jt.kt.Q=  ^ h6.Vs.Vs.lt.mt.Z5.nt.ot.J6. 6.pt.qt.rt.st.tt.94.6. ^@ tC #!.CG >L ,~ M> ut.%t.T+ vt.wt.ov ,f <^ Z>  ~ L* xt.iI v).L( <k.*. yt./  ~  zt.At.l).$_ Bt.Ct.Ct.Dt.Et.*T Ft.Gt.)b Ht.=e It.Jt.Kt.Lt.;| PW Mt.hA RB /} 8@ OD N@ N@ l  H  3  ~6 i+                                                                                                                                                                                                                                                          ",
"                                                                                                                                                                                                                                                      ,P ;  ~6 k  t~ n. yC +, Nt.Ot.Pt.Qt.Rt.St.7. Tt.-E >U Ut.q{.Vt.Wt.Xt.Yt.Zt.`t. u..u.3=.+u.'1.Zs @u.4V #u.$u.%u.&u.*u.=u.X^.4- IM -u.;u.>u.,u.'u.8~ IC )u.!u.~u.{u.]u.^u./u.(u._u.:u.<u.[u.}u.|u.1u.2u.3u.4u.>p.5u.6u.7u._% 1=.U].8u.zK 9u.0u.au.bu.cu.du.eu.fu.gu.#- r- hu.iu.ju.ku.lu.)[ W$.mu.Ut x| nu.N8.@] ou.pu.qu.ru.su.tu.uu.vu.wu.xu.yu.zu.Au.N(.Bu.Cu.Du.Eu.Fu.Gu.Hu.Iu.Q. W, Ju.Ku.=P Lu.Mu.Mu.Nu.H+ ES B*                                                                                                                                                                                                                                                          ",
"                                                                                                                                                                                                                                                      h+ ;  ;  8@ !y 3V yl.#>.Ou.W[.1` e1 Pu.Qc.5r.us nA V) 8- -U pJ PY PY Qu.Ru.g( Su.'^ ,m.ei.-t.Z, 76.a' )H Bn &x <2 Z> (% X$.'d.Tu.Uu.Vu.Wu.Xu.Yu.q] 4* 4[.Zu.`u. v..v.+v.@v.<8.#v.$v.%v.&v.*v.=v.-v.;v.>v.Ep.,v.Wu.'v.)v.T, W$ !v.~v.{v.]v.^v.6; d= /v.],.(v._v.:v.6; %k.<v.[v.1h.}v.|v.`; .U ^^ :: P! %O `- *f.ZN 1v.2v.3v.4v.5v.6v.7v.%<.<h.8v.FQ hf.9v.0v.t~.c+ J* av.bv.cv.`- |, dv.OF ev.fv.q# ~| =- ^D |I k  gv.                                                                                                                                                                                                                                                         ",
"                                                                                                                                                                                                                                                      S< l| ;  _# 'm.hv.aK a' !a.iv.N+ A, jv.),.{C Lb.kv.lv.N$ mv.nv.D2.ov.pv.#H qv..G _z rv.gJ }'.DM sv.vw &, C% 3= tv.aQ x. uv.vv..; wv.xv.>: yv.zv.VS /f 54 V* LF Av.q<.Bv.f8.Cv.Dv.Ev.Fv.xR =m.y. Gv.Hv.Iv.Jv.Kv.Lv.Mv.Nv.Y~ dC [..Ov.Pv.9}.Qv.]C Nu Rv.Sv.Tv.Uv.mJ JA /Q Vv.Wv.Xv.Yv.Zv.k( `; ^^ L* _{ ]^ hc.qC w) </ 18.18.LD %G `v. w..w.+w.@w.#w.$w.%w.&w.t4 NF r~ _o.*w.u* 3& #-.#-.P] |- CB .F tK tK =w.aA k  -w.                                                                                                                                                                                                                                                         ",
"                                                                                                                                                                                                                                                      S< '( 1  A4 qf.PG Q$ t& !(.;w.>w.L#._: 72.&O >U ,w.'w.I].)w.!w.c&.~w.{w.]w.DX ^w.1j.T~ |u /w.rv.b' 4t xr 1> kz (w._w.:w.<w.[w.(> }w.|w.1w.2w.3w.uv 1. *].TI 5^.4w.5w.6w.I:.7w.8w.9w.0w.aw.bw.cw.dw.ew.fw.gw.hw.iw.jw.kw.lw.<7.mw.nw.ow.pw.;E qw.e1.rw.sw.tw.uw.vw.ww.7/.xw.yw.zw.Aw.Bw.Cw.Dw.Ew.Fw.Gw.Og H! H5 :z _o.4u T> [a.W, Hw.Iw.Jw.Kw.Lw.Mw.Nw.Ow.Pw.3u 8' Qw.}z MS Rw.'>.Sw.Tw.v| P] vD /Q ts N* W%.{P Uw.Vw.p. B*                                                                                                                                                                                                                                                    ",
"                                                                                                                                                                                                                                                      S< 1  1  t. f+.&x QG mJ z| OG ,y Qt :t l- N$ N$ Cf.#>.q~.Z- Ww.Xw.Yw.Zw.d@ 8@ d@ `w.R> )z  ,.vw fv B% Sb 4[.q=. x..x.gk +x.@x.w5.#x.$x.%x.W6.&x.K1 5( *x.s*.i. h. k' CC 6, =x.P7.-x.;x.>x.CI jq ,x.a- 'x.9-.)x.m= O0.!x.~x.{x.]x.^x.&' N@.X&.-G xR /x.(x.6| _x.:x.]G <x.v8.jm.[x.}x.|x.1x.2x.3x.|; |; +$.gq o: &, @/ -T <- u5.r, m> @8.LB Q; z; 7e.4- a' &6 4x.5= iK &(.h' ay 3@ Y> 2@ 5x.b' |* 6x./f /f 7x.Qs.Y^ 8x.!  ~6 T.                                                                                                                                                                                                                                                 ",
"                                                                                                                                                                                                                                                      Tk |  1  9x.%}.X& sp -Z /* 4[./f 54 Dx 0- -%.xR 0x._(.ax.Vj.k  k  k  N@ l  f+ G+ n$ ~P >H Ia.]<.fv C^ nw Sb Aj bx.,4.k+.cx.dx.Hv ex.fx.gx.hx.ix.qt @- >G sw s$ L* =E t4  , jx.rD kx.lx.mx. _.g> nx.S* ]h h6.2] Tb.5. ox.px.qx.rx.GH zW z| #% y= 9- sx.tx.^X ux.vx.wx.xx.yx.a6.dU zx.Ax.Bx.Cx.Dx.Ex.Fx.%& s) T[ CC Az @* @* >f m> I! J! k$ .] Nk ,f tp.m7 P:.}` Gx.Hx.Ix.%n.:, S) f;.V$ Jx.3u Kx.vv.Lx.PG UN m^ 2:.Mx.d@ ES T.                                                                                                                                                                                                                                                 ",
"                                                                                                                                                                                                                                                      Tk '( 1  Nx.Ox.X<.{> =E /f :O xr aI FX j1 Px.Qx.Rx.Rr.Wa.7@ H  N@ N@ G+ uM 9_ Sx.Tx.(< Ux.Lx.QG Bn *, l' #i o# Vx.Wx.Xx.Yx.nZ Hv Zx.`x. y..y.+y.PS *, `! .U -] ;~ <! @y.2:.#y.$y.%y.&y.*y.C2.K. =y.-y.;y.>y.,y.'y.)y.!y.~y.{y.]y.^y./y.(y.C@.Wt dZ _y.:y.<y.[y.}y.|y.C<.=].1y.[x.2y.3y.4y.5y.6y.7y.8y.9y.|v.E .0y.ay.,= 1, q~.F^ F^ SC k$ T/.Qb.by.P~ 1p.cy.dy.ey.fy.gy.L8._% U) +~ 6m hy.+$.mi.'d.0q vw {` U= tM iy.B4 3  ~6                                                                                                                                                                                                                                                 ",
"                                                                                                                                                                                                                                                      I= k  1  2v.jy.C) (Q W> *H Lx.ky.di.ly.9_ t~ ~y 8@ H  N@ N@ l  7^.EM my.#U DX ny.:u ^f ^f 0& ^f @3 #i l' 3! 4* oy.py.qy.ry.sy.u2.2c ty.iF uy.vy.i. Qt %].WR _& .! M] 3+.dC FD by b: wy.xy.yy.;- zy.Ay.By.xI Cy.Dy.Ey.Fy.3! N* Gy.Hy.Rp.Iy.Jy.^@ a- 7/.Ky.Ly.My.5~ T@ V$ 9..A% f;.Ny.Oy.Py.Qy.Ry.Sy.Ty.Uy.Vy.Wy.PW QY zd g= HM &~ gJ  ,.F^ Xy.Yy.C5 86.U) yH `(.Zy.w_.`y.E- *x.Q%. z..z.+z.W& db.fJ 3u $` 8..Y] ev @z.~y 0@ ;+                                                                                                                                                                                                                                                 ",
"                                                                                                                                                                                                                                                      I= k  |  #z.3P -, Aj UN +}.6Q Gw Gw A; l  N@ H  H  [  N@ 7u G+ Oa ^<.$z.Ar 2q %z.#* Qt ^f Z] ts uq nw n: +' q[ &z.jr.*z.=z.-z.`9 ;z.>z.}} ,z.'z.:u d~ OG W{ _& r=.Y~ N> cC w{.2. 2> )z.!z.Z$ ~z.{z.]z.^z./z.Bv.ih.(z._z.#3 Q= :z.42 qI != <z._{ 1] [z.}z.|z./C ;f.1z.2z.3z.G) `> (% 4z.f> 5z.6z.}r 7z.8z.9z.M> A' *x ^1 NF ^> &6 (>.0z.K| L( az.IU r=.+9 z' U@ bz.cz.xs.+- B% 2j.dz.$O `x Aj OG mJ 3u $` ez.F@.~I fz.~y gz.B*                                                                                                                                                                                                                                                 ",
"                                                                                                                                                                                                                                                      T. |  1  hz.`; &- tK Ux.iz.gd.on.on.Vj. O H  H  )@ >d.>d.~y V# +G t] *) 3& v!..[.uq #i 3! }E >G J_.1> s) nw .' jz.kG kz.lz.mz.%& nz.oz.nD pz.qz.#i 6, rz.3P ^^ `; Wm.sz.B0.tz.Y; X) uz._7.2r.vz.wz.xz.yz.zz.Az.Bz.Cz.Dz.q=.tw Ez.Fz.Gz.Hz.Iz.s*.i. Jz.Kz.^/ Lz.Mz.Nz.Oz.Pz.Qz.Rz.Sz.Tz.Uz.Vz.Wz.C:.Xz.Yz.Zz.iz |S `z. A. A.^x.(M 8' .A.+A.@A.#A.$A.%A.&A.*A.=A.-A.;A.G9._^.D% ax.F^ ly..Z #&.C .>A.'^ vw t~.@w *y ,A.'A.&# )A.                                                                                                                                                                                                                                                ",
"                                                                                                                                                                                                                                                      S< |  1  !A.~A.Qu {A.]A.N@ k  H+ Gd L@ k  k  H  ph.0' OF $` DC _w _w %_.t) t) 5* F@.OE uq nz #- v2.L9..> ~m.WR %9 ^A./A.(A.X^.&2 _A.:A.<A.[A.}A.p: X) &E +9 +9 A% zR d_ d_ |A.;6 @/.1A.qi.by +' 2A.:, Y<.jh.$' 1] ,K 3A.4A.5A.6A.S8.N. s$ jz L$ +~.j' M/ 7~ 7A.8A.9A.9A.0A.aA.bA.cA.dA.eA.fA.gA.hA.iA.jA.kA.$i k' K: 0, lA.(! mA.1y.nA.oA.{{ pA.;:.qA.rA.sA.tA.uA.vA.wA.'^ 66.xA.$%.yA.zA.O+ AA.BA.%%.76.xA.+z.Z2 CA.DA.EA..H FA._} X1                                                                                                                                                                                                                                        ",
"                                                                                                                                                                                                                                                      T. I  l| GA.lu 3P 3P HA.N@ k  H  H+ Gd H  k  k  I{ 4] 0' fJ mK X) g{ mK G! =E =` %' ss mw xC IA.v2.JA.E# 5. 5. KA.+` LA.MA.CX .i NA.OA.7^ PA.QA.1. 8~ Y{.A% (@ 2@ ~I ~6.q> o{.bc .}.RA.CC 7~ {g %&.=G m! J) 8% a- SY SA.TA.UA..).D .~| 3P BW n! 8) l}.8, {b VA.WA.XA./, YA.ZA.`A. B..B.+B.]$.75 @B.#B.$B.83 ~g 1p nL $_ m!.(! X&.BW ll.%B.|; &B.*B.qA.=B.-B.;B.]t.>B.,B.46.eJ -% 3= 26.p) $_ 9d.'B.m7 m7 >f .G #G )B.jz H- !B.~B.h! }I {B.                                                                                                                                                                                                                                    ",
"                                                                                                                                                                                                                                             (} 0@ )  UG O@ 6e.]B.^B.3P /B.(B.N@ fR 1j.E% _B.!F SB )z -P 8y 9= JM +- Bn Bn uv b: 6, $i Qt d~ uq bI e^ =% RF $' _& L* B0.cC dC :B.Cz bI <B.[B.}B.|B.1B.X) g{ 2B.V) JP T@ K{ ~6.~g Xr.4~ y4 3B.W) ~g 3. {-.T@ L$ 4B.5B.6B.7B.8B.9B.0B.aB.~/ b0 bB.d0 y, M> cB.%2 #~ dB.eB.fB.gB.hB.iB.jB.kB.lB.mB.nB.oB.pB.qB.rB.sB.tB.uB. }.Y{ l).vB.wB.xB.0u.yB.zB.AB.BB.CB.DB.EB.FB.~].GB.HB.>_..[.|- V< IB.'M l, u> JB.gJ ,0.gJ !7.Nk KB.h' ;G <2 LB.)  ~6 MB.                                                                                                                                                                                                                                    ",
"                                                                                                                                                                                                                                          NB.OB.++ l  f( N8.FC PB.Mm.94.QB.RB. O SB.TB.UB.PG ND Y, !*.s- 1, nK 4- Bn =, 6; &2 3! @3 F/. ,  , =, 54 ts uq :O s*.*- ~| s$ r=.:: /E C% NL VB.WB.'6.XB.YB.NF L/ ZB.I% b].#X Z; mw mw GS q[ 4* 54 c| p1 ~g 6t.BW m! `B. C.%w .C.+C.#;.:O @C.6! 7! ._.yS ;(.n@ 6b.*y _G #C.$C.%C.&C.*C.=C.Lx.-C.;C.>C.,C.'C.)C.kj !C.~C.{C.}z.Qb U@ B! ]C.^C./C.(C.#% V$ T) _C.:C.<C.[C.oD }C.|C.1C.C) j% 7z Lb.6* lG A) a}.2C.$G ,0.`>.^9.3C.u; =G E& :2 4C.k  74.zr                                                                                                                                                                                                                                     ",
"                                                                                                                                                                                                                                          zr 0_ |  :  Ar !y %H 5C.6C.sr E@.x# g  #U 7C.Q$ +}.OF 44 v!.G* 1, )$ 8= e^ +- C% s) 4* uq k' 4C I( |m 4[.K{ Qt nw ss k% #/ %' =-  > OS +- g= 8C.9C.0C.aC.bC..j 2= _z.q` CG p~ n7 cC.24 mw e~ f~ c| _n P_ Ug 5S C@.L8.dC.O(.J/.eC.fC.gC.De hC.Iy.Be fG Y>.;(.p) iC.s*.l( jC.kC.>].lC.mC.$%.GJ nC.$% V$ z% :% oC.oC.pC.e& @f.;- |@ IF f> qC.rC.i}.S$.D& Wt 1@ 0~.v8 sC.tC.uC.vC.wC.xC.X> GS ~a.Q@ yC.x' A) >%.c_.(>.(> <,.GL x; 'f X&.+!.t[.zC.N@ 3  T-.                                                                                                                                                                                                                                    ",
"                                                                                                                                                                                                                                          zr 0_ |  )  Vj.DX j{ #n.2F dZ E@.AC.3- @8.*C BC.dJ 0' ax.wR pA ~(.6P 6P H* e^ 3= Fm.Ws &- OG g{ I( ^1 k' 4[./f CC.DC.R4 EC.FC.GC.HC.IC.JC.6; 20 KC.LC.MC.NC.|:.9Y OC.LE PC.PC..> NS ;%.)*.@3 .' QC.RC.SC.TC.UC.VC.WC.XC.YC.ZC.`C. D.IX O-..D.+D.@D.(*.l, Y{ #D.i~.$D.%D.&D.*D.=D.-D.;D.Q} ]1 >D.,D.'D.)D.!D.a...~.~D.{D.+& ]D.^D./D.(D._D.a[.S+ :D.>*..! _& O. UN <D.[D.}D.|D.1D.2D.3D.4D.5D.v2.6D.7D.8D.eB 9D.G!.ay.0D.aD.fI bD.#% E& cD.dD.N@ ES eD.                                                                                                                                                                                                                                    ",
"                                                                                                                                                                                                                                          P{.V] 1  )  xw Y#.cb.ZF  ~ 60 fD.1! &F gD.gD.=) SC 3u %T !=.74 0& ss K{ NL $= hD..> /@ $' 4. I( |m t4 zd C^ -T iD.jD.UY xn.&Z kD.9}.lD.mD.C^ Az .> NS O-.>, K* aQ }J *, :w r~ #% BW J) Y> O= |] nD.oD.2m pD.yV qD.rD.-: sD.l] tD.uD.%n.#% #% q` jj n! c% `i N~ g> -(.n@ vD.wD.+T xD.yD.X) && zD.AD.BD.CD.DD.y' ED.5> k, :@ FD.GD.L2.HD.ID.JD.yS KD.^f 0& mw 50 ,` o7 LD.MD.ND.OD.PD.QD.RD.SD.|, TD.JC.UD.sp VD.WD.c] GC t9 vi v7 Y> >, XD..*.H  ./ !6                                                                                                                                                                                                                                     ",
"                                                                                                                                                                                                                                          7q ;  ~6 <  N8.<z Hw YD.@t.E@.WR .k.u, ZD.Wa.s] *~ }* Z, m7 2:.*; *; ss C^ $= ,= .> E@._& $*  , NF C^ zd ]1 8=.`D. E.P| DI xn..E.|c +E.@E.zd ^1 s$ ^^ *- >*. ~ x*.;%.*, 5- cI c}.S, T, T) #' k1 #E.$E.n-.3>.iU v^ y^ O).x^ P).tD.%E.M$ 5~ #!.h+.p~ CG A) k, n@ f> B<.Z@ &E.*E.=E.-E.;E.8~ JA >E.,E.U3.'E.)E.s> S  !E.{'.v> ~E.{E.Mn.]E.^E.qI [j.=T 0& Z] GS |p.9..Y> >A.!=./E.(E._E.:E.<E.[E.F5 $G Z% ., fv }E.lV |& Wm.4[.#* :u o/ -, Sw..*.T$ ~6 zr                                                                                                                                                                                                                                     ",
"                                                                                                                                                                                                                                          ,=../ k  )@ gW |E.yf.1E.2E.(@ NS 3E.*) 4V |u $H W,  ] eJ 76.y| i. &- .0 C% ,= xC >*.`> 1w 8K zd Az vx ^1 g= zd 4E.5E.6E.7E.8E.x] 9E.0E.aE.cJ M= <& 1] (& +9 0- 3@ ]6 7x.') 8..c}.I% T, ,_ #' L. bE.cE.dE.eE.fE.gE.hE.iE.jE.kE.lE.mE.4P BW nE.oE.pE.qE.rE.^A.^` DI {d.{'.sE.tE.uE.vE.wE.&p :- xE.yE.zE.AE.BE.CE.DE.EE.qM Y@ FE.GE.e, HE.IE._C JE.AK F@..0 Q= -%.N$ U) KE.+%.LE.ME.F1 NE. C.OE.x_ gJ )$ -% PE.QE._@ Y>.yd.,y ~I OG &a.K{ l@.RE.r~.uM o.                                                                                                                                                                                                                                     ",
"                                                                                                                                                                                                                                    ,P b@.S$ (<.e+ hW SE.TE.=d.Qm K; UE.H' !|.G*.XD ib.)z !F VE.2H mK 8j._Q kz WE.C .U= r4.XE.YE.L@.M8.o'.r7 0y.ZE.`E. F.LR .F.+F.@F.#F.$F.{:.%F.&F.*F.=F.Z7.Dx tw -F.0Y np.;F.>F.,F.'F.nA )F.!F.D@.60 tr ~F.{F.]F.^F./F.(F._F.:F.<F.[F.}F.|F. # `@ 1F.2F.3F.4F.5F.6F.7F.8F.9F.0F.aF.bF.cF.dF.eF.%% fF.gF.hF.iF.jF.kF.lF.mF.nF.oF.pF.qF.rF.sF.tF.uF.&t.1d vF.m^ (| %2 =y =%.q7 %8.&~ 34 wF.xF.>u.yF.zF.][ AF.'^ BF.CF.DF.EF.D! N! 0& F@.A_ =P .- %, FF.4..GF.HF.IF.JF.Q}.                                                                                                                                                                                                                           ",
"                                                                                                                                                                                                                                 ;  ./ 74.93 xL qX `#.s- *5 #J An l. t] D= a!.T[ d5.0= !^ QB m+.:O l' G! IM iD KF.^@ s*.'= t~.w5.2P ba m- 0- K* ,~ N> .}.>` sL q[ G@ 6, L/ sP LF.!} MF.~#.NF.I(  , && /Z s_ OF.]C.`C PF.Ha.Q= av W{ Z> sr L)..9 +^ QF.=} w8 %a.%a.}] #^.]h e{.I) hp.RF.SF.Hj.Ij.Cn.7z.kC TF.UF.VF.WF.XF.Ou a^.YF._@ Y{ .}.M* /& ZF.`F. G..G.+G.@G.#G.,p.$G.X@ 32 %G.ih.Nl.&G.n: 7~ sP 4* ts GS >v VC *G.=G.-G.Wu.;G.>G.z_ 0u (>.m7  /.,G.`(.U@ /r.^f :u 'G.&. )G.!G.TN s*.cT ~G.++ ;  gv.                                                                                                                                                                                                                           ",
"                                                                                                                                                                                                                                 V] ./ '( H+ {G. $.s~ 7e.OF F= Rr.]G.W, DX ^G.p: &p 0= /G.SS (G.&; j% q] _G.v2.-*.G) ;, &- !b.Zh |o :G.BW yD 2@ A' M-.*T A) )U l' D) ~( 3> [9 <G.[G.VI }G.'v |m KA L/ zd vx |G.UY !` 1G.62.N* GF 6. Z> +9 `> Z] -} =@  a._G d^ Tr ~| E) ~| Jc.Zb.I% 2G.3G.4G.5G.6G.7G.6^ 8G.9G.0G.aG.<].bG.cG.dG.'M p) O+ 0% 9% eG.fG..4.gG.hG.iG.3].n-.jG.~z.q@ kG.lG.mG.Th.U[ *& JA ts .0 k% VE.x_ h1 nG.oG.pG.qG.rG.y_ p!.}; Zh U#.sG./` k, ]/.GS #* 4..&. o$ )m.tG.*y Fw.ii.1  0_ P{.                                                                                                                                                                                                                           ",
"                                                                                                                                                                                                                                 ;  T$ 0@ Tk uG.6..vG.G= ei.7Q wG.xG.A; yG.f+.UN zG.*>.u, 7c.cA -, s*.u0 OH 5r.AG.^^ o/ :u uL BG.Qw.CG.C@.y. T) Od Od A' DG.EG.FG.GG.HG.IG.JG.KG.LG.MG.NG.OG.&& [c @t 5- 8=.PG.QG.kZ RG.h3 ZB.ZB.SG.TG.UG.VG.WG.XG.YG.ZG.`G. H..H.+H.@H.#H.$H.%H.&H.*H.=H.-H.;H.>H.,H.'H.)H.!H.Zh.;I ~H.{H.]H.^H./H.Hz.(H._H.:H.<H.[H.}H.|H.1H.2H.3H.4H.5H.6H.7H.8H.5d 9H.k6 &E =` }E c[.@w s*.)[ 0H.^s aH.bH.cH.dH.eH.fH.R/ gH../.BF.hH.o) ]'.iH.~I |p jH.cv.x) kH.i% 7P lH.AC 1  z* *                                                                                                                                                                                                                             ",
"                                                                                                                                                                                                                                 _} 9^.~6 3  t).93 )@ ^<.yr mH.nH.oH.3q GM |'.pH.!*.t- #>.,m.'(.A% ){ 86.`; Qu i. &x +- +- SY 3@ x*.!F.Dz AQ >M 60 `> _{ qH.#_..2.-( rH.sH.sH.tH.uH.vH.wH.ur g= g= zd g= :w xH.yH.Iy.zH.rF .v.AH.BH.ku CH.DH.xP EH.FH.GH.HH.IH.JH.KH.LH.MH.)2.NH.OH.PH.QH.RH.SH.TH.UH.VH.WH.XH.Oz YH.ZH.~>.cB.`H. I..I.+I.@I.#} #I.$I.L6.%I.&I.*I.=I.-I.;I.>I.;9 ,I.7` 0C.'I.)I.1=.y= )M R% jz V) y= T) !I.~I.{I.]I.^I./I.(I._I.`_ dI :I.y| tw =U I) R% <I.O. gq _w [I.((.}I.N@ =p sg @+                                                                                                                                                                                                                            ",
"                                                                                                                                                                                                                                 k| .+ ES 3  |I.H  N@ i{ EM 1I.>) DC  ' GM bg.2I.3I.4I._z S~ I).6. /@ 86.s*.=- -, hD.u& 1, Ta 6. E@.Ta zd ux 1, 6. G) F) ]=.;6 =Q 8) o' ov.P| 5I.6I.7I.iJ <- C^ C^ vx X] 6; 8I.>~.a[.9I.qC.0I.aI.bI.cI.dI.eI.fI.gI._t.Mn.hI.iI.jI.kI.kI.lI.mI.nI.nI.oI.pI.qI.rI.sI.tI.#~ q> 3> zy xn G- e{.L$ uI.vI.d$.wI.xI.yI.!O zI.AI.BI.CI.DI._% EI.FI.L6.GI.HI.II.JI.KI.y= jz `@ R% L$ BW ,_ l- T) 2F -% +* LI.MI.NI.OI.PI.qt `_ =E w. ~6.O-.jj I) r&.by )H M}.QB lv d@ k  3  ~6 =                                                                                                                                                                                                                             ",
"                                                                                                                                                                                                                                 k| .+ 3  k  RE.QI.U# 1I.i{ 5..B; 7z #= V| RI.SI.81._z `, vD E|.86.+9 ){  > `; Z; 'I &x R=.TI.!{ L<.UI.B% vx I* (@ 86.T%.SY Wy.VI.WI.XI.YI.bb.ZI.`I.%~ }'.bx yy z_.bQ Bn Bn  J..J.Ey.+J.@J.6M #J.$J.(z.B!.%J.&J.*J.=J.-J.;J.>J.,J.'J.A1.)J.!J.~J.{J.]J.^J./J.(J._J.f} 1p n/ :J.<J.[J.s; }J.R~.|J.r;. r 1J.2J.3J.4J.5J.6J./~ 7J.8J.9J.0J.aJ.bJ.cJ.dJ.eJ.qF fJ.R% jj BW R% q` +~.T@ yD 6m r&. 0 4B LI.gJ.*!.hJ.iJ.k^ `_ 'z z| :O b5.M$ m! N'.p] 1> M}.h% 2- jJ.h  T$ =p @                                                                                                                                                                                                                             ",
"                                                                                                                                                                                                                                 k  T. ~6 NB kJ.o1 +3 97.c+.}! 2* gd.D= lJ.mJ.91.;1 ;A  ' bI wx m^ JB >G G*. ' :! X&.1=.y= W^.nJ.nJ.%k.H* 5( BD 4M z, p].oJ.pJ.qJ.rJ. ` 3d sJ.tJ.Pm.YI uJ.vJ.wJ.f[.xJ.r&.2F r* yJ.zJ.zJ.AJ.BJ.CJ.DJ./y.c/.EJ.FJ.GJ.HJ.IJ.JJ.KJ.LJ.MJ.NJ.OJ.PJ.QJ.RJ.SJ.TJ.UJ.VJ.WJ.&' +q.XJ.YJ.ZJ.`J. K..K.+K.@K.-= )C #K.$K.%K.&K.*K.=K.-K.;K.>K.,K.'K.)K.!K.~K.{K._! q` ]K.lV A) M+ {7.96.^K.cc.yD 1=.X&.X<.@- Ro./K.(K._K.:K.{L dI <K.pp.HT e1 B' K).qV VS T[ ;@ 6a.l< c+.N@ =p =p @+                                                                                                                                                                                                                            ",
"                                                                                                                                                                                                                                 k  9^.=p 9x.[K.54 #i }K.IL 2- R> 5u T~ t] D; t] 5; B% cI r~ )H CC ~( *, +^.-= D- =G ,_ 6m |K.nv nv Ql.d= +* Y%.qn.4+.B' ;).zQ 4B == (| ^f .0 1K.sv.]O =o.3# @> N> BW 8- |=.JU 4B Ry Ry c= ]1 Aq f{ n: 1p aa (n 4d.fq {g 2K.Ay Ay 7: 3K.4K.5K.j= By 6K.k^ Z_ cP Qy s_ 7K.8K.9K.Lv.0K.aK.bK.cK.dK.=' Ry eK.fK.[@ ;;.gK.hK.iK.jK.kK.lK.mK.nK.lA.l).I% oK.*%.eQ n@ h> kJ pK.KA [c FO =G h' I) R=.8=.qK./K.Z+.rK.sK.Ou Ql.tK.Y{ l, A' K).p]. 8.VS 64 eZ V& uK.6q H+ k  ~6 @                                                                                                                                                                                                                             ",
"                                                                                                                                                                                                                                 3  .+ T$ AC Zj.N* {( qf.vK.wK.hi.~*.l. vn C; C; xK.hD cJ p: s) 6, ~{ cI Mw $- yK.%n.y. _% zK.nv nv (M ]8.LM AK.BK.<c.2# CK.w,.DK.EK.(Q Qt ts 5^../.O:.),.t^.da FK.M$ dZ +9 .> K= Ex !C GK.HK.IK.JK.KK.LK.MK.NK.OK.PK.QK.RK.SK.TK.UK.VK.WK.XK.YK.ZK.`K. L..L.+L.@L.5B #L.$L.%L.&L.*L.=L.-L.;L.>L.!$ Lb.,L.'L..J.)L.!L.~L.{L.+b.]L.^L./L.(L._L.:L.<L.`@ jz -( <=.[L.b~.vW }L.(/ Na.+~.n! p~ |L./Z 1L.2L.3L.4L.5L.St 6L.7L.8L.b% @> A' >` J].m^ /f n/ $n.`%.]A.>d.f+ 3  D*                                                                                                                                                                                                                            ",
"                                                                                                                                                                                                                                 t). / fR ;y 9L.#u.}8 0L.bD.aL.zf.a+.iq.W,  9.bL.Rr.Uk =~ cL.!j.~v  ; GM %%.v2.OF dL.eL.fL./~.gL.*}.hL.iL.jL.kL.lL.mL.nL.oL.pL.qL.rL.=r.L$ #!.<^.$* @3 /* sL.tL.uL.Qx.k% j% !m.|p C .*y ~` vL.wL.xL.yL.zL.AL.BL.CL.DL.EL.FL.GL.HL.IL.JL.KL.LL.ML.NL.OL.PL.QL.RL.SL.TL.UL.VL.WL.XL.YL.s&.ZL.`L.$0. M.y~ .M.+M.@M.#M.$M.%M.&M.*M.=M.-M.;M.>M.,M.'M.)M.!M.%].~M.{M.]M.^M./M.(M._M.:M.<M.&R [M.}M.|q |M.1M.2M.3M.4M.=G j' e{.tC H) Jz.5M.6M.yA.pK 7M.8M.9M.!F.Tq.0M.aM.bM.T;                                                                                                                                                                                                                            ",
"                                                                                                                                                                                                                     5c &+ sg _} `#.ly.+, `- D= 2q cM.dM.S, ,x.eM.T~ fV W,  9.7& 1- p$ 0= @] WC  0 hD.=;.%%.%%.Mw *= u<.|J fM.#_.e[.x7 5M M-.+/.gM.+A o[ hM.iM.z' X^ jM.4~ y~ EO '= ^f Sb K1 IA.$& b: 4* l' (| ss F@.k% kM.R+ lM.mM.x/.nM.oM.mC pM.qM.rM.Bn.8| lm sM.B5.6f.tM.uM.vM.wM.5h.V6.xM.yM.3].zM.AM.BM.z, cR .~ !{ `> T) tC `@ D&  ^.V= %& NG CM.DM.EM.FM.GM.:3.HM.IM.JM.KM.cF F@ LM.et.MM.E, NM.d& BG BA.sG >= %- 6= x_ OM.PM.:% =G L$ h+.5, 1=.0- xR K{ <- X] Lx..] TC QM.RM.p~ 4~ SM.N}.FC A4 j  p. h+                                                                                                                                                                                                                   ",
"                                                                                                                                                                                                                     i+ gz.;  k  MT a^.c' #>.~*.p$.;1.TM.;| jv.UM.$H W, MD 7& 0= `N 5& RB  - G=  ] IM rp oK 2P &6 %%.p, |i.VM.cC W$ |> z' 5> >O WM..B GJ )t XM.3c.lV jM.@!.J) y= -, Y] OE /> p, MF r~ U[ d_ (| ss ss 0& %(.yS YM.ZM.;: `M. N..N.+N.P7.@N.,p.#N.d>.$N.%N.M3.&N.*N.=N.-N.K% ;N.>N.,N.'N.)N.!N.~N.t> ;| sr P! /@ Wt ,_ BL 5. qt {N.]N.ts w8 H^.^N./N.(N.)- _N.HM.:N.<N.[N.a: }N.|N.1N.~X Bd v> ov.2N.3N.]C +* 4= 4N.B= K* T@ tC #X B' p].T@ :: (& #i -= +* vw +A.p$.5N.CK.4^.kl.6N.+,.PF V# h  k  Tk                                                                                                                                                                                                                   ",
"                                                                                                                                                                                                                     &+ gz.~6 H  P; jd.-H 7N.l. L( gd.7/.l@ 8N.9N.)^ C; 0N.aN.$f.bN.hA Zo.'8.yl.+$.8y cN.dN.%~ [w yB.eN.fN.gN.hN.4L iN.jN.kN.lN.^Z mN.nN.oN.pN.Gz.Zg.q).Z# E& I- ;~ s$ i. @;.t9.rd.qN.ZB.rN.sN.^O tN.IX 33.j> uN.vN.wN.xN.yN.D].zN.AN.BN.CN.DN.EN.FN.GN.HN.IN.JN.8>.KN.LN.MN.NN.ON.PN.QN.RN.SN.W$ X6.TN.UN.VN.WN.XN.YN.ZN.`N. O..O.+O.@O.#O.$O.%O.&O.*O.=O.-O.;O.>O.,O.'O.)O.!O.~O.{O.]O.;3.^O./O.(O._O.:O.G9.@N La.<O.[O.y4 J) d! ut.}O.o/ :u w(.|O.1O.2O.2O 3O.4O.[ .cR w{.5O.6O.7O.8O.H  3  k|                                                                                                                                                                                                                   ",
"                                                                                                                                                                                                                     *+ 9O.T$ yL 0O.cJ ~(.G*.aO.)^ =P bO.N> da cO.D; l$ t~.(| nw %_.gI l. fV ei.fJ 4- '^ &~ w0.k].Ix.8) #X @) OF G* #D z!.W& Ps. }.dO.(: f3 eO.(@ 0- w(.Q@ V< j].N$ f;.){ /@ ^@ $' W:.yS z' >;.xx.W$ BW >L A' M~ /A.fO.gO.hO.iO.CN.CN.jO.>p.kO.lO.5{ +j.mO.nO.oO.pO.qO.3c.$_ 5M rO.sO.tO.bA.uO.vO.wO.xO.yO.zO.AO.BO.CO.DO.EO.FO.GO.HO.[r IO.JO.KO.LO.MO.NO.g, OO.PO.H3.QO.RO.t*.Ta 1w ;, #/ SO.TO.UO.=a VO.{z d^ :u WO.]p ._.'{  !  ! ay.V= &= DH XO.YO.{/ ]6..~ a0 ZO.Y/.'%.]6.1y.>6 `O.:  }  3                                                                                                                                                                                                                    ",
"                                                                                                                                                                                                                     z*  P.=p H  0O.y_.-Z Za.SI.SS |E.qQ M-..P.+P.s] E^ Za.s) 64 jI gI l. )8.di.s- b= vw ,0.&~ @P.Kc.n! jh.#P.%%.mR == L= +* D% cw.5M lA.A, 3@ 9- 1@ sC up IA.$P.9- !{ #' ^@ T%.$' ;).$_ M~ l, u> CG h' >L l@ 0, Q| -(.%P.&P.iO.c> CN.|$.>p.F).*P.=P.-P.mO.;P.Z+.>P.,P.`Z m, l, lA.,, bc I% Q! uO.'P.)P.!P.~P.{P.]P.rD.f, ^P.OO.P).b> /P.(P._P.:P.8: <P.[P.}P.l_ @m.|P.9h.1P.2P.L* F) '= k% Gw.3P.4P.5P.6P.^[.-} ,y 7P.B<.:[ '{  ! 1] !(.*= iD Dh.#M U:.8P.V) xR 9P.0P.l).0, V) =G  M.aP.N@ }  S<                                                                                                                                                                                                                   ",
"                                                                                                                                                                                                                     7q '( T$ f+ bP.uL p] Za.z; dj *q.`L.`g.cP.dP.F^ 9Q Za.U[ U[ u~.eP.Nt.fP.$` fv =;.HM AF.&~ gP.ut.x4 #X hP. ] .; z!.}E o: ~(.iP.jP. #.kP.(O L8.J) lP.ux I* mP..~ 5. T%.+9 .~ +~ }> K}.3# z' nP.Zb.v8.;O o' oP.g~.pP.qP.rP.sP.tP.uP.vP.wP.xP.yP.zP.AP.BP.CP.DP.EP.FP.GP.HP.N4 IP.&&.JP.>%.Z> L).KP.LP.MP.:7 NP.OP.PP.QP.RP.SP.TP.UP.iK.kx.VP.WP.XP.YP.ZP.`P. Q..Q.+Q.@Q.#Q.$Q.%Q.Na.SY h. }3 &Q.Hj Dl.*Q.=Q.D_.E_.-Q.Zy.;Q.:2 N= 8K >Q.d' ,Q.'Q.&* $_ @! U) (@ ]6 rH.c% ;| 2F y= A^.)Q.e@ )  S<                                                                                                                                                                                                                   ",
"                                                                                                                                                                                                                     #+ 1  ++ _# JY Z; Ws o/ W) w, 6, !Q.~Q.{Q.]Q._m $C Ka.*; .0 w8 2w Y] d^ 9' vw ^Q./Q.sv.P. -t.') 0D.AG.TE.og 7I.dN.`, Ys nv (Q._Q.:Q.<Q.o# JB #;./* d^ _G  >  > ^^ N. 2w #/ .0 E@.9- G- [Q.}Q.|Q.|j.1Q.2Q.3Q.4Q.5Q.6Q.-# 7Q.8Q.9Q.0Q.aQ.bQ.cQ.dQ.eQ.fQ.gQ.hQ.iQ.jQ.kQ.lQ.mQ.4Q.3Q.nQ.oQ.2v.pQ.qQ.x^.rQ.sQ.tQ.uQ.vQ.wQ.xQ.yQ.zQ.AQ.f, p+.BQ.CQ.DQ.EQ.FQ.GQ.HQ.IQ.JQ.KQ.LQ.MQ.NQ.OQ.PQ.L/ c+ QQ.RQ.SQ.TQ.UQ.VQ.WQ.XQ.:v.LJ 6L.P@ BB YQ.ZQ.`Q.}c.k, `i Ix.sr 6. ]6  R.n@ i6.(% Y> D& .R.<  T$ S<                                                                                                                                                                                                                   ",
"                                                                                                                                                                                                                     @+ 0@ 1  J+ 9A Z; @w ev 4q 6, IC vw Kx.pg ^F ^F #-.!m.:u :u 0& 0& #* K{ |- b' 46./Q.sv.P. (>.6; )$ D' 46.2P {{ w0.w5.}; P:.}; +R.>A HM OE #i nw OE ss tK ~| O=  > =- aj &- cC.x*.yD #!.nA.@R.g% S> R> 2- c@ h@ B4 fj.6  W. Pj.hj.#R.$R.%R.&R.3- s, Sl.*R.Oj.Oj.~z Pj.=R.-R.fj.fj.;R.~z Qj.Mj.>R.L).o^ 9% ,R.0% L. R* ,R.g6.'R.)R.!R.94 ~R.{R.]R.wv ^R.p>.P, w8 =- ^^ /R.(R.eG _R.=C 9y :R.<R.[R.}R.,6.(C |R.1R.2R.Yc @- ov p, vn.3R.4R.5R.X>.}@ (h.e1 A% ){ Z# 6R.CI 7R.x. :*.e;.8R.<  H  h!                                                                                                                                                                                                                   ",
"                                                                                                                                                                                                                     #+ 0_ ~6 OD 9R.0R.V=.m@.x<.o# p# 3u pg n].aR.^F ^F 3[.$* ev 0& j% ^f .0 a' bR.u5./Q._F P. &G xC %= cR.dR.eR.fR.gR.hR.iR.jR.kR.|; +R.|- &; G@ Sb GS 0& lR.mR.nR.oR.pR.mR.qR.rR.|: )C.sR.tR.uR.R. vR. - ^{ s, a+.R; Y#.wR.xR.xR.yR.y(.zR.AR.BR.CR.DR.ER.^..FR.GR.HR.IR.JR.KR.LR.MR.3k.NR.OR.PR.QR.RR.SR.l= TR.UR.UR.VR.WR.XR.YR.2_.ZR.`R. S..S.+S.@S.#S.$S.%S.&S..! 50 *S.=S.x3.-S.;S.>S.,S.'S.)S.!S.~S.CH.{S.]S.^S.z_.)I @E./S.bF (S._S.:S.Lr <S.[S.}S.0d.)I. 8.|S.m@ 1S.;%.D& 2S.3S.4S.5S.6S.                                                                                                                                                                                                                  ",
"                                                                                                                                                                                                                     #+ V] 3  k  /(.7S.8S.9S.){ !{ P! 7' %G fI Nk ^9.^F ., 3] q, 1, 3= &x ;A v5./Q.76.v5.Ys (>.(>.xC %= 1, 0S.4L J].aS.=&.bS.cS.;( e= e= t& 3P 2w cC.dS..G _z +, eS.fS.fS.gS.hS.`^ iS.jS.kS.lS.)8.mS.nS.oS.v!.%G  0 =, u& KE.3N Z# Hn FO i' [> pS.qS.rS.sS.tS.X{ uS.vS.h0.wS.xS.B) -G EO e;.(% W{ ~I Jk.yS.ci./n.fz AC.zS.AS.AS.BS.CS.DS.ES.FS.GS.HS.IS.JS.KS.Z= LS.[c s_ MS.+!.W{ Gn NS.OS.@@.PS.QS.RS.SS.%n.1=.T@ x. $' N= (@ V$ z% TS.US.VS.w| yy |L.WS.XS.g> Q+ YS.I0.ZS.by.E' t9 #F (@ -%.x^.`S.4c ;'                                                                                                                                                                                                          ",
"                                                                                                                                                                                                                     z* ;  3  k  my.}V O@ A= 2F _{ $' L9.AF.VC  T.dN.&~ ]<.,^ 9= D' xC *' uv Ys d1.0g.%%.m7 <,.Z, =, %- B_.Fs.V$ Wt i0.i> j> g$ I..]C @- bQ 8K OG uq .T. ,.3I.+T.@T.HL #T.m0.`w.5J 5J c@ h@ QB $T.(>.Br +%.z0.0u +$.%= o[ d(.(% >*.1w Vm.)M &(.%T.DO.]t.&T.Bc.#% y~ jz dZ A% (@ 5. 5. +9 5. '= |] #&.w; *T.=T.w~ -T.O: }8.s, </ 1* o> In.4; ;T.>T.dr.,T.'T.)T.Y= !T.4d..j ~T.|=.:& r7 {T./C.]T.^T.zq g .=E 2@ m9.1@ 1w Qu `> ,_ R% dU /T.-v 8=.]1 ]C @- (T._T.UY 3g.:T.<T.[T.(/ $= fJ 'K V) Wt e_.}T..+ ;  @+                                                                                                                                                                                                       ",
"                                                                                                                                                                                                                     D* ~6 3  3  ]F &F wK.QD K* 1w L* |T.! .l~. 3 1T.2T.0' 7= 7= 3] _^.+t 3q rv.v5.d1.Br CB 76.`F (P 3T.VN &O U) Z> 4T.j> A) 5T.6T.-T e^ M= i. mw q[ 7T.81.;H 1q 8T.HL jb.t# /} K@ 9T.!z !z xf.0T.J= B& oA.aT.kR.bT.=;.1, 1U cT.dT.fD.eT.fT.gT.hT.iT.zc jT.kT.lT.mT.nT.oT.pT.qT.rT.sT.tT.uT.=- ;, s> `- v!.{<.wR *w.|E.Hw R. @] s, .9..9..9.vT.wT.xT.yT.zT.AT.BT.CT.DT.ET.FT.1w 8K Z6.GT.HT.IT.JT.Cz Cz KT.+!.T@ T) NS ]=.K* V$ M$ a% LT.]C cy 8=.4( Qy a+ MT.NT.OT.PT.QT.RT.[y $= =' ST.U) Wt TT.}T.N@ ./ @+                                                                                                                                                                                                       ",
"                                                                                                                                                                                                                     ;+ '( l| '( 9_ UG 9_ UT.x<.d~ |:.VT.E/.WT.XT.|$ [Q.)U (| nw YT.%T gJ ^Q.mh.+] ['.ZT.=U n'.`T. U.$/.$/..U.'R -6 +U.@U.#U.$U.<& _{ x*.%U.&U.*U.=U.4r.5& jb.EM S. '@ f% .= W, t] -U.;U.QN >U.,U.'U.)U.!U.~U.{U.]U.^U.-U /U.(U._U.:U.<U.[U.}U.|U.AO.;: 1U.2U.3U.4U.5U.6U.7U.8U.9U.0U.aU.bU.cU.dU.eU.fU.nR od.I).gU.^C hU.T> Nk :F Xy.C; Ub.3E.iU.iU.jU.kU.lU.mU.nU.oU.pU.qU.5;.8~ uv uB.~U.rU.sU.tU.uU.vU.wU.xU.yU.f~.oP.kJ |p.;~ XX Pu 8=.g .h= KA Aq zU.AU.BU.CU.DU.EU.FU.8' 76.vD m'.'{ N= GU.HU.H  1  #                                                                                                                                                                                                        ",
"                                                                                                                                                                                                                     z* ;  l| ++ S. ,( /} }K.^9 nw <! C<.cR jh.M$ BW 6m h. j% ts 54 >0.DM 3u m> $-.pX IU.5. $' b5.>` 9d.c% 9d..}.>` JU.p] d_ l' ^@ !{ (@ KU.LU.m0.`w.S. f+ zn S. Gd u# /} *>.*f.+] hz $= %= :I.K*  ~ D@.ay n! x4 >L a..M$ MU.uC.NU.OU.PU.8>.c> QU.^P.RU.tV SU.TU.UU.VU.Fj.5f.G;.WU.{~ w/.XU.YU.f> wn.Z; E) r=.r=.:: tr s$ ,f 9j ^F 2q Q> LD fb.b  8A `%.ZU. > ;, `U. V. V..V.aI /Z zd n` G) $' +V.W..@V.)L 0C. D :` &t.n% g> oQ N. Y] Sb 4( cy R} 9y zW #V.$V.%V.&V.*V.4B +^.&6 {{ mi.Y{.L* _& rV .7.k  j: @                                                                                                                                                                                                        ",
"                                                                                                                                                                                                                     D* j: |  ~6 M@ m$ !z =V.by T[ w(.Zb.I% 8) L8.w7 1@ Y] ts ts &2 %T ,f |J F^ -V.gW 4'.6. :: |/ M-.A}.G5.@> >` A, ;V.by q> T[ ^@ 86.(@ >V.,V.HL EM L@ zn  O v- 0~ m$ g^ *>.Z) [a.4t =, I* wx E@.)v W{ N$ $% n! W$ y, I) 'V.)V.!V.~V.{V.8>.b> 8>.<t.7z.a> ]V.^V./V.TV (V._V.Sd :V.8v <V.[V.w> wx.kM.Qu 1] $' tr :: :: Z; &G &~ ^F p~./P }V.w) ,@ ]  |V.S#.*- s*.1V.2V.2V.3V.5^.f{ M/ |/ L* 3P 4V.5V.6V.7V.8V.xF 9V.Pb [@ g> o'.#/ 24 nw -v g ./Z 2. 0V.aV.bV.cV.dV.eV.{C Z^ {{ `h (>.fV.`; 3P 6[.HU.H  ;  %+                                                                                                                                                                                                       ",
"                                                                                                                                                                                                            &  %+ zC 4c ;  T$ H  gV.lJ.of.'m.hV.PN Tp.m~.P~.;G *%.m- 1@ 0y iV._ .jV.kV.lV.mV.nV.oV.pV.qV.Ut.rV.cQ sV.tV.tV.$_.t; t; uV.$i o# !m.O-.1w $' vV.wV.`w.}! L@ Gd Gd 1- -P xV.;P @U oV.OH Y; r> )H -F.J].yV.zV.I(.JU }J AV.BV.CV.DV.EV.FV.GV.HV.IV.JV.KV.LV.MV.NV.OV.PV.GN.QV.RV.SV.TV.UV.VV.VV.WV.XV.YV.ZV.`V.a% $_.[O. W..W.9, 7K `E !b.%}.UN gB +W.R.  - &. >>.cV @W.#W.$W.%W.&W.*W.=W.-W.;W.xr 1> >W.,W.'W.)W.!W.~W.{W.]W.^W./W.(W.=E kz 52.-x ~H _W.:W.<W.[W.}W.MN.|W.6] .; .; Br eJ (>.@N =` &a.&y 7..<  ~6 B*                                                                                                                                                                                                       ",
"                                                                                                                                                                                                         1W.l| 1  ;  ./ ~6 k  l  2W.Pm.Pm.}'.`, V> ei.o# N* :u R% #!.l- [,.cC cC A' ;| cC C<.2|.uv hD 6; ux NL uv r=.Qu -] sw sw s$ 4. d~ k% Ws &- =- h. th.3W.S. (<.0~ S. S. Aa.4] Ov Z, z_.r~ Az gq .' k' qw.cR l@ a}./H 7- #3 4W.5W.6W.7W.8W.0& 9W.0W.,; aW.pt.bW.cW.dW.eW.<= .C fW.gW.hW.iW.jW.%5 =Q kW.lW.0p.mW.nW.;| >%.u> l).B! cw.*].n: s) uv &, &, +t F^ v~ qC  - k: h% u!.=- `; oW.pW.'% qW.fy.-` zd rW.c}.y, 22.o/ i. %' 0& {( Sb 6; g!.K1 sW.=Q CG tW.uW.vW.-L.L0.i+.wW.xW.%~ }; fJ wb.mR 8y fv $= -H ,( f+ 3  7q                                                                                                                                                                                                       ",
"                                                                                                                                                                                                         ,=..+ N@ ./ 3  h  T$ }  +,.>0.Ia.%T 76.pg mi.k' G@ K{ L$ I) ay p].cC bc cC A' Od `/.}E Az 6; -T @* @- cI ;~ =- h. ]^ `; -] 4. nw mw $* Ws Z; *- x8 yW.Gd S. Gd M@ zW.^ .;U.+$.-t.B% zd =, #~ v. 64 sN.cR cC A' c[.#3 .' AW.>3.Tn.BW.CW.=} DW.EW.FW.mr./i GW.Lp.HW.IW.JW.FI KW.<I.,_ :% m! n! ,8.LW.S^ Bg MW.NW.fD t> *T lA.l, e1 s) 1p T[ L/ 9y @t ~v Z) k$ /F OW.*. k: PW.`; ^^ QW.RW.SW.TW.fy.t4 X] D9.4^.cR UW.U= .0 cC.@3 G@ p[ t4 VW.]C sW.jh.J) WW.XW.YW.ZW.`W. X..X.+X.iI iJ 46.%%.(> Ov -' K= @X.>d.f+ k  &+                                                                                                                                                                                                       ",
"                                                                                                                                                                                                         B* Tk N@ Gd #X.$X.%X.MT 8q :z &X.4I.b' U> mi.54 .i :u gp.iz Z# vU `7.(! 33.ut.u(.;).*X.lI =X.*x -X.9; qV.ev k% $* .! N= )v LA Aj ss tK ;X.>X.,X.'X.)X.0~ M@  9.!X.]} LB *C TD.#G B% Az zd L/ IC ~{ >U I% I% I% )*.tK 0& ~X.{X.]X.^X./X. > (X._X.FW.:X.<X.[X.uj }X.=J FI |X.1X.2X.2X.3X.4X.5X.6X.7X.G] zU 8X.9X.&* l@ dC `7.[> l}.72.@F 0X.P[ ~{ &' w8.;H aX./w.3; >Q k: 4..bX.+0 cX.dX.eX.fX.K#.(Q #;.gX.hX.4h.iX.KB 54 /* .' v. c| jX.kX.lX.mX.nX.dQ oX.pX.qX.rX.sX.tX.uX.vX.pg &6 F<.1J v@.sE C% C% ~a.h/.wX.e@ xX.                                                                                                                                                                                                      ",
"                                                                                                                                                                                                         zr 3  3   $.yX.zX.nz OH 3& {<.3& WC  0 +$.vw ^f 0& Z; V#.sp -% z| Y] &- k% ^f N* /H q` h+.x4 A' A, l@ AX.uv 2= )H wU `@ `@ m9.r=.1] ~I BX.}V CX.DX.(<.L@ G+ EX.,= E' G* FX.v) K| r~  , zd 6; f= f= GX.M> cc T, 9- sr )v HX.F! IX.JX.z% 94.KX.LX.MX.Zq.NX.OX.OX.PX.7!.QX.RX.sD.SX.TX.UX.VX.WX.XX.YX.ZX.:E.`X. Y.(: RJ .Y.e~ p[ &- m- BW @!.qH.f~ (| xn AF.%G w; ib.k: l< $t N8.Ar )0.+!.60 D# Ws i. +r +Y.vv.|i.bT.%& !C @Y.Qy I* Q* #Y.Ff.$Y.%Y.4R.+v.&Y.jq g> *Y.tl.=Y.-Y.+%.Zh +$.&; j% N* 4* f~ D) YT.r# L@ )@ e@ ~6 0@                                                                                                                                                                                                 ",
"                                                                                                                                                                                                         zr ++ j   $.^G.Za.R{.!$ wR 3& 3& IA QG )$ !$ &- #/ sw 0~.up *= T[ _G 2w %a.9& F@ sL B' I% cc A, ,, *T ;Y.y_.L/ 4q V) *%.z= yD ]z r=.f@.BS lv i{ v# Gd G+ d@ q9.B% >Y.oV.+] *~ C; #= g= C^ e= I* ]1 *x cR $) I% Wt dZ  ~ ,` sP R= $. y. US ,Y.'Y.)Y.!Y.~Y.[X.{Y.]Y.^Y./Y.w/.NE.(Y.Rd Rd _Y.:Y.<Y.[Y.zc }Y.|Y.1Y.;(.z) 2Y.~g aa *; `@ M$ R% =U #i .' aI |, ~8.3Y.)^ *. >Q QB k! K( 4Y.A% :: 2] j% *; w8 J{ }- ~% {L u2.V= 5Y.u| 8=.3> 6Y.XS.JE.7Y.8Y.9Y.!= }@ IF 0Y.d= 3B Iv w5.}; +$..i @3 0& GS D) U[ aY.r# Gd l  yL H  k  ~6                                                                                                                                                                                              ",
"                                                                                                                                                                                                         zr sg '( uM Q~.xM 7N.*C TD p- TD E= E' 0' 0' &a.7P ^*.vL bQ M= 64 mw Qt Aj o# JB D{ bY.>w.cY.=$ dY.Jc.eY. ' r~ 2H 2s.T@ l- E& Sw.E .df fY.6..L@ G+ 1- >Q +9.gY.:O JB qg ei.,h.O8.X] X] vx G! 5* Z{.hY.iY.jY.ll.dZ +9 sr .Z 2> .j kY.lY.mY.nY.oY.pY.qY.rY.sY.tY.uY.vY.S+.wY.xY.yY.zY.OV AY.BY.CY.DY.@N.EY.FY.GY.HY.Tj.IY.y<.zR @~ Na.JY.C{ c].F@.i. d[.<D.KY.LY.MY.uK.~P R.  - R. NY.-%.1w :& OY.PY.QY.($ RY.SY.TY.UY.VY.WY.ud.XY.YY.ZY.N~ c& `Y. Z..Z.+Z.@Z.#Z.$Z.3D |L.AQ 2; ^7 Z% 64 (| 8& by `E W> %Z.&Z.*Z.=Z.uM k  k  ++                                                                                                                                                                                              ",
"                                                                                                                                                                                                            U; -Z.JF.Bw s@.!z ~P 9' )$ b' TD /w.e% |, sv.(>.|- @w *y ^f 3! r> ~( 1, ,^ 7= 8= vv.;Z.a^.^E 8K s*.4. @/ C% e^ #* =- =- S#.v* &` Fd e@ }  h  '@ Qb.fV l. >Z.tr n^ %].$%.+* ]<.d= m<.c= ,y *- 1] ]=.Qt ts ^f dZ ){ 6. ;, Ol e~ ,Z.'Z.)Z.!Z.~Z.{Z.]Z.^Z./Z.Gj.]P.(Z.Kv.Lv._Z.:Z.<Z.J7.[Z.w}.}Z.|Z.1Z.Wh 2Z.3A U[ s) 3Z.jj L8.jz J* `~ CC )*. ! n^ 2] o/ ;,  ! 4Z.v) t] C; `=.)z QD 2F '{ ME 5Z.6Z.7Z.8Z.9Z.0Z.aZ.8. bZ.cZ.e~.dZ.5R.J. n% I^ eZ.d~ Aj o# k' (Q &; '= ]^ Z; <- zd @/ I( r~ -P )z MD W, k< fZ.gZ.hZ.iZ.l  =p 0@                                                                                                                                                                                              ",
"                                                                                                                                                                                                                     I= 7u ,@ IL R{.=% fJ w; fI Z) |, pg &D ~F -]  > *; 3! 6, `~ +* %& /> == [; ]{ &D F- s*.s*.-, r~ Bn C% ,y ;, ;, +0 YY H  H  3  h  }  B4 [a.8Q Qb.R  $' L* C) c= d= q, +* L= Z% c[.sw ;~ 3P ^f @3 mw 86.dZ ^@ s*.N* k= jZ.kZ.lZ.-6.Oy.A, @> mZ.E^.nZ.x/.oZ.pZ.qZ.rZ.sZ.tZ.~- uZ.Mn.!! vZ.wZ.(v.xZ.q# +q.aa ^/.CG 8) BW y_.9y [c Z; ;~ L*  > #/ ;, 1] yZ.K| 6@ C; po.'8.zZ.+9 >~ AZ.BZ.CZ.DZ.e9.Y$ 5_ qx.:T.EZ.<T.;- MP FZ.GZ.X>.u-.HZ.i= av #3 +q.~6.@3 *- ]^ IZ.3= =, Az 8~ I( ax..9.R. :/ 3V ^f .0 Aj JZ.l  =p 0@                                                                                                                                                                                              ",
"                                                                                                                                                                                                                     KZ.!  f+ !@ LZ.$k.Z2 MZ.]Q NZ.O; pg C(.xA.OZ.({ 3P :O  ' R=.;% 7D OF a' a^.B(.i( wx *y 8K <& 1> p: ~(.%' k( aj PZ.r~.3  =p l  f+ J+ qX QZ.(< RZ.XD.SZ.+9 tG. 0 Z% %= ;= D' W& y<.s$ `; h. &; #i /f ]z _& m` TZ.UZ.VZ.WZ.XZ.YZ.ZZ.`Z. `..`.+`.@`.#`.$`.%`.&`.&`.*`.:Z.tZ.j8.=`.-`.;`.>`.,`.'`.)`.Z^.!`.~`.uV.>L zb.BW {`.{=.~(.|p *-  > =- $* Ws +r ]`.F^ r, v) ^`.D; /`.=m.m= 2s.(`._`.:`.<`.[`.}`.|`.1`.2`.3`.4`.5`.6`.7`.8`.9`.0`.Dx .r G].:! FF a`.IU Fs.b`.i( 3] 9' 9' -H #G gW n+ .t pf.5* m^ za.c`.k  3  3                                                                                                                                                                                               ",
"                                                                                                                                                                                                               2  4c p. 7u V# d`.^B.S@ 5. :: -] +r _G #D m7 dN.i( |i.ND /f '= ~| *- =- Ws uq C) a- g;.sr 0- A% ^@ e`.^w.|u f`.g`.Qk 1I l  v# g  =) |u Wa. 3 s$ ~| Us.8z |i.8' Q$ r~ hD B% T[ 54 4* 0& tK d~ U= D@.1w .! 4~ &(.vU h`.i`.j`.k`.l`.m`.n`.o`.p`.q`.r`.s`.t`.u`.v`.w`.x`.y`.!- z`.A`.B`.C`.D`.E`.9V.9Y.kD.9d.]'.F`.n{.dZ 0- yD M] (! V$  ~ 2@ z% x*.r- 4] -' $G Xy.m> p%._z .G {a.G`.H`.I`.J`.A) 0, v8.K`.L`.i].i' 1F jY.M`.N`.O`.P`.Q`.R`.S`.p].,~ cC j> y' z) g> g> T`.U`.=T.p~.*G._m U> gB ]h 9& Q= :& G) 3P V`.H  T$ ~6                                                                                                                                                                                              ",
"                                                                                                                                                                                                            T; )  ++ j  e@ ~y _V u).$' <& -, 0& 4* 4* A& +%.{{ }* 76.mi.#i K{ :u K{ Qt /* xr rz.ev F@.;~ +9 5. 3z.W`.RS X`.-) m$ 0~ l  U.  O v# iq.W, W, Mf Ws C) OG *H .; 46.'$ 4C +- H* 64 #i Sb ^f #/ ts g0.W{ >~ >~ #!.4~ n! Y`.D/.Z`.``.M! G5.  +. ++ +@ +# +$ +.6.Np.nr. r. r.G6.(~ % +& +* +o@ C, &t.= +9V.- +;| +> 0, F& :: G) 86.5, jj N$ 60 A% U) (% ^7 =' K= !7.F^ :} m7 8= -' P] qC qC xW.; +>` >` L$ T@ Wt 9- tC =G =G q4.o[ K1 .B %- >= ST.=Q x4 M> l@ +> i> m!.=1.> +, +U/./F aR.|, {{ 5g.+r #/ 24 =%.>~ ]^ Mx.H  T$ 1                                                                                                                                                                                               ",
"                                                                                                                                                                                                            Sk h! j  T$ :  ^  M  m+.Ws @w :u /* n: (| A& ,f DM |q oK I| &2 GS mw @3 Sb k' =E F/.%' tK ]^ `> `> 3z.fY. 9.]F ' +`w.'@ B4  l.V# ) +`#.&F &F {P K{ Aj ts u~.9= |- ^>  ' 3= ., nw G@ .i Qt tK U= y<.)v >~ ;~ h' BW L$ ! +|,.~ +{ +5> *T ] +^ +/ +( +_ +J6..6.: +nr.< +nr._~ /= /= +4.[ +xn.]p P+ } +| +1 +-3.eD A) N! 1] L* `> J) w3 6m 60 sr 94.60 b= K= d= kK 3& #-.'^ )$ Z% b= /F &C z:.2 +K).B' ay r&.Y> -%.2@ S) 2@ /Q =' == K= %= RG 0X.J) 8) dP dC e1 fD 0, z' 3 +4 +TD #G  ,.pg DM MG  > +r '= 5 +6 +h. 7 +H  =p l|                                                                                                                                                                                              ",
"                                                                                                                                                                                                            8 +E4 .+ 93 f+ 8@  + MT 9 +j$ KF.t& cJ b: }E 5* `E p%.0 +r, =U.a +a +b +c +cL.]w.=U.d +FM e +sw r=.eq.f +qc.#T.g +5J 6..Xj.A:.h +&p O$ i +^G.W> K{ K{ K{ ~I $* y<.Y-.H5 Z, .G xn o: T[ &2 #i xr 1> C) #* K{ D& ay tC j +k +G|.l +m +cC n +o +Ep.p +q +r +F6.~- r +D6.s +Ae.t +_f.%I.u +v +T, k@ j~ ]! w +)U 8/. A.=U E@.86..~ jz m- -G D .nw /* (Q $%.H* =;.cJ mK u~.y_.1. )H su T> gI x +Xr._& sw z| 5^.J* *].Aj /* Sb }8 iJ U> nv U#.V< y +r=.;~ jV nJ.z +A +w,.B +=5 =` m^ 5* uv @/ db.x@.^^ ;, ]^ $*.C +c( v* T$ 3  V]                                                                                                                                                                                              ",
"                                                                                                                                                                                                            D +E4 H  e@ zn Gd Gd <V hq.KT eP.lz f+.,) ~(.1> f! E +F +hV G +-) H +Oa @y }! @T.I +J +K +L +h. <& M +N +O +P +O +Q +R +S +z!.D% >v sE  ' f! t& !m.p# 3[.=` /* !m.+U %` T +_B.q9.7z cI >G VS mJ aI Z{.o# Aj r&.G- +!.U +;C V +W +X +M> Y +Z +` + .+..++.+@.+#.+$.+%.+&.+*.+=.+-.+;.+>.+,.+jh.'.+).+!.+~.+{.+f~ p# z/.Ta Gn +9 N$ 3@ ;G e/.T[ &2 )H hD.A_.+}.fd.M@.J* cJ uv 1. M}.zl.p%.'h.].+ > i. ^.+f! QG xr OE 4[..i /.+gJ 0z.Kx.-t.-t.96.]^ h. (.+ w  ] V< Z^ 8y f+._.+:O p# *]./Q 8' Z2 i. 8K +0 :.+DX._# 7u k| Tk _}                                                                                                                                                                                              ",
"                                                                                                                                                                                                               <.+[.+}.+|.+1.+1.+2.+>( 3.+4.+5.+$f.6.+=F 7.+8.+9.+*Z.0.+a.+yW.a.+3W.b.+xL 1I.c.+d.+e.+f.+g.+h.+i.+HA.j.+k.+l.+,>.m.+n.+o.+VD %a ^P p.+q.+$U r.+s.+t.+u.+&_.v.+w.+:.+x.+A; y.+0O.$U z.+A.+B.+C.+D.+E.+F.+G.+H.+I.+J.+K.+L.+M.+N.+O.+P.+Q.+R.+S.+T.+U.+V.+W.+X.+Y.+Z.+`.+ ++.+++++@++#++$++O.+%++&++*++=++-++;++>++,++'++)++!++~++{++]++^++v.+/++(++_++#u.:++zG.<++[++UB.}++|++1++%` q@.q1 2++3++4++5++oV.6++,b 7++8++>m.Y- zl.c +Uk Z- 9++0++a++b++c++d++oh.-U.`<.e++f++g++h++i++7.+j++k++l++m++n++o++p++q++r++[.+s++                                                                                                                                                                                                ",
"                                                                                                                                                                                                                                                                                                                                                                                                                                                                                                                                                                                                                                                                                                                                                                                                                                                                                                                                    ",
"                                                                                                                                                                                                                                                                                                                                                                                                                                                                                                                                                                                                                                                                                                                                                                                                                                                                                                                                    ",
"                                                                                                                                                                                                                                                                                                                                                                                                                                                                                                                                                                                                                                                                                                                                                                                                                                                                                                                                    ",
"                                                                                                                                                                                                                                                                                                                                                                                                                                                                                                                                                                                                                                                                                                                                                                                                                                                                                                                                    ",
"                                                                                                                                                                                                                                                                                                                                                                                                                                                                                                                                                                                                                                                                                                                                                                                                                                                                                                                                    ",
"                                                                                                                                                                                                                                                                                                                                                                                                                                                                                                                                                                                                                                                                                                                                                                                                                                                                                                                                    ",
"                                                                                                                                                                                                                                                                                                                                                                                                                                                                                                                                                                                                                                                                                                                                                                                                                                                                                                                                    ",
"                                                                                                                                                                                                                                                                                                                                                                                                                                                                                                                                                                                                                                                                                                                                                                                                                                                                                                                                    ",
"                                                                                                                                                                                                                                                                                                                                                                                                                                                                                                                                                                                                                                                                                                                                                                                                                                                                                                                                    ",
"                                                                                                                                                                                                                                                                                                                                                                                                                                                                                                                                                                                                                                                                                                                                                                                                                                                                                                                                    ",
"                                                                                                                                                                                                                                                                                                                                                                                                                                                                                                                                                                                                                                                                                                                                                                                                                                                                                                                                    ",
"                                                                                                                                                                                                                                                                                                                                                                                                                                                                                                                                                                                                                                                                                                                                                                                                                                                                                                                                    ",
"                                                                                                                                                                                                                                                                                                                                                                                                                                                                                                                                                                                                                                                                                                                                                                                                                                                                                                                                    ",
"                                                                                                                                                                                                                                                                                                                                                                                                                                                                                                                                                                                                                                                                                                                                                                                                                                                                                                                                    ",
"                                                                                                                                                                                                                                                                                                                                                                                                                                                                                                                                                                                                                                                                                                                                                                                                                                                                                                                                    ",
"                                                                                                                                                                                                                                                                                                                                                                                                                                                                                                                                                                                                                                                                                                                                                                                                                                                                                                                                    ",
"                                                                                                                                                                                                                                                                                                                                                                                                                                                                                                                                                                                                                                                                                                                                                                                                                                                                                                                                    ",
"                                                                                                                                                                                                                                                                                                                                                                                                                                                                                                                                                                                                                                                                                                                                                                                                                                                                                                                                    ",
"                                                                                                                                                                                                                                                                                                                                                                                                                                                                                                                                                                                                                                                                                                                                                                                                                                                                                                                                    ",
"                                                                                                                                                                                                                                                                                                                                                                                                                                                                                                                                                                                                                                                                                                                                                                                                                                                                                                                                    ",
"                                                                                                                                                                                                                                                                                                                                                                                                                                                                                                                                                                                                                                                                                                                                                                                                                                                                                                                                    ",
"                                                                                                                                                                                                                                                                                                                                                                                                                                                                                                                                                                                                                                                                                                                                                                                                                                                                                                                                    ",
"                                                                                                                                                                                                                                                                                                                                                                                                                                                                                                                                                                                                                                                                                                                                                                                                                                                                                                                                    ",
"                                                                                                                                                                                                                                                                                                                                                                                                                                                                                                                                                                                                                                                                                                                                                                                                                                                                                                                                    ",
"                                                                                                                                                                                                                                                                                                                                                                                                                                                                                                                                                                                                                                                                                                                                                                                                                                                                                                                                    ",
"                                                                                                                                                                                                                                                                                                                                                                                                                                                                                                                                                                                                                                                                                                                                                                                                                                                                                                                                    ",
"                                                                                                                                                                                                                                                                                                                                                                                                                                                                                                                                                                                                                                                                                                                                                                                                                                                                                                                                    ",
"                                                                                                                                                                                                                                                                                                                                                                                                                                                                                                                                                                                                                                                                                                                                                                                                                                                                                                                                    ",
"                                                                                                                                                                                                                                                                                                                                                                                                                                                                                                                                                                                                                                                                                                                                                                                                                                                                                                                                    ",
"                                                                                                                                                                                                                                                                                                                                                                                                                                                                                                                                                                                                                                                                                                                                                                                                                                                                                                                                    ",
"                                                                                                                                                                                                                                                                                                                                                                                                                                                                                                                                                                                                                                                                                                                                                                                                                                                                                                                                    ",
"                                                                                                                                                                                                                                                                                                                                                                                                                                                                                                                                                                                                                                                                                                                                                                                                                                                                                                                                    ",
"                                                                                                                                                                                                                                                                                                                                                                                                                                                                                                                                                                                                                                                                                                                                                                                                                                                                                                                                    ",
"                                                                                                                                                                                                                                                                                                                                                                                                                                                                                                                                                                                                                                                                                                                                                                                                                                                                                                                                    ",
"                                                                                                                                                                                                                                                                                                                                                                                                                                                                                                                                                                                                                                                                                                                                                                                                                                                                                                                                    ",
"                                                                                                                                                                                                                                                                                                                                                                                                                                                                                                                                                                                                                                                                                                                                                                                                                                                                                                                                    ",
"                                                                                                                                                                                                                                                                                                                                                                                                                                                                                                                                                                                                                                                                                                                                                                                                                                                                                                                                    ",
"                                                                                                                                                                                                                                                                                                                                                                                                                                                                                                                                                                                                                                                                                                                                                                                                                                                                                                                                    ",
"                                                                                                                                                                                                                                                                                                                                                                                                                                                                                                                                                                                                                                                                                                                                                                                                                                                                                                                                    ",
"                                                                                                                                                                                                                                                                                                                                                                                                                                                                                                                                                                                                                                                                                                                                                                                                                                                                                                                                    ",
"                                                                                                                                                                                                                                                                                                                                                                                                                                                                                                                                                                                                                                                                                                                                                                                                                                                                                                                                    ",
"                                                                                                                                                                                                                                                                                                                                                                                                                                                                                                                                                                                                                                                                                                                                                                                                                                                                                                                                    ",
"                                                                                                                                                                                                                                                                                                                                                                                                                                                                                                                                                                                                                                                                                                                                                                                                                                                                                                                                    ",
"                                                                                                                                                                                                                                                                                                                                                                                                                                                                                                                                                                                                                                                                                                                                                                                                                                                                                                                                    ",
"                                                                                                                                                                                                                                                                                                                                                                                                                                                                                                                                                                                                                                                                                                                                                                                                                                                                                                                                    ",
"                                                                                                                                                                                                                                                                                                                                                                                                                                                                                                                                                                                                                                                                                                                                                                                                                                                                                                                                    ",
"                                                                                                                                                                                                                                                                                                                                                                                                                                                                                                                                                                                                                                                                                                                                                                                                                                                                                                                                    ",
"                                                                                                                                                                                                                                                                                                                                                                                                                                                                                                                                                                                                                                                                                                                                                                                                                                                                                                                                    ",
"                                                                                                                                                                                                                                                                                                                                                                                                                                                                                                                                                                                                                                                                                                                                                                                                                                                                                                                                    ",
"                                                                                                                                                                                                                                                                                                                                                                                                                                                                                                                                                                                                                                                                                                                                                                                                                                                                                                                                    ",
"                                                                                                                                                                                                                                                                                                                                                                                                                                                                                                                                                                                                                                                                                                                                                                                                                                                                                                                                    ",
"                                                                                                                                                                                                                                                                                                                                                                                                                                                                                                                                                                                                                                                                                                                                                                                                                                                                                                                                    ",
"                                                                                                                                                                                                                                                                                                                                                                                                                                                                                                                                                                                                                                                                                                                                                                                                                                                                                                                                    ",
"                                                                                                                                                                                                                                                                                                                                                                                                                                                                                                                                                                                                                                                                                                                                                                                                                                                                                                                                    "};
